luts/P4P_10_Mono_size65.cube
# POCKET 4P D-Log2 LUT pack v1.0 - Mono
# Black and white, orange-filter response, warm print tone.
# Input:  DJI Osmo Pocket 4P D-Log2 / D-Gamut2, full range
# Output: Rec.709 / gamma 2.4 display
# Built on DJI's official D-Log2 to Rec.709 colorimetry with a
# scene-linear highlight shoulder so nothing clips at +7 stops.
TITLE "POCKET 4P Mono v1.0"
LUT_3D_SIZE 9
DOMAIN_MIN 0.0 0.0 0.0
DOMAIN_MAX 1.0 1.0 1.0
0.000916 0.000806 0.000567
0.010968 0.010759 0.010300
0.072273 0.071458 0.069663
0.256787 0.254144 0.248331
0.511968 0.506799 0.495427
0.694007 0.687036 0.671699
0.775192 0.769335 0.755907
0.813249 0.808031 0.796034
0.837199 0.832423 0.821417
0.012050 0.011831 0.011349
0.036134 0.035677 0.034670
0.112654 0.111439 0.108765
0.269344 0.266577 0.260490
0.511817 0.506650 0.495281
0.689515 0.682588 0.667349
0.771741 0.765829 0.752279
0.809493 0.804209 0.792063
0.833236 0.828385 0.817209
0.083590 0.082662 0.080621
0.105884 0.104735 0.102209
0.243925 0.241410 0.235876
0.399310 0.395256 0.386338
0.539985 0.534539 0.522557
0.703885 0.696816 0.681264
0.776612 0.770778 0.757400
0.812719 0.807492 0.795473
0.835744 0.830940 0.819872
0.263032 0.260327 0.254378
0.270595 0.267815 0.261701
0.311005 0.307825 0.300831
0.582084 0.576221 0.563322
0.758879 0.752769 0.738562
0.761048 0.754971 0.741051
0.796030 0.790514 0.777849
0.826733 0.821760 0.810311
0.847361 0.842783 0.832221
0.488177 0.483244 0.472390
0.490793 0.485834 0.474923
0.511432 0.506269 0.494908
0.573270 0.567494 0.554787
0.852204 0.847722 0.837378
0.887283 0.883553 0.874907
0.873024 0.868977 0.859613
0.868870 0.864733 0.855168
0.875124 0.871123 0.861862
0.682818 0.675958 0.660864
0.683529 0.676661 0.661552
0.701153 0.694111 0.678618
0.755403 0.749240 0.734322
0.877936 0.873997 0.864876
0.924472 0.921663 0.915109
0.931858 0.929252 0.923161
0.926895 0.924152 0.917748
0.922388 0.919523 0.912842
0.877688 0.873743 0.864610
0.878413 0.874484 0.865387
0.885552 0.881783 0.873048
0.898871 0.895413 0.887381
0.923402 0.920564 0.913945
0.940935 0.938589 0.933094
0.947352 0.945198 0.940145
0.948310 0.946186 0.941200
0.947426 0.945274 0.940226
0.921579 0.918693 0.911963
0.921589 0.918703 0.911974
0.923882 0.921057 0.914468
0.927026 0.924286 0.917891
0.935603 0.933103 0.927254
0.946626 0.944450 0.939346
0.951905 0.949893 0.945165
0.953921 0.951973 0.947392
0.954163 0.952222 0.947659
0.931278 0.928656 0.922528
0.931296 0.928674 0.922548
0.932319 0.929725 0.923664
0.934015 0.931469 0.925517
0.938598 0.936184 0.930533
0.947036 0.944872 0.939797
0.952842 0.950859 0.946199
0.955589 0.953695 0.949237
0.956517 0.954653 0.950265
0.000000 0.000000 0.000000
0.016804 0.016538 0.015952
0.090638 0.089641 0.087446
0.268812 0.266051 0.259975
0.517120 0.511900 0.500416
0.695641 0.688654 0.673281
0.775535 0.769684 0.756268
0.813255 0.808037 0.796040
0.837103 0.832325 0.821315
0.016886 0.016619 0.016031
0.045991 0.045436 0.044214
0.129948 0.128561 0.125511
0.283306 0.280401 0.274010
0.518005 0.512776 0.501273
0.691580 0.684632 0.669348
0.772141 0.766236 0.752700
0.809728 0.804448 0.792310
0.833285 0.828434 0.817260
0.100924 0.099825 0.097406
0.119773 0.118487 0.115658
0.245440 0.242910 0.237344
0.405800 0.401682 0.392623
0.548162 0.542635 0.530474
0.706259 0.699166 0.683562
0.776907 0.771077 0.757710
0.812754 0.807527 0.795510
0.835708 0.830903 0.819833
0.271372 0.268585 0.262454
0.279332 0.276467 0.270162
0.315421 0.312198 0.305107
0.585038 0.579146 0.566182
0.759404 0.753302 0.739208
0.760480 0.754394 0.740455
0.795669 0.790148 0.777469
0.826227 0.821245 0.809775
0.846753 0.842163 0.831575
0.490771 0.485812 0.474902
0.492944 0.487963 0.477006
0.512847 0.507669 0.496278
0.571657 0.565897 0.553225
0.852329 0.847850 0.837512
0.886971 0.883234 0.874572
0.871851 0.867778 0.858357
0.868507 0.864363 0.854780
0.875458 0.871464 0.862220
0.683075 0.676212 0.661113
0.682978 0.676115 0.661019
0.699361 0.692336 0.676883
0.755692 0.749533 0.734672
0.877713 0.873769 0.864637
0.924317 0.921503 0.914940
0.931636 0.929024 0.922919
0.926385 0.923628 0.917192
0.921743 0.918861 0.912141
0.878166 0.874231 0.865122
0.877940 0.874000 0.864880
0.884426 0.880631 0.871838
0.898505 0.895038 0.886987
0.923054 0.920207 0.913566
0.940856 0.938507 0.933007
0.947208 0.945050 0.939986
0.948143 0.946013 0.941016
0.947282 0.945127 0.940069
0.921558 0.918671 0.911940
0.921398 0.918507 0.911766
0.923451 0.920615 0.913999
0.926785 0.924038 0.917628
0.935435 0.932930 0.927070
0.946587 0.944410 0.939303
0.951867 0.949854 0.945122
0.953869 0.951919 0.947335
0.954077 0.952133 0.947564
0.931298 0.928676 0.922550
0.931257 0.928634 0.922505
0.932202 0.929605 0.923537
0.933807 0.931256 0.925290
0.938458 0.936039 0.930378
0.946972 0.944807 0.939727
0.952828 0.950845 0.946184
0.955565 0.953670 0.949210
0.956460 0.954594 0.950201
0.012788 0.012562 0.012063
0.033707 0.033273 0.032319
0.129260 0.127881 0.124845
0.305570 0.302445 0.295569
0.544014 0.538527 0.526457
0.709414 0.702290 0.686618
0.778015 0.772203 0.758876
0.814020 0.808816 0.796849
0.837175 0.832398 0.821391
0.027273 0.026903 0.026089
0.045992 0.045436 0.044214
0.151023 0.149427 0.145918
0.317165 0.313925 0.306797
0.545799 0.540295 0.528186
0.706264 0.699171 0.683567
0.775093 0.769235 0.755803
0.810564 0.805299 0.793195
0.833590 0.828745 0.817584
0.129237 0.127857 0.124822
0.141195 0.139697 0.136401
0.264960 0.262237 0.256245
0.436237 0.431818 0.422096
0.581337 0.575481 0.562598
0.719328 0.712106 0.696217
0.779978 0.774197 0.760940
0.814380 0.809183 0.797230
0.836754 0.831969 0.820944
0.302075 0.298984 0.292184
0.309018 0.305858 0.298907
0.344295 0.340786 0.333066
0.608426 0.602302 0.588829
0.777424 0.771603 0.758254
0.765025 0.759009 0.745226
0.797757 0.792270 0.779670
0.827624 0.822667 0.811255
0.847855 0.843286 0.832747
0.504806 0.499708 0.488492
0.507136 0.502015 0.490749
0.523415 0.518132 0.506511
0.575132 0.569338 0.556590
0.855753 0.851344 0.841162
0.888781 0.885086 0.876517
0.872820 0.868768 0.859395
0.869641 0.865522 0.855994
0.876100 0.872120 0.862908
0.689541 0.682614 0.667374
0.689279 0.682354 0.667120
0.700012 0.692981 0.677513
0.767829 0.761856 0.748169
0.880109 0.876217 0.867205
0.925308 0.922521 0.916019
0.932315 0.929721 0.923659
0.926661 0.923911 0.917493
0.921978 0.919102 0.912397
0.880396 0.876511 0.867513
0.880216 0.876327 0.867320
0.884826 0.881040 0.872268
0.899967 0.896535 0.888563
0.924220 0.921404 0.914835
0.941263 0.938926 0.933453
0.947450 0.945299 0.940253
0.948408 0.946287 0.941308
0.947529 0.945381 0.940340
0.922272 0.919404 0.912716
0.922122 0.919250 0.912553
0.923474 0.920638 0.914023
0.927075 0.924336 0.917943
0.935873 0.933380 0.927549
0.946731 0.944558 0.939461
0.951940 0.949929 0.945203
0.953951 0.952003 0.947424
0.954193 0.952254 0.947693
0.931674 0.929063 0.922960
0.931638 0.929026 0.922921
0.932254 0.929658 0.923593
0.933956 0.931409 0.925453
0.938755 0.936346 0.930705
0.947114 0.944953 0.939883
0.952903 0.950923 0.946267
0.955640 0.953747 0.949293
0.956554 0.954691 0.950306
0.099120 0.098039 0.095659
0.085981 0.085030 0.082937
0.182971 0.181060 0.176854
0.362826 0.359134 0.351011
0.587933 0.582012 0.568986
0.752108 0.745896 0.730359
0.799541 0.794085 0.781553
0.825740 0.820748 0.809258
0.843916 0.839270 0.828556
0.105756 0.104609 0.102085
0.097165 0.096103 0.093767
0.190855 0.188865 0.184488
0.366051 0.362327 0.354134
0.587770 0.581851 0.568828
0.749649 0.743400 0.727436
0.796981 0.791481 0.778852
0.823097 0.818057 0.806458
0.841065 0.836363 0.825524
0.154764 0.153132 0.149541
0.157876 0.156213 0.152554
0.254513 0.251893 0.246129
0.425457 0.421145 0.411658
0.618357 0.612135 0.598446
0.759349 0.753245 0.739140
0.799962 0.794513 0.781997
0.824846 0.819838 0.808311
0.842441 0.837766 0.826987
0.344495 0.340984 0.333260
0.346635 0.343103 0.335333
0.381255 0.377380 0.368856
0.621234 0.614983 0.601231
0.809344 0.804057 0.791905
0.797563 0.792073 0.779466
0.815149 0.809965 0.798043
0.836407 0.831616 0.820575
0.852781 0.848311 0.837994
0.541803 0.536339 0.524317
0.543943 0.538458 0.526389
0.561042 0.555387 0.542946
0.678807 0.671986 0.656980
0.875553 0.871560 0.862321
0.898817 0.895357 0.887323
0.877778 0.873835 0.864706
0.872743 0.868690 0.859313
0.877732 0.873788 0.864657
0.708581 0.701465 0.685811
0.708829 0.701711 0.686051
0.721091 0.713851 0.697924
0.776690 0.770857 0.757482
0.884815 0.881029 0.872256
0.931278 0.928655 0.922528
0.934461 0.931928 0.926005
0.927857 0.925139 0.918796
0.923917 0.921093 0.914506
0.885975 0.882216 0.873502
0.885849 0.882087 0.873367
0.890343 0.886684 0.878197
0.900837 0.897426 0.889502
0.925973 0.923205 0.916744
0.941473 0.939143 0.933684
0.947809 0.945669 0.940648
0.948756 0.946645 0.941691
0.947886 0.945749 0.940733
0.924445 0.921635 0.915079
0.924322 0.921509 0.914946
0.925590 0.922811 0.916326
0.928220 0.925513 0.919192
0.937165 0.934709 0.928963
0.947120 0.944959 0.939890
0.952066 0.950059 0.945343
0.954004 0.952058 0.947483
0.954343 0.952408 0.947859
0.933192 0.930623 0.924618
0.933131 0.930561 0.924552
0.933777 0.931225 0.925257
0.935054 0.932537 0.926653
0.939673 0.937290 0.931711
0.947510 0.945362 0.940319
0.953152 0.951179 0.946542
0.955764 0.953875 0.949431
0.956693 0.954834 0.950459
0.230099 0.227721 0.222488
0.231185 0.228796 0.223540
0.238732 0.236268 0.230848
0.461376 0.456708 0.446438
0.615995 0.609796 0.596158
0.779238 0.773446 0.760162
0.826451 0.821472 0.810011
0.848504 0.843948 0.833438
0.863013 0.858753 0.848909
0.229096 0.226728 0.221518
0.230009 0.227632 0.222402
0.235858 0.233423 0.228065
0.455615 0.451004 0.440860
0.609668 0.603532 0.590032
0.774753 0.768889 0.755445
0.823650 0.818620 0.807043
0.845825 0.841217 0.830587
0.860442 0.856129 0.846164
0.236124 0.233687 0.228323
0.236954 0.234508 0.229127
0.242403 0.239903 0.234403
0.464656 0.459955 0.449614
0.614288 0.608106 0.594505
0.776507 0.770671 0.757290
0.823959 0.818935 0.807371
0.845788 0.841179 0.830548
0.860251 0.855934 0.845960
0.343736 0.340232 0.332525
0.341233 0.337754 0.330101
0.353823 0.350219 0.342292
0.585931 0.580030 0.567047
0.764497 0.758473 0.744671
0.807685 0.802370 0.790152
0.836046 0.831248 0.820192
0.854965 0.850540 0.840322
0.867975 0.863819 0.854211
0.688863 0.681943 0.666718
0.690084 0.683152 0.667900
0.709765 0.702638 0.686957
0.789851 0.784232 0.771336
0.876207 0.872229 0.863022
0.912658 0.909540 0.902282
0.896198 0.892675 0.884500
0.889445 0.885765 0.877231
0.891259 0.887620 0.879182
0.790970 0.785369 0.772514
0.791905 0.786320 0.773500
0.803227 0.797834 0.785443
0.840078 0.835357 0.824475
0.901752 0.898363 0.890490
0.937070 0.934612 0.928859
0.942045 0.939732 0.934312
0.934450 0.931916 0.925993
0.929361 0.926685 0.920435
0.882619 0.878784 0.869898
0.882613 0.878777 0.869892
0.886680 0.882936 0.874259
0.895741 0.892207 0.884007
0.917016 0.914009 0.907007
0.939476 0.937087 0.931494
0.949735 0.947655 0.942770
0.951247 0.949214 0.944438
0.949769 0.947690 0.942808
0.922681 0.919824 0.913161
0.922597 0.919737 0.913069
0.924093 0.921273 0.914696
0.927316 0.924583 0.918206
0.935420 0.932914 0.927053
0.947603 0.945457 0.940421
0.952320 0.950321 0.945623
0.954435 0.952504 0.947960
0.955072 0.953160 0.948664
0.937373 0.934923 0.929190
0.937333 0.934882 0.929147
0.938279 0.935855 0.930183
0.939994 0.937620 0.932062
0.943988 0.941733 0.936446
0.949600 0.947516 0.942621
0.954025 0.952080 0.947506
0.956252 0.954379 0.949971
0.957023 0.955175 0.950825
0.325819 0.322493 0.315176
0.324383 0.321071 0.313786
0.328145 0.324796 0.317428
0.427898 0.423562 0.414021
0.700363 0.693329 0.677853
0.804421 0.799049 0.786704
0.841086 0.836385 0.825547
0.861943 0.857661 0.847767
0.875063 0.871060 0.861797
0.324259 0.320949 0.313665
0.322562 0.319268 0.312022
0.324746 0.321431 0.314137
0.422085 0.417806 0.408392
0.692760 0.685801 0.670491
0.799225 0.793763 0.781219
0.838211 0.833455 0.822492
0.859492 0.855159 0.845150
0.872733 0.868680 0.859302
0.327680 0.324336 0.316978
0.325413 0.322091 0.314783
0.326762 0.323427 0.316089
0.421063 0.416794 0.407402
0.690261 0.683327 0.668072
0.797437 0.791945 0.779333
0.837305 0.832531 0.821530
0.858761 0.854412 0.844369
0.872116 0.868050 0.858642
0.350123 0.346556 0.338710
0.346500 0.342969 0.335202
0.350346 0.346777 0.338925
0.444535 0.440034 0.430131
0.724875 0.717598 0.701589
0.814497 0.809302 0.797354
0.844107 0.839465 0.828759
0.863842 0.859599 0.849794
0.876497 0.872526 0.863333
0.699741 0.692712 0.677251
0.696886 0.689886 0.674486
0.701804 0.694755 0.679248
0.725635 0.718351 0.702325
0.870966 0.866875 0.857411
0.908084 0.904851 0.897331
0.895871 0.892341 0.884148
0.892225 0.888609 0.880222
0.895348 0.891805 0.883584
0.881265 0.877399 0.868446
0.881137 0.877269 0.868309
0.883525 0.879709 0.870870
0.890447 0.886790 0.878309
0.916020 0.912988 0.905927
0.938062 0.935632 0.929945
0.945734 0.943531 0.938365
0.940875 0.938527 0.933028
0.935908 0.933416 0.927588
0.905508 0.902210 0.894545
0.905448 0.902149 0.894481
0.907132 0.903874 0.896301
0.911277 0.908124 0.900786
0.925120 0.922329 0.915815
0.942313 0.940008 0.934606
0.951484 0.949458 0.944700
0.954288 0.952352 0.947798
0.953289 0.951321 0.946693
0.921750 0.918868 0.912148
0.921699 0.918816 0.912093
0.922856 0.920004 0.913352
0.925374 0.922589 0.916091
0.932393 0.929802 0.923745
0.944806 0.942575 0.937345
0.951952 0.949941 0.945216
0.955818 0.953930 0.949490
0.956939 0.955089 0.950732
0.933026 0.930452 0.924436
0.933026 0.930452 0.924436
0.933802 0.931250 0.925284
0.935625 0.933124 0.927277
0.940765 0.938414 0.932908
0.948237 0.946110 0.941119
0.953874 0.951924 0.947340
0.956479 0.954614 0.950223
0.957810 0.955988 0.951697
0.430375 0.426014 0.416419
0.427147 0.422818 0.413294
0.428248 0.423908 0.414360
0.489504 0.484557 0.473675
0.714021 0.706852 0.691079
0.846048 0.841443 0.830824
0.865136 0.860920 0.851177
0.874876 0.870869 0.861596
0.884629 0.880839 0.872057
0.425478 0.421166 0.411678
0.421959 0.417681 0.408270
0.421210 0.416940 0.407545
0.481063 0.476200 0.465501
0.706606 0.699510 0.683899
0.841930 0.837245 0.826444
0.862413 0.858140 0.848268
0.872252 0.868189 0.858787
0.882274 0.878431 0.869528
0.431687 0.427313 0.417689
0.427076 0.422747 0.413224
0.424806 0.420500 0.411027
0.478029 0.473196 0.462564
0.704292 0.697218 0.681657
0.840566 0.835854 0.824994
0.861573 0.857283 0.847371
0.871563 0.867484 0.858049
0.881701 0.877845 0.868914
0.447053 0.442527 0.432569
0.439411 0.434960 0.425169
0.439730 0.435276 0.425477
0.487850 0.482920 0.472074
0.709484 0.702359 0.686685
0.843432 0.838776 0.828041
0.863617 0.859369 0.849554
0.873516 0.869480 0.860140
0.883537 0.879722 0.870884
0.596026 0.590025 0.576822
0.585974 0.580072 0.567088
0.590545 0.584598 0.571515
0.622428 0.616165 0.602387
0.796511 0.791003 0.778356
0.887704 0.883984 0.875360
0.890132 0.886468 0.877970
0.890630 0.886977 0.878506
0.896000 0.892473 0.884286
0.886235 0.882481 0.873781
0.885647 0.881880 0.873149
0.887247 0.883516 0.874868
0.890639 0.886986 0.878515
0.903905 0.900568 0.892813
0.938178 0.935752 0.930073
0.944678 0.942443 0.937204
0.941940 0.939623 0.934196
0.937938 0.935505 0.929810
0.921060 0.918159 0.911398
0.921068 0.918167 0.911407
0.921915 0.919037 0.912328
0.923985 0.921163 0.914580
0.932154 0.929556 0.923484
0.945598 0.943391 0.938216
0.950775 0.948727 0.943917
0.954707 0.952784 0.948260
0.954399 0.952466 0.947920
0.930412 0.927765 0.921582
0.930367 0.927719 0.921533
0.931086 0.928458 0.922318
0.932512 0.929924 0.923875
0.938120 0.935691 0.930008
0.947874 0.945737 0.940720
0.953088 0.951113 0.946471
0.956164 0.954288 0.949874
0.957734 0.955909 0.951613
0.935760 0.933264 0.927425
0.935725 0.933228 0.927387
0.936538 0.934064 0.928276
0.938182 0.935755 0.930076
0.942192 0.939883 0.934473
0.949283 0.947189 0.942273
0.953853 0.951903 0.947317
0.956447 0.954580 0.950187
0.958107 0.956295 0.952026
0.562705 0.557034 0.544557
0.558920 0.553286 0.540891
0.554530 0.548940 0.536641
0.585748 0.579849 0.566870
0.714760 0.707583 0.691794
0.854709 0.850278 0.840048
0.888011 0.884297 0.875689
0.892597 0.888990 0.880622
0.896896 0.893390 0.885252
0.555334 0.549735 0.537419
0.550797 0.545244 0.533026
0.544655 0.539162 0.527078
0.575530 0.569732 0.556976
0.705516 0.698431 0.682843
0.850645 0.846132 0.835718
0.885505 0.881734 0.872997
0.890318 0.886658 0.878170
0.894597 0.891037 0.882776
0.562321 0.556653 0.544184
0.555889 0.550285 0.537956
0.550169 0.544622 0.532418
0.571993 0.566230 0.553550
0.702610 0.695554 0.680029
0.849345 0.844807 0.834334
0.884745 0.880957 0.872181
0.889716 0.886042 0.877523
0.894060 0.890487 0.882197
0.577474 0.571657 0.558858
0.569005 0.563271 0.550657
0.566125 0.560420 0.547869
0.582346 0.576481 0.563576
0.706952 0.699852 0.684233
0.851674 0.847182 0.836814
0.886124 0.882367 0.873661
0.891227 0.887588 0.879148
0.895645 0.892109 0.883904
0.639934 0.633498 0.619339
0.630234 0.623894 0.609946
0.633975 0.627598 0.613568
0.654677 0.648095 0.633615
0.755135 0.748968 0.733999
0.872663 0.868608 0.859227
0.898207 0.894732 0.886665
0.900041 0.896610 0.888642
0.903110 0.899754 0.891955
0.866357 0.862168 0.852482
0.864113 0.859876 0.850084
0.863804 0.859561 0.849754
0.863608 0.859361 0.849545
0.874486 0.870470 0.861179
0.928432 0.925730 0.919422
0.939967 0.937592 0.932032
0.936980 0.934519 0.928760
0.933047 0.930473 0.924459
0.924405 0.921594 0.915036
0.924232 0.921417 0.914849
0.924924 0.922127 0.915601
0.926639 0.923888 0.917468
0.931761 0.929151 0.923054
0.943380 0.941107 0.935778
0.952038 0.950030 0.945311
0.954417 0.952485 0.947941
0.954827 0.952908 0.948394
0.936085 0.933598 0.927781
0.936054 0.933567 0.927747
0.936744 0.934276 0.928502
0.938201 0.935775 0.930097
0.942040 0.939726 0.934306
0.949556 0.947470 0.942573
0.953847 0.951896 0.947310
0.955949 0.954066 0.949635
0.957614 0.955786 0.951480
0.941516 0.939186 0.933731
0.941452 0.939121 0.933661
0.942057 0.939744 0.934325
0.943109 0.940827 0.935480
0.945672 0.943467 0.938297
0.951093 0.949055 0.944268
0.954767 0.952845 0.948327
0.956814 0.954960 0.950594
0.958179 0.956369 0.952106
0.653084 0.646518 0.632073
0.649507 0.642976 0.628608
0.644481 0.638000 0.623742
0.662359 0.655701 0.641054
0.741511 0.734338 0.717961
0.855987 0.851582 0.841411
0.899333 0.895885 0.887879
0.905851 0.902562 0.894916
0.907764 0.904523 0.896985
0.646335 0.639836 0.625537
0.641572 0.635120 0.620925
0.634678 0.628294 0.614249
0.651650 0.645098 0.630684
0.731373 0.724031 0.707881
0.851986 0.847500 0.837146
0.896799 0.893290 0.885147
0.903755 0.900415 0.892652
0.905744 0.902453 0.894801
0.652205 0.645647 0.631221
0.645801 0.639307 0.625020
0.639954 0.633518 0.619358
0.647760 0.641246 0.626917
0.727931 0.720624 0.704548
0.850567 0.846052 0.835634
0.896078 0.892553 0.884371
0.903190 0.899836 0.892041
0.905270 0.901967 0.894288
0.666929 0.660225 0.645478
0.658353 0.651734 0.637174
0.655433 0.648844 0.634347
0.659416 0.652787 0.638203
0.732292 0.724941 0.708771
0.852884 0.848416 0.838103
0.897603 0.894113 0.886013
0.904574 0.901253 0.893536
0.906722 0.903455 0.895858
0.709337 0.702214 0.686543
0.697613 0.690606 0.675191
0.699204 0.692181 0.676731
0.712334 0.705181 0.689445
0.764561 0.758538 0.744738
0.865628 0.861423 0.851703
0.904756 0.901441 0.893733
0.909982 0.906796 0.899384
0.911442 0.908293 0.900964
0.844846 0.840218 0.829546
0.840697 0.835988 0.825133
0.840040 0.835319 0.824435
0.840600 0.835889 0.825030
0.856608 0.852216 0.842073
0.914258 0.911181 0.904016
0.934354 0.931818 0.925888
0.933744 0.931190 0.925221
0.931712 0.929101 0.923001
0.923154 0.920309 0.913675
0.922834 0.919980 0.913327
0.923476 0.920640 0.914026
0.924778 0.921977 0.915442
0.926946 0.924204 0.917804
0.938236 0.935811 0.930136
0.951225 0.949191 0.944414
0.953913 0.951965 0.947383
0.954153 0.952212 0.947648
0.938809 0.936401 0.930763
0.938689 0.936277 0.930631
0.939268 0.936873 0.931267
0.940491 0.938131 0.932607
0.943180 0.940900 0.935558
0.949371 0.947279 0.942369
0.953410 0.951445 0.946826
0.956359 0.954489 0.950089
0.957499 0.955666 0.951352
0.944476 0.942235 0.936982
0.944437 0.942195 0.936939
0.944894 0.942666 0.937441
0.945750 0.943547 0.938382
0.947562 0.945415 0.940377
0.951930 0.949919 0.945192
0.955214 0.953307 0.948821
0.957051 0.955204 0.950856
0.958061 0.956247 0.951975
