luts/P4P_03_Natural_size33.cube
# POCKET 4P D-Log2 LUT pack v1.0 - Natural
# Everyday. True-to-life with warmer skin and calmer greens.
# Input:  DJI Osmo Pocket 4P D-Log2 / D-Gamut2, full range
# Output: Rec.709 / gamma 2.4 display
# Built on DJI's official D-Log2 to Rec.709 colorimetry with a
# scene-linear highlight shoulder so nothing clips at +7 stops.
TITLE "POCKET 4P Natural v1.0"
LUT_3D_SIZE 9
DOMAIN_MIN 0.0 0.0 0.0
DOMAIN_MAX 1.0 1.0 1.0
0.021334 0.021182 0.020811
0.048527 0.000000 0.003577
0.152831 0.000000 0.000000
0.423488 0.000000 0.000000
0.757570 0.000000 0.000000
0.863893 0.063403 0.034113
0.888576 0.271103 0.186871
0.897859 0.380454 0.283118
0.903275 0.455689 0.353647
0.041175 0.093992 0.057352
0.110971 0.116598 0.049422
0.245080 0.046947 0.000000
0.449612 0.000000 0.000000
0.759583 0.000000 0.000000
0.862750 0.053552 0.025999
0.887837 0.262341 0.178749
0.897074 0.369620 0.272717
0.902476 0.443169 0.341199
0.121661 0.328474 0.194687
0.199346 0.401243 0.195024
0.456724 0.475844 0.164453
0.690089 0.263177 0.013550
0.805150 0.000000 0.000000
0.869552 0.096286 0.048557
0.889652 0.278380 0.189396
0.898154 0.380937 0.281097
0.903255 0.452459 0.348626
0.302322 0.802041 0.469306
0.315704 0.818458 0.477778
0.494495 0.877192 0.449666
0.864536 0.877429 0.335976
0.929590 0.518948 0.103839
0.891984 0.263925 0.146186
0.896113 0.340950 0.234484
0.902281 0.428708 0.319685
0.906371 0.494371 0.385200
0.521065 0.963145 0.776232
0.522990 0.963822 0.779967
0.550444 0.969525 0.801715
0.830537 0.982176 0.729376
0.963788 0.970627 0.497109
0.951932 0.868613 0.456173
0.924401 0.667403 0.456013
0.916214 0.603801 0.453524
0.914681 0.611661 0.483144
0.764790 0.986413 0.869836
0.764752 0.986401 0.870121
0.780798 0.986231 0.872308
0.831986 0.985295 0.870097
0.941266 0.979658 0.828639
0.974069 0.977519 0.661208
0.960739 0.942403 0.691419
0.943089 0.892815 0.708096
0.933418 0.854710 0.700482
0.896612 0.973835 0.879051
0.896860 0.973697 0.879245
0.899701 0.972276 0.880971
0.904658 0.969115 0.884822
0.918892 0.961563 0.889926
0.945278 0.961446 0.870364
0.959900 0.962715 0.833308
0.955709 0.949924 0.829557
0.949300 0.936116 0.832921
0.913200 0.961522 0.892949
0.913197 0.961517 0.892958
0.913963 0.960507 0.893993
0.914839 0.958981 0.895571
0.919971 0.954762 0.898285
0.929773 0.949569 0.898829
0.943301 0.952137 0.885183
0.949298 0.951780 0.872961
0.949479 0.947698 0.867325
0.916582 0.956852 0.897463
0.916601 0.956845 0.897463
0.917242 0.956329 0.897769
0.918175 0.955420 0.898383
0.920249 0.952673 0.900480
0.925822 0.947430 0.903258
0.933423 0.945430 0.900599
0.940448 0.946393 0.893494
0.944038 0.946338 0.887250
0.000000 0.000000 0.026380
0.034460 0.000000 0.024349
0.149731 0.000000 0.013868
0.406867 0.000000 0.000000
0.756414 0.000000 0.000000
0.863200 0.063154 0.038157
0.888224 0.270122 0.188221
0.897610 0.379259 0.283487
0.903085 0.454486 0.353589
0.021381 0.085698 0.083734
0.084791 0.084208 0.082728
0.213618 0.000000 0.003595
0.433626 0.000000 0.000000
0.759978 0.000000 0.000000
0.862133 0.054176 0.030861
0.887460 0.261415 0.180298
0.896853 0.369025 0.273749
0.902300 0.442354 0.341615
0.107879 0.343585 0.240012
0.153848 0.409826 0.253414
0.429419 0.447280 0.184256
0.679124 0.197560 0.003429
0.805123 0.000000 0.000000
0.869216 0.098122 0.053745
0.889223 0.276998 0.190741
0.897877 0.379691 0.281609
0.903054 0.451358 0.348807
0.295920 0.805936 0.488605
0.306698 0.821052 0.499063
0.474671 0.881997 0.470184
0.861264 0.873570 0.343995
0.926882 0.491509 0.106197
0.891306 0.260017 0.145649
0.895732 0.338517 0.233972
0.901981 0.426136 0.318451
0.906103 0.491550 0.383386
0.520698 0.963461 0.780958
0.521932 0.963993 0.784261
0.548192 0.969525 0.803858
0.825923 0.982438 0.734771
0.963378 0.970175 0.499325
0.951195 0.865197 0.456826
0.923603 0.658795 0.452503
0.915831 0.600553 0.452690
0.914531 0.611683 0.484866
0.763994 0.986412 0.870193
0.762830 0.986416 0.870524
0.777421 0.986255 0.872646
0.831638 0.985242 0.870276
0.941061 0.979646 0.828906
0.974028 0.977479 0.660766
0.960721 0.942176 0.689832
0.942667 0.890816 0.705589
0.932934 0.851759 0.697246
0.896630 0.973735 0.879272
0.896439 0.973771 0.879285
0.898982 0.972493 0.880866
0.904430 0.969204 0.884769
0.918717 0.961698 0.889821
0.945273 0.961492 0.870295
0.960059 0.962886 0.832487
0.955907 0.950104 0.828426
0.949428 0.936176 0.832048
0.913138 0.961524 0.892978
0.913073 0.961591 0.892915
0.913748 0.960691 0.893846
0.914727 0.959094 0.895477
0.919873 0.954853 0.898226
0.929736 0.949587 0.898833
0.943339 0.952195 0.885076
0.949378 0.951867 0.872698
0.949605 0.947812 0.866832
0.916569 0.956838 0.897488
0.916544 0.956858 0.897475
0.917141 0.956382 0.897754
0.918093 0.955539 0.898282
0.920168 0.952758 0.900425
0.925773 0.947470 0.903244
0.933408 0.945436 0.900604
0.940492 0.946448 0.893398
0.944156 0.946465 0.886959
0.000000 0.000000 0.088712
0.000000 0.000000 0.095224
0.129773 0.000000 0.082801
0.373510 0.000000 0.051065
0.724698 0.000000 0.000000
0.859160 0.067350 0.070225
0.886821 0.268273 0.196659
0.896848 0.377164 0.286976
0.902511 0.451715 0.354709
0.000000 0.025412 0.127887
0.000000 0.000000 0.130122
0.144602 0.000000 0.096415
0.387573 0.000000 0.050472
0.728805 0.000000 0.000000
0.858792 0.062065 0.064166
0.886219 0.260954 0.189651
0.896098 0.367077 0.277386
0.901756 0.440270 0.343484
0.070050 0.333858 0.316373
0.075501 0.351624 0.337285
0.291210 0.289970 0.286826
0.534586 0.000000 0.099867
0.778629 0.000000 0.000000
0.866823 0.106136 0.082722
0.888295 0.278021 0.200152
0.897405 0.380524 0.287316
0.902720 0.451901 0.352942
0.248144 0.800303 0.572207
0.254156 0.811128 0.582665
0.343968 0.855676 0.587381
0.793440 0.807145 0.444753
0.919317 0.459735 0.160384
0.889966 0.261072 0.158798
0.895020 0.338815 0.240915
0.901569 0.426918 0.323679
0.905842 0.492687 0.387856
0.500530 0.963495 0.809420
0.502786 0.964160 0.811164
0.523747 0.968785 0.821297
0.801044 0.983159 0.768396
0.960402 0.967454 0.524440
0.949009 0.858187 0.471307
0.922557 0.654470 0.458644
0.915332 0.600609 0.458367
0.914288 0.612046 0.488138
0.759493 0.986218 0.873744
0.757834 0.986231 0.874182
0.764926 0.986128 0.876278
0.837795 0.984677 0.871172
0.939973 0.979027 0.832794
0.973304 0.976778 0.670280
0.960009 0.941261 0.697454
0.941679 0.888419 0.710085
0.932202 0.849711 0.700478
0.896853 0.973267 0.880225
0.896678 0.973296 0.880248
0.898461 0.972365 0.881407
0.904848 0.968802 0.885312
0.918764 0.961135 0.890619
0.944884 0.961049 0.871434
0.959685 0.962488 0.834099
0.955487 0.949650 0.830401
0.949097 0.935879 0.833723
0.913262 0.961199 0.893377
0.913200 0.961263 0.893317
0.913627 0.960662 0.893945
0.914702 0.958927 0.895695
0.919841 0.954547 0.898601
0.929555 0.949373 0.899169
0.943243 0.952070 0.885319
0.949223 0.951686 0.873126
0.949379 0.947580 0.867567
0.916723 0.956635 0.897659
0.916703 0.956651 0.897644
0.917083 0.956338 0.897834
0.918009 0.955424 0.898459
0.920150 0.952532 0.900686
0.925684 0.947298 0.903461
0.933250 0.945264 0.900877
0.940350 0.946271 0.893693
0.943921 0.946200 0.887470
0.000000 0.053630 0.308270
0.000000 0.000000 0.295171
0.000000 0.000000 0.282855
0.295098 0.000000 0.191230
0.644964 0.000000 0.087441
0.832371 0.049670 0.182787
0.875912 0.261119 0.269857
0.891244 0.373960 0.332041
0.899081 0.449236 0.383698
0.000000 0.072276 0.320344
0.000000 0.000000 0.315020
0.000000 0.000000 0.291746
0.297340 0.000000 0.193653
0.645521 0.000000 0.087126
0.831361 0.043149 0.177575
0.875233 0.253976 0.263165
0.890633 0.365927 0.324214
0.898444 0.439823 0.374396
0.000000 0.201378 0.406490
0.000000 0.174317 0.419477
0.030090 0.000000 0.393241
0.334728 0.000000 0.228263
0.672816 0.000000 0.096285
0.839601 0.080443 0.195167
0.877433 0.267416 0.269435
0.891829 0.374784 0.328302
0.899301 0.447033 0.378052
0.153678 0.727072 0.693958
0.154632 0.730762 0.697410
0.207031 0.740272 0.709372
0.586833 0.584654 0.579127
0.855437 0.291641 0.362518
0.869797 0.236251 0.270571
0.887103 0.335037 0.303544
0.897661 0.426047 0.359197
0.903527 0.492144 0.409991
0.406276 0.954512 0.863484
0.409982 0.954966 0.863902
0.435209 0.958791 0.868625
0.664202 0.960887 0.845910
0.912856 0.921727 0.718580
0.936524 0.822026 0.553961
0.920088 0.652266 0.485017
0.914321 0.602860 0.473348
0.913506 0.612081 0.496798
0.677576 0.983839 0.898093
0.677897 0.983879 0.898191
0.693817 0.983866 0.898329
0.800815 0.982737 0.889936
0.929846 0.975895 0.852131
0.961264 0.965079 0.766587
0.955292 0.933134 0.729511
0.939706 0.884687 0.723610
0.931383 0.850926 0.715514
0.892718 0.971725 0.885560
0.892632 0.971750 0.885549
0.895392 0.970802 0.886154
0.901853 0.968295 0.887753
0.919326 0.960353 0.891438
0.943636 0.960289 0.873951
0.958592 0.960939 0.836594
0.954442 0.948019 0.833411
0.947943 0.934184 0.837032
0.913560 0.960166 0.894665
0.913498 0.960219 0.894623
0.913948 0.959631 0.895195
0.914753 0.958320 0.896497
0.920285 0.953759 0.899307
0.929501 0.948996 0.899596
0.943917 0.952354 0.884309
0.949325 0.951453 0.872605
0.948975 0.946970 0.868458
0.917594 0.955835 0.898170
0.917556 0.955866 0.898152
0.917811 0.955499 0.898462
0.918073 0.954698 0.899257
0.920252 0.951865 0.901374
0.925609 0.946887 0.903903
0.933335 0.945044 0.901024
0.940779 0.946347 0.893118
0.943703 0.945785 0.887879
0.000000 0.171953 0.577643
0.000000 0.156185 0.582979
0.000000 0.000000 0.609119
0.084376 0.000000 0.518390
0.473661 0.000000 0.283168
0.738711 0.000000 0.293346
0.845717 0.220306 0.382019
0.871765 0.350264 0.435557
0.884743 0.433314 0.477095
0.000000 0.171463 0.575603
0.000000 0.155374 0.580625
0.000000 0.000000 0.602810
0.082246 0.000000 0.511884
0.469378 0.000000 0.280414
0.731854 0.000000 0.283857
0.843906 0.209333 0.374232
0.870440 0.339399 0.427031
0.883649 0.422404 0.468043
0.000000 0.183013 0.588815
0.000000 0.167061 0.593335
0.000000 0.008007 0.616453
0.094387 0.000000 0.523512
0.473069 0.000000 0.282904
0.735041 0.000000 0.287376
0.844262 0.210951 0.374954
0.870524 0.339590 0.426807
0.883653 0.421921 0.467269
0.000000 0.418011 0.756591
0.000000 0.402284 0.753341
0.000000 0.353022 0.769510
0.265969 0.249818 0.712153
0.578957 0.000000 0.397138
0.788277 0.053599 0.356772
0.853225 0.262688 0.408313
0.876393 0.382211 0.455120
0.888145 0.459975 0.493367
0.455400 0.899356 0.882714
0.457715 0.898686 0.882116
0.482863 0.898576 0.881752
0.616643 0.883043 0.867360
0.830122 0.826310 0.821836
0.900933 0.695670 0.715288
0.898611 0.591129 0.611184
0.899292 0.571178 0.575629
0.902314 0.591718 0.579886
0.644427 0.970713 0.917951
0.646491 0.970625 0.917758
0.668593 0.970030 0.916782
0.754500 0.966630 0.910530
0.879518 0.950118 0.885010
0.928990 0.932962 0.857181
0.936865 0.904632 0.826369
0.929406 0.867173 0.797733
0.924669 0.840641 0.769103
0.851199 0.969773 0.906585
0.851232 0.969777 0.906567
0.856053 0.969029 0.906179
0.866915 0.967183 0.905225
0.898136 0.961750 0.899214
0.933168 0.956150 0.887449
0.946198 0.948503 0.865208
0.945651 0.937440 0.858244
0.941110 0.924472 0.854571
0.899088 0.959480 0.902603
0.899005 0.959514 0.902598
0.899690 0.958824 0.903172
0.900827 0.957209 0.904669
0.909277 0.953179 0.905329
0.927104 0.947441 0.902557
0.940407 0.949678 0.889790
0.945990 0.947551 0.877860
0.945221 0.942205 0.875548
0.910872 0.952010 0.905841
0.910835 0.952034 0.905833
0.911451 0.951423 0.906188
0.912477 0.950260 0.906907
0.916309 0.947529 0.907792
0.924700 0.944399 0.906716
0.931875 0.943218 0.903690
0.939582 0.944632 0.894978
0.942113 0.943372 0.889753
0.000000 0.218000 0.771550
0.000000 0.217117 0.768778
0.000000 0.180622 0.783872
0.000000 0.070187 0.778382
0.311441 0.000000 0.581678
0.583924 0.000000 0.418099
0.801685 0.142778 0.461518
0.848483 0.310909 0.509418
0.867937 0.407361 0.547508
0.000000 0.217275 0.768494
0.000000 0.216228 0.765213
0.000000 0.178043 0.777500
0.000000 0.059780 0.773933
0.302834 0.000000 0.575114
0.573087 0.000000 0.406674
0.796834 0.128445 0.453285
0.846434 0.298708 0.501208
0.866343 0.395419 0.538838
0.000000 0.218861 0.775198
0.000000 0.217567 0.770803
0.000000 0.180893 0.781065
0.000000 0.055908 0.771972
0.300060 0.000000 0.572404
0.569574 0.000000 0.402700
0.795020 0.124041 0.450699
0.845830 0.295128 0.498775
0.865926 0.392318 0.536566
0.000000 0.254401 0.808312
0.000000 0.251319 0.804689
0.000000 0.226519 0.810876
0.000000 0.135853 0.802773
0.348623 0.000000 0.612901
0.607194 0.000000 0.441020
0.805636 0.158494 0.470199
0.850334 0.321264 0.515639
0.869155 0.415603 0.552673
0.306406 0.763575 0.900352
0.302740 0.757183 0.899580
0.305780 0.741902 0.898593
0.335148 0.699334 0.893216
0.689071 0.668542 0.861828
0.843051 0.504686 0.772162
0.864358 0.460749 0.651425
0.874931 0.484394 0.621472
0.883415 0.526228 0.627696
0.735842 0.927895 0.916662
0.735671 0.927767 0.916547
0.741985 0.927726 0.916762
0.763435 0.926534 0.916292
0.840774 0.912473 0.904929
0.893412 0.891677 0.888248
0.913953 0.868201 0.869794
0.914026 0.840088 0.845119
0.912374 0.819793 0.825657
0.830152 0.953462 0.921380
0.830124 0.953444 0.921327
0.832619 0.953058 0.921396
0.839239 0.951833 0.921193
0.866875 0.944510 0.915663
0.904905 0.930556 0.903921
0.921141 0.922346 0.896934
0.928795 0.915378 0.888092
0.928025 0.905898 0.882101
0.868205 0.955571 0.918554
0.868164 0.955583 0.918534
0.869509 0.955123 0.918635
0.872549 0.954052 0.918782
0.884033 0.950442 0.917159
0.910360 0.941927 0.909796
0.926291 0.938799 0.904221
0.931424 0.932831 0.898196
0.933342 0.928811 0.894945
0.887289 0.951755 0.916665
0.887292 0.951755 0.916663
0.888052 0.951314 0.916808
0.890214 0.950300 0.916946
0.898763 0.947512 0.915913
0.914257 0.942435 0.912331
0.926585 0.939984 0.908868
0.932124 0.938142 0.903617
0.934334 0.935290 0.900012
0.000000 0.311571 0.850492
0.000000 0.308599 0.849617
0.000000 0.303261 0.849426
0.000000 0.283099 0.839593
0.319340 0.248602 0.807292
0.582443 0.008099 0.631200
0.735682 0.113323 0.575977
0.825954 0.285272 0.581372
0.853845 0.390997 0.604813
0.000000 0.307049 0.849156
0.000000 0.303693 0.848157
0.000000 0.296309 0.847614
0.000000 0.271844 0.837821
0.309319 0.235607 0.804125
0.571290 0.000000 0.622274
0.727762 0.095763 0.567156
0.822904 0.270287 0.571830
0.851451 0.376609 0.595715
0.000000 0.312784 0.850845
0.000000 0.308535 0.849596
0.000000 0.300219 0.848615
0.000000 0.267317 0.837059
0.306220 0.230648 0.802833
0.567707 0.000000 0.619205
0.725418 0.090495 0.564444
0.822122 0.266444 0.569335
0.850878 0.373181 0.593518
0.000000 0.326413 0.853197
0.000000 0.320143 0.852341
0.000000 0.314261 0.851920
0.000000 0.282911 0.839748
0.313343 0.237204 0.804258
0.575481 0.000000 0.624897
0.731633 0.104002 0.570916
0.824494 0.277770 0.576325
0.852784 0.384437 0.600532
0.128986 0.530236 0.882309
0.114498 0.520519 0.881288
0.122564 0.508965 0.878827
0.171221 0.502778 0.875320
0.453021 0.499802 0.859736
0.721706 0.319658 0.772959
0.806228 0.284637 0.666683
0.843777 0.380617 0.642850
0.864800 0.462629 0.651652
0.687320 0.897817 0.921525
0.685516 0.897340 0.921369
0.690070 0.897142 0.921431
0.699846 0.895051 0.921089
0.753796 0.880610 0.915000
0.875578 0.868610 0.898185
0.898364 0.843918 0.880881
0.901563 0.815383 0.860617
0.901168 0.792317 0.843956
0.831747 0.932203 0.924183
0.831792 0.932166 0.924154
0.833582 0.932074 0.924166
0.838132 0.931663 0.924029
0.859441 0.926904 0.920216
0.894473 0.915625 0.910823
0.908074 0.907051 0.904395
0.917675 0.901382 0.899954
0.919752 0.894241 0.893693
0.860309 0.942568 0.924904
0.860248 0.942562 0.924882
0.861553 0.942337 0.924881
0.864224 0.941754 0.924766
0.877040 0.938291 0.922329
0.900766 0.929344 0.915214
0.913248 0.921880 0.910936
0.919671 0.919852 0.908272
0.924518 0.917413 0.904563
0.875521 0.945363 0.923870
0.875476 0.945375 0.923860
0.876996 0.945014 0.923740
0.880125 0.944222 0.923438
0.888580 0.941719 0.921861
0.904907 0.935298 0.917076
0.915522 0.928759 0.913463
0.921789 0.927594 0.911449
0.924337 0.924918 0.909378
0.087102 0.427909 0.865155
0.081597 0.424305 0.864727
0.075219 0.419916 0.864188
0.122570 0.422603 0.862149
0.311151 0.424527 0.852731
0.599991 0.293291 0.791995
0.740084 0.221997 0.700491
0.812838 0.307858 0.675220
0.841650 0.395587 0.677084
0.076360 0.421041 0.864354
0.069717 0.416928 0.863886
0.060735 0.410905 0.863159
0.108038 0.410996 0.860538
0.298689 0.411433 0.850544
0.588702 0.276348 0.784723
0.730727 0.202678 0.691530
0.808608 0.290627 0.666172
0.838651 0.379459 0.667302
0.086544 0.427534 0.865109
0.077172 0.421535 0.864409
0.068823 0.416057 0.863758
0.103012 0.406740 0.859926
0.294796 0.406815 0.849737
0.585148 0.270848 0.782341
0.727963 0.196860 0.688778
0.807510 0.286182 0.663791
0.837964 0.375777 0.665031
0.108446 0.442316 0.866894
0.096225 0.434058 0.865898
0.092064 0.431184 0.865545
0.117693 0.419291 0.861731
0.300781 0.410843 0.850308
0.591547 0.278123 0.785221
0.733250 0.207257 0.693392
0.810429 0.297744 0.669672
0.840087 0.386960 0.671683
0.195882 0.519893 0.877279
0.182266 0.509999 0.876121
0.187686 0.511773 0.876186
0.217989 0.515596 0.875440
0.368038 0.509153 0.867101
0.653134 0.395837 0.821390
0.778906 0.306663 0.740698
0.825936 0.365158 0.706201
0.849514 0.440300 0.704655
0.601970 0.857635 0.917537
0.595361 0.855179 0.917104
0.594223 0.851783 0.916402
0.593973 0.843010 0.914364
0.632048 0.829290 0.909310
0.841375 0.836152 0.898647
0.879895 0.792738 0.878078
0.884487 0.723695 0.853100
0.885678 0.697638 0.835565
0.826164 0.920134 0.925520
0.825750 0.920034 0.925481
0.827453 0.920007 0.925462
0.831809 0.919809 0.925301
0.846244 0.917029 0.923262
0.878617 0.905901 0.916192
0.904645 0.901761 0.908860
0.912190 0.896655 0.904281
0.914993 0.891688 0.900169
0.862883 0.931935 0.925416
0.862826 0.931922 0.925404
0.864430 0.931740 0.925296
0.867884 0.931257 0.924983
0.877816 0.928948 0.923145
0.897947 0.922217 0.917558
0.908982 0.916999 0.913699
0.914668 0.913546 0.910946
0.918977 0.911510 0.909117
0.879165 0.936390 0.924766
0.879038 0.936399 0.924765
0.880332 0.936164 0.924663
0.882625 0.935673 0.924421
0.888677 0.933875 0.923224
0.902422 0.928419 0.919034
0.911797 0.923376 0.915498
0.916772 0.920141 0.913943
0.919759 0.919256 0.912483
0.215597 0.516208 0.875667
0.210604 0.512599 0.875241
0.203574 0.507606 0.874654
0.229490 0.513116 0.874423
0.343779 0.520992 0.870458
0.598992 0.462646 0.843334
0.759902 0.357520 0.792281
0.817034 0.375729 0.751539
0.839934 0.430904 0.739893
0.206167 0.509466 0.874874
0.199493 0.504795 0.874328
0.189807 0.498102 0.873547
0.214615 0.501682 0.873007
0.329749 0.508049 0.868672
0.588129 0.447358 0.840392
0.749668 0.337962 0.783680
0.812359 0.357107 0.742648
0.836509 0.413799 0.730725
0.214370 0.515317 0.875562
0.205423 0.508907 0.874806
0.197222 0.503219 0.874144
0.209212 0.497400 0.872463
0.325121 0.503499 0.868023
0.584337 0.442085 0.839365
0.746815 0.332361 0.781179
0.811102 0.352144 0.740251
0.835719 0.409880 0.728583
0.234871 0.530062 0.877285
0.222942 0.521475 0.876284
0.218874 0.518550 0.875942
0.225372 0.510311 0.874103
0.331074 0.507819 0.868567
0.590627 0.448914 0.840589
0.753009 0.343497 0.785944
0.814283 0.364419 0.745966
0.838233 0.422200 0.735086
0.292997 0.578100 0.883090
0.276871 0.566489 0.881812
0.279074 0.567906 0.881959
0.297788 0.572358 0.881878
0.381313 0.566092 0.877009
0.626039 0.506923 0.851795
0.782290 0.403854 0.807620
0.825801 0.413008 0.769884
0.845892 0.462232 0.757174
0.542396 0.810446 0.908753
0.531872 0.804974 0.907909
0.530603 0.800682 0.907016
0.533243 0.785378 0.904816
0.578557 0.785486 0.903002
0.796716 0.807296 0.897057
0.861086 0.736667 0.875884
0.870759 0.665580 0.851193
0.876270 0.655636 0.836507
0.816188 0.911402 0.925526
0.815318 0.911208 0.925486
0.817045 0.911185 0.925438
0.820450 0.910532 0.925181
0.826564 0.906613 0.923647
0.860716 0.897423 0.917425
0.899384 0.895797 0.910293
0.908476 0.890098 0.905091
0.911409 0.883582 0.900145
0.864573 0.925361 0.925345
0.864278 0.925342 0.925346
0.865708 0.925206 0.925247
0.868782 0.924842 0.924970
0.876045 0.923424 0.923777
0.893313 0.918187 0.919495
0.903820 0.912637 0.916150
0.912945 0.911117 0.912886
0.916407 0.909310 0.911069
0.881908 0.930347 0.924598
0.881823 0.930339 0.924594
0.882874 0.930190 0.924510
0.884876 0.929843 0.924300
0.889415 0.928644 0.923437
0.901153 0.924461 0.920036
0.909826 0.920425 0.916975
0.914731 0.917736 0.915081
0.917391 0.916361 0.913766
