luts/P4P_04_PrintFilm_size65.cube
# POCKET 4P D-Log2 LUT pack v1.0 - PrintFilm
# Photochemical print feel: dense blacks, warm highlights.
# Input:  DJI Osmo Pocket 4P D-Log2 / D-Gamut2, full range
# Output: Rec.709 / gamma 2.4 display
# Built on DJI's official D-Log2 to Rec.709 colorimetry with a
# scene-linear highlight shoulder so nothing clips at +7 stops.
TITLE "POCKET 4P PrintFilm v1.0"
LUT_3D_SIZE 65
DOMAIN_MIN 0.0 0.0 0.0
DOMAIN_MAX 1.0 1.0 1.0
0.006595 0.012723 0.045164
0.006595 0.012723 0.045164
0.006595 0.012723 0.045164
0.006595 0.012723 0.045164
0.006595 0.012723 0.045164
0.010874 0.007803 0.041024
0.018134 0.006213 0.040216
0.024485 0.004479 0.039497
0.030882 0.002778 0.038878
0.037248 0.000793 0.038307
0.045232 0.000000 0.037720
0.055788 0.000000 0.036964
0.068407 0.000000 0.036072
0.083409 0.000000 0.035137
0.100409 0.000000 0.034076
0.121139 0.000000 0.032878
0.145159 0.000000 0.031448
0.172084 0.000000 0.029713
0.204240 0.000000 0.027548
0.245325 0.000000 0.024231
0.291824 0.000000 0.020256
0.343192 0.000000 0.015939
0.397812 0.000000 0.011318
0.457242 0.000000 0.006531
0.518805 0.000000 0.001708
0.582687 0.000000 0.000000
0.648098 0.000000 0.000000
0.703713 0.000000 0.000000
0.753178 0.000000 0.000000
0.788183 0.000000 0.000000
0.823356 0.000000 0.000000
0.854553 0.000000 0.000000
0.876123 0.000000 0.000000
0.891470 0.000000 0.000000
0.902820 0.000000 0.000000
0.910798 0.000000 0.000000
0.917284 0.000000 0.001840
0.922581 0.000000 0.023570
0.925780 0.027121 0.046970
0.928434 0.074862 0.069779
0.930189 0.113972 0.090841
0.931960 0.153341 0.111385
0.933359 0.186424 0.130126
0.934596 0.217378 0.148947
0.935537 0.242871 0.166226
0.936428 0.267313 0.182751
0.937177 0.288982 0.198321
0.937850 0.309011 0.213104
0.938486 0.328155 0.227219
0.939036 0.345851 0.241022
0.939556 0.362729 0.254201
0.940048 0.378836 0.266772
0.940516 0.394510 0.279426
0.940959 0.409542 0.291673
0.941379 0.423873 0.303346
0.941776 0.437533 0.314471
0.942147 0.450694 0.325591
0.942499 0.463240 0.336210
0.942832 0.475189 0.346324
0.943147 0.486567 0.355955
0.943446 0.497488 0.365260
0.943733 0.508329 0.374803
0.944004 0.518648 0.383889
0.944261 0.528468 0.392536
0.944504 0.537812 0.400766
0.006595 0.012723 0.045164
0.006595 0.012723 0.045164
0.006595 0.012723 0.045164
0.006595 0.012723 0.045164
0.006595 0.012723 0.045164
0.010874 0.007803 0.041024
0.018134 0.006213 0.040216
0.024485 0.004479 0.039497
0.030882 0.002778 0.038878
0.037248 0.000793 0.038307
0.045232 0.000000 0.037720
0.055788 0.000000 0.036964
0.068407 0.000000 0.036072
0.083409 0.000000 0.035137
0.100409 0.000000 0.034076
0.121139 0.000000 0.032878
0.145159 0.000000 0.031448
0.172084 0.000000 0.029713
0.204240 0.000000 0.027548
0.245325 0.000000 0.024231
0.291824 0.000000 0.020256
0.343192 0.000000 0.015939
0.397812 0.000000 0.011318
0.457242 0.000000 0.006531
0.518805 0.000000 0.001708
0.582687 0.000000 0.000000
0.648098 0.000000 0.000000
0.703713 0.000000 0.000000
0.753178 0.000000 0.000000
0.788183 0.000000 0.000000
0.823356 0.000000 0.000000
0.854553 0.000000 0.000000
0.876123 0.000000 0.000000
0.891470 0.000000 0.000000
0.902820 0.000000 0.000000
0.910798 0.000000 0.000000
0.917284 0.000000 0.001840
0.922581 0.000000 0.023570
0.925780 0.027121 0.046970
0.928434 0.074862 0.069779
0.930189 0.113972 0.090841
0.931960 0.153341 0.111385
0.933359 0.186424 0.130126
0.934596 0.217378 0.148947
0.935537 0.242871 0.166226
0.936428 0.267313 0.182751
0.937177 0.288982 0.198321
0.937850 0.309011 0.213104
0.938486 0.328155 0.227219
0.939036 0.345851 0.241022
0.939556 0.362729 0.254201
0.940048 0.378836 0.266772
0.940516 0.394510 0.279426
0.940959 0.409542 0.291673
0.941379 0.423873 0.303346
0.941776 0.437533 0.314471
0.942147 0.450694 0.325591
0.942499 0.463240 0.336210
0.942832 0.475189 0.346324
0.943147 0.486567 0.355955
0.943446 0.497488 0.365260
0.943733 0.508329 0.374803
0.944004 0.518648 0.383889
0.944261 0.528468 0.392536
0.944504 0.537812 0.400766
0.006595 0.012723 0.045164
0.006595 0.012723 0.045164
0.006595 0.012723 0.045164
0.006595 0.012723 0.045164
0.006595 0.012723 0.045164
0.010874 0.007803 0.041024
0.018134 0.006213 0.040216
0.024485 0.004479 0.039497
0.030882 0.002778 0.038878
0.037248 0.000793 0.038307
0.045232 0.000000 0.037720
0.055788 0.000000 0.036964
0.068407 0.000000 0.036072
0.083409 0.000000 0.035137
0.100409 0.000000 0.034076
0.121139 0.000000 0.032878
0.145159 0.000000 0.031448
0.172084 0.000000 0.029713
0.204240 0.000000 0.027548
0.245325 0.000000 0.024231
0.291824 0.000000 0.020256
0.343192 0.000000 0.015939
0.397812 0.000000 0.011318
0.457242 0.000000 0.006531
0.518805 0.000000 0.001708
0.582687 0.000000 0.000000
0.648098 0.000000 0.000000
0.703713 0.000000 0.000000
0.753178 0.000000 0.000000
0.788183 0.000000 0.000000
0.823356 0.000000 0.000000
0.854553 0.000000 0.000000
0.876123 0.000000 0.000000
0.891470 0.000000 0.000000
0.902820 0.000000 0.000000
0.910798 0.000000 0.000000
0.917284 0.000000 0.001840
0.922581 0.000000 0.023570
0.925780 0.027121 0.046970
0.928434 0.074862 0.069779
0.930189 0.113972 0.090841
0.931960 0.153341 0.111385
0.933359 0.186424 0.130126
0.934596 0.217378 0.148947
0.935537 0.242871 0.166226
0.936428 0.267313 0.182751
0.937177 0.288982 0.198321
0.937850 0.309011 0.213104
0.938486 0.328155 0.227219
0.939036 0.345851 0.241022
0.939556 0.362729 0.254201
0.940048 0.378836 0.266772
0.940516 0.394510 0.279426
0.940959 0.409542 0.291673
0.941379 0.423873 0.303346
0.941776 0.437533 0.314471
0.942147 0.450694 0.325591
0.942499 0.463240 0.336210
0.942832 0.475189 0.346324
0.943147 0.486567 0.355955
0.943446 0.497488 0.365260
0.943733 0.508329 0.374803
0.944004 0.518648 0.383889
0.944261 0.528468 0.392536
0.944504 0.537812 0.400766
0.006595 0.012723 0.045164
0.006595 0.012723 0.045164
0.006595 0.012723 0.045164
0.006595 0.012723 0.045164
0.006595 0.012723 0.045164
0.010874 0.007803 0.041024
0.018134 0.006213 0.040216
0.024485 0.004479 0.039497
0.030882 0.002778 0.038878
0.037248 0.000793 0.038307
0.045232 0.000000 0.037720
0.055788 0.000000 0.036964
0.068407 0.000000 0.036072
0.083409 0.000000 0.035137
0.100409 0.000000 0.034076
0.121139 0.000000 0.032878
0.145159 0.000000 0.031448
0.172084 0.000000 0.029713
0.204240 0.000000 0.027548
0.245325 0.000000 0.024231
0.291824 0.000000 0.020256
0.343192 0.000000 0.015939
0.397812 0.000000 0.011318
0.457242 0.000000 0.006531
0.518805 0.000000 0.001708
0.582687 0.000000 0.000000
0.648098 0.000000 0.000000
0.703713 0.000000 0.000000
0.753178 0.000000 0.000000
0.788183 0.000000 0.000000
0.823356 0.000000 0.000000
0.854553 0.000000 0.000000
0.876123 0.000000 0.000000
0.891470 0.000000 0.000000
0.902820 0.000000 0.000000
0.910798 0.000000 0.000000
0.917284 0.000000 0.001840
0.922581 0.000000 0.023570
0.925780 0.027121 0.046970
0.928434 0.074862 0.069779
0.930189 0.113972 0.090841
0.931960 0.153341 0.111385
0.933359 0.186424 0.130126
0.934596 0.217378 0.148947
0.935537 0.242871 0.166226
0.936428 0.267313 0.182751
0.937177 0.288982 0.198321
0.937850 0.309011 0.213104
0.938486 0.328155 0.227219
0.939036 0.345851 0.241022
0.939556 0.362729 0.254201
0.940048 0.378836 0.266772
0.940516 0.394510 0.279426
0.940959 0.409542 0.291673
0.941379 0.423873 0.303346
0.941776 0.437533 0.314471
0.942147 0.450694 0.325591
0.942499 0.463240 0.336210
0.942832 0.475189 0.346324
0.943147 0.486567 0.355955
0.943446 0.497488 0.365260
0.943733 0.508329 0.374803
0.944004 0.518648 0.383889
0.944261 0.528468 0.392536
0.944504 0.537812 0.400766
0.006595 0.012723 0.045164
0.006595 0.012723 0.045164
0.006595 0.012723 0.045164
0.006595 0.012723 0.045164
0.006595 0.012723 0.045164
0.010874 0.007803 0.041024
0.018134 0.006213 0.040216
0.024485 0.004479 0.039497
0.030882 0.002778 0.038878
0.037248 0.000793 0.038307
0.045232 0.000000 0.037720
0.055788 0.000000 0.036964
0.068407 0.000000 0.036072
0.083409 0.000000 0.035137
0.100409 0.000000 0.034076
0.121139 0.000000 0.032878
0.145159 0.000000 0.031448
0.172084 0.000000 0.029713
0.204240 0.000000 0.027548
0.245325 0.000000 0.024231
0.291824 0.000000 0.020256
0.343192 0.000000 0.015939
0.397812 0.000000 0.011318
0.457242 0.000000 0.006531
0.518805 0.000000 0.001708
0.582687 0.000000 0.000000
0.648098 0.000000 0.000000
0.703713 0.000000 0.000000
0.753178 0.000000 0.000000
0.788183 0.000000 0.000000
0.823356 0.000000 0.000000
0.854553 0.000000 0.000000
0.876123 0.000000 0.000000
0.891470 0.000000 0.000000
0.902820 0.000000 0.000000
0.910798 0.000000 0.000000
0.917284 0.000000 0.001840
0.922581 0.000000 0.023570
0.925780 0.027121 0.046970
0.928434 0.074862 0.069779
0.930189 0.113972 0.090841
0.931960 0.153341 0.111385
0.933359 0.186424 0.130126
0.934596 0.217378 0.148947
0.935537 0.242871 0.166226
0.936428 0.267313 0.182751
0.937177 0.288982 0.198321
0.937850 0.309011 0.213104
0.938486 0.328155 0.227219
0.939036 0.345851 0.241022
0.939556 0.362729 0.254201
0.940048 0.378836 0.266772
0.940516 0.394510 0.279426
0.940959 0.409542 0.291673
0.941379 0.423873 0.303346
0.941776 0.437533 0.314471
0.942147 0.450694 0.325591
0.942499 0.463240 0.336210
0.942832 0.475189 0.346324
0.943147 0.486567 0.355955
0.943446 0.497488 0.365260
0.943733 0.508329 0.374803
0.944004 0.518648 0.383889
0.944261 0.528468 0.392536
0.944504 0.537812 0.400766
0.005111 0.020281 0.046496
0.005111 0.020281 0.046496
0.005111 0.020281 0.046496
0.005111 0.020281 0.046496
0.005111 0.020281 0.046496
0.014294 0.021257 0.044553
0.024848 0.020307 0.041950
0.033071 0.018123 0.040721
0.040029 0.015680 0.039692
0.049081 0.012557 0.038370
0.058855 0.009749 0.037082
0.071520 0.005905 0.035382
0.085228 0.001959 0.033975
0.100057 0.000000 0.032449
0.117529 0.000000 0.030783
0.137690 0.000000 0.029178
0.160098 0.000000 0.027418
0.186657 0.000000 0.025456
0.218466 0.000000 0.022939
0.258262 0.000000 0.019634
0.302983 0.000000 0.015980
0.351277 0.000000 0.011855
0.405029 0.000000 0.007500
0.462519 0.000000 0.003042
0.521861 0.000000 0.000000
0.584592 0.000000 0.000000
0.647459 0.000000 0.000000
0.703310 0.000000 0.000000
0.752045 0.000000 0.000000
0.786615 0.000000 0.000000
0.821207 0.000000 0.000000
0.852600 0.000000 0.000000
0.874528 0.000000 0.000000
0.890248 0.000000 0.000000
0.901784 0.000000 0.000000
0.909763 0.000000 0.000000
0.916222 0.000000 0.000000
0.921791 0.000000 0.019077
0.925210 0.018342 0.042197
0.928037 0.066002 0.064777
0.929812 0.105157 0.085608
0.931535 0.143469 0.105844
0.933022 0.177938 0.124792
0.934324 0.210050 0.143947
0.935277 0.235599 0.161097
0.936179 0.260099 0.177499
0.936937 0.281798 0.192951
0.937616 0.301847 0.207620
0.938260 0.321011 0.221627
0.938819 0.338802 0.235421
0.939346 0.355775 0.248594
0.939846 0.371974 0.261160
0.940308 0.387355 0.273503
0.940743 0.402003 0.285368
0.941155 0.415968 0.296678
0.941544 0.429278 0.307455
0.941920 0.442464 0.318526
0.942276 0.455051 0.329112
0.942613 0.467040 0.339195
0.942932 0.478457 0.348798
0.943234 0.489383 0.358048
0.943519 0.500071 0.367405
0.943789 0.510244 0.376312
0.944044 0.519925 0.384789
0.944286 0.529137 0.392857
0.007699 0.031124 0.050765
0.007699 0.031124 0.050765
0.007699 0.031124 0.050765
0.007699 0.031124 0.050765
0.007699 0.031124 0.050765
0.016740 0.035799 0.048310
0.028289 0.035958 0.046838
0.039015 0.035273 0.044304
0.049459 0.035450 0.041503
0.060271 0.032703 0.039877
0.072456 0.028522 0.037934
0.086957 0.023089 0.035788
0.101956 0.017123 0.033512
0.118031 0.011969 0.031352
0.136365 0.005660 0.028917
0.155848 0.000000 0.026453
0.178603 0.000000 0.024081
0.203860 0.000000 0.021525
0.237537 0.000000 0.018257
0.276196 0.000000 0.014730
0.318186 0.000000 0.011115
0.365707 0.000000 0.007287
0.417500 0.000000 0.003128
0.471935 0.000000 0.000000
0.530660 0.000000 0.000000
0.590621 0.000000 0.000000
0.653296 0.000000 0.000000
0.707050 0.000000 0.000000
0.754130 0.000000 0.000000
0.788008 0.000000 0.000000
0.822409 0.000000 0.000000
0.853329 0.000000 0.000000
0.875006 0.000000 0.000000
0.890496 0.000000 0.000000
0.901764 0.000000 0.000000
0.909813 0.000000 0.000000
0.916284 0.000000 0.000000
0.921797 0.000000 0.018382
0.925177 0.017433 0.041083
0.927978 0.064254 0.063316
0.929777 0.103915 0.084436
0.931500 0.142308 0.104788
0.932960 0.176134 0.123384
0.934249 0.207760 0.142107
0.935210 0.233486 0.159348
0.936120 0.258158 0.175839
0.936882 0.279958 0.191348
0.937565 0.300077 0.206062
0.938212 0.319310 0.220111
0.938760 0.336738 0.233609
0.939277 0.353353 0.246489
0.939767 0.369207 0.258774
0.940231 0.384617 0.271132
0.940670 0.399390 0.283089
0.941086 0.413475 0.294487
0.941480 0.426899 0.305348
0.941854 0.440025 0.316359
0.942208 0.452546 0.326881
0.942543 0.464473 0.336903
0.942861 0.475830 0.346447
0.943161 0.486668 0.355612
0.943440 0.497115 0.364736
0.943706 0.507058 0.373421
0.943957 0.516519 0.381686
0.944195 0.525522 0.389552
0.010320 0.041831 0.055176
0.010320 0.041831 0.055176
0.010320 0.041831 0.055176
0.010320 0.041831 0.055176
0.010320 0.041831 0.055176
0.018910 0.048448 0.052607
0.030210 0.051437 0.051113
0.042385 0.051333 0.049806
0.053359 0.052019 0.047021
0.068125 0.053446 0.042741
0.082458 0.052549 0.039786
0.098045 0.048398 0.037072
0.116306 0.042215 0.034176
0.134476 0.033985 0.031329
0.153197 0.025385 0.028445
0.174403 0.016741 0.025306
0.197065 0.007817 0.022027
0.223565 0.000000 0.018347
0.257208 0.000000 0.014318
0.293894 0.000000 0.010293
0.335697 0.000000 0.006303
0.381327 0.000000 0.002395
0.430767 0.000000 0.000000
0.484687 0.000000 0.000000
0.540551 0.000000 0.000000
0.599990 0.000000 0.000000
0.661019 0.000000 0.000000
0.711151 0.000000 0.000000
0.758111 0.000000 0.000000
0.789607 0.000000 0.000000
0.823936 0.000000 0.000000
0.854544 0.000000 0.000000
0.875699 0.000000 0.000000
0.890823 0.000000 0.000000
0.902130 0.000000 0.000000
0.910023 0.000000 0.000000
0.916392 0.000000 0.000000
0.921839 0.000000 0.017742
0.925236 0.018104 0.040753
0.928052 0.065291 0.063235
0.929810 0.104159 0.083998
0.931501 0.141924 0.104109
0.932971 0.176039 0.122911
0.934270 0.207917 0.141769
0.935223 0.233470 0.158936
0.936125 0.257973 0.175355
0.936875 0.279428 0.190632
0.937544 0.299139 0.205056
0.938177 0.317980 0.218829
0.938731 0.335594 0.232484
0.939254 0.352400 0.245527
0.939750 0.368439 0.257968
0.940212 0.383802 0.270290
0.940648 0.398470 0.282162
0.941061 0.412454 0.293479
0.941452 0.425782 0.304263
0.941820 0.438693 0.315091
0.942169 0.451003 0.325434
0.942499 0.462727 0.335285
0.942811 0.473891 0.344666
0.943108 0.484596 0.353717
0.943391 0.495172 0.362947
0.943660 0.505238 0.371734
0.943915 0.514818 0.380096
0.944156 0.523933 0.388055
0.012851 0.052307 0.059632
0.012851 0.052307 0.059632
0.012851 0.052307 0.059632
0.012851 0.052307 0.059632
0.012851 0.052307 0.059632
0.020433 0.059416 0.057269
0.032669 0.064877 0.055086
0.045127 0.067313 0.054031
0.057809 0.067950 0.052740
0.072713 0.069328 0.049271
0.090399 0.072640 0.044688
0.107201 0.073655 0.041299
0.125986 0.068932 0.037560
0.146308 0.061283 0.033636
0.167622 0.052527 0.029648
0.189540 0.041820 0.025524
0.213726 0.030321 0.021596
0.242994 0.017231 0.017177
0.275401 0.004512 0.012239
0.312845 0.000000 0.007083
0.352759 0.000000 0.002340
0.397281 0.000000 0.000000
0.445972 0.000000 0.000000
0.497162 0.000000 0.000000
0.552585 0.000000 0.000000
0.610374 0.000000 0.000000
0.668745 0.000000 0.000000
0.717044 0.000000 0.000000
0.761652 0.000000 0.000000
0.792066 0.000000 0.000000
0.826703 0.000000 0.000000
0.856094 0.000000 0.000000
0.876829 0.000000 0.000000
0.891767 0.000000 0.000000
0.902775 0.000000 0.000000
0.910437 0.000000 0.000000
0.916690 0.000000 0.000000
0.922046 0.000000 0.018318
0.925357 0.019751 0.040969
0.928106 0.066003 0.063110
0.929871 0.105143 0.084101
0.931574 0.143235 0.104405
0.933031 0.177148 0.123170
0.934317 0.208793 0.141964
0.935248 0.233826 0.158813
0.936131 0.257827 0.174926
0.936881 0.279316 0.190268
0.937557 0.299272 0.204899
0.938197 0.318347 0.218869
0.938741 0.335647 0.232290
0.939255 0.352138 0.245096
0.939742 0.367874 0.257311
0.940202 0.383175 0.269592
0.940637 0.397846 0.281473
0.941049 0.411833 0.292798
0.941439 0.425164 0.303590
0.941810 0.438179 0.314513
0.942161 0.450593 0.324951
0.942494 0.462417 0.334893
0.942809 0.473676 0.344360
0.943106 0.484425 0.353453
0.943385 0.494804 0.362515
0.943648 0.504682 0.371141
0.943898 0.514082 0.379350
0.944135 0.523026 0.387162
0.015301 0.062679 0.064282
0.015301 0.062679 0.064282
0.015301 0.062679 0.064282
0.015301 0.062679 0.064282
0.015301 0.062679 0.064282
0.022192 0.072773 0.063021
0.035243 0.080656 0.060002
0.048677 0.086143 0.058563
0.061172 0.089088 0.058593
0.077176 0.089718 0.056313
0.095420 0.093133 0.052586
0.116675 0.096692 0.047943
0.137014 0.097115 0.044019
0.157063 0.093804 0.039916
0.178811 0.085389 0.034852
0.202992 0.074298 0.029512
0.228403 0.061028 0.023969
0.258938 0.045458 0.017833
0.293467 0.028589 0.011589
0.331017 0.011358 0.005657
0.370871 0.000000 0.000000
0.414958 0.000000 0.000000
0.461215 0.000000 0.000000
0.511949 0.000000 0.000000
0.565600 0.000000 0.000000
0.620671 0.000000 0.000000
0.678542 0.000000 0.000000
0.722787 0.000000 0.000000
0.765691 0.000000 0.000000
0.795020 0.000000 0.000000
0.829287 0.000000 0.000000
0.857806 0.000000 0.000000
0.877900 0.000000 0.000000
0.892363 0.000000 0.000000
0.903147 0.000000 0.000000
0.910793 0.000000 0.000000
0.916996 0.000000 0.000000
0.922196 0.000000 0.018360
0.925497 0.021808 0.041370
0.928247 0.068525 0.063838
0.929980 0.107135 0.084654
0.931666 0.144908 0.104802
0.933094 0.178250 0.123317
0.934358 0.209426 0.141893
0.935295 0.234683 0.158962
0.936182 0.258901 0.175286
0.936923 0.280184 0.190524
0.937584 0.299775 0.204934
0.938211 0.318499 0.218691
0.938757 0.335927 0.232236
0.939274 0.352552 0.245172
0.939763 0.368418 0.257510
0.940222 0.383700 0.269792
0.940656 0.398314 0.281642
0.941066 0.412246 0.292937
0.941455 0.425525 0.303701
0.941819 0.438307 0.314436
0.942163 0.450490 0.324686
0.942490 0.462093 0.334449
0.942798 0.473141 0.343745
0.943092 0.483740 0.352718
0.943373 0.494240 0.361890
0.943640 0.504233 0.370621
0.943893 0.513744 0.378930
0.944132 0.522793 0.386837
0.018540 0.076176 0.070121
0.018540 0.076176 0.070121
0.018540 0.076176 0.070121
0.018540 0.076176 0.070121
0.018540 0.076176 0.070121
0.024698 0.088360 0.069546
0.038003 0.098425 0.066483
0.052531 0.107786 0.065076
0.066097 0.113603 0.064074
0.081797 0.115569 0.063400
0.102265 0.117561 0.060482
0.124672 0.121440 0.056401
0.148307 0.124224 0.051960
0.170601 0.124330 0.047591
0.192726 0.120973 0.042927
0.217323 0.113014 0.037109
0.243673 0.100358 0.030421
0.276598 0.083986 0.022645
0.310869 0.063105 0.014514
0.348544 0.041079 0.006406
0.389285 0.018428 0.000000
0.432461 0.000000 0.000000
0.479119 0.000000 0.000000
0.528208 0.000000 0.000000
0.579764 0.000000 0.000000
0.634339 0.000000 0.000000
0.687412 0.000000 0.000000
0.730984 0.000000 0.000000
0.770713 0.000000 0.000000
0.799275 0.000000 0.000000
0.833188 0.000000 0.000000
0.860039 0.000000 0.000000
0.879332 0.000000 0.000000
0.893472 0.000000 0.000000
0.904040 0.000000 0.000000
0.911324 0.000000 0.000000
0.917393 0.000000 0.000000
0.922527 0.000000 0.019271
0.925746 0.025306 0.042420
0.928421 0.071728 0.064907
0.930110 0.109594 0.085465
0.931778 0.147061 0.105484
0.933200 0.180395 0.124098
0.934452 0.211476 0.142769
0.935361 0.236101 0.159491
0.936223 0.259705 0.175481
0.936957 0.280901 0.190720
0.937620 0.300611 0.205258
0.938247 0.319450 0.219140
0.938793 0.336859 0.232700
0.939308 0.353463 0.245646
0.939797 0.369308 0.257995
0.940248 0.384366 0.270116
0.940673 0.398710 0.281764
0.941076 0.412383 0.292867
0.941457 0.425414 0.303447
0.941825 0.438357 0.314321
0.942174 0.450714 0.324720
0.942505 0.462483 0.334624
0.942818 0.473690 0.344056
0.943114 0.484388 0.353114
0.943391 0.494715 0.362139
0.943654 0.504544 0.370730
0.943903 0.513896 0.378905
0.944139 0.522795 0.386685
0.022619 0.093131 0.077408
0.022619 0.093131 0.077408
0.022619 0.093131 0.077408
0.022619 0.093131 0.077408
0.022619 0.093131 0.077408
0.028205 0.107853 0.077519
0.041200 0.120358 0.074931
0.055932 0.129723 0.072347
0.070790 0.138900 0.071377
0.086701 0.143531 0.070054
0.106064 0.147468 0.069173
0.132971 0.149144 0.065114
0.157300 0.152484 0.061170
0.182524 0.155535 0.056954
0.207676 0.155030 0.051933
0.233137 0.150740 0.046264
0.260670 0.142666 0.039670
0.294183 0.127929 0.031017
0.330930 0.109194 0.021723
0.369559 0.086394 0.012045
0.409247 0.058475 0.002139
0.452875 0.029439 0.000000
0.499261 0.000877 0.000000
0.546974 0.000000 0.000000
0.597496 0.000000 0.000000
0.648991 0.000000 0.000000
0.698875 0.000000 0.000000
0.740814 0.000000 0.000000
0.775984 0.000000 0.000000
0.805101 0.000000 0.000000
0.837021 0.000000 0.000000
0.862637 0.000000 0.000000
0.881143 0.000000 0.000000
0.894658 0.000000 0.000000
0.904736 0.000000 0.000000
0.911914 0.000000 0.000000
0.917904 0.000000 0.000000
0.922841 0.000000 0.020437
0.925961 0.028605 0.043395
0.928564 0.074342 0.065711
0.930254 0.112425 0.086535
0.931937 0.150284 0.106739
0.933312 0.182694 0.124943
0.934525 0.212971 0.143296
0.935437 0.237774 0.160216
0.936301 0.261550 0.176397
0.937029 0.282672 0.191635
0.937682 0.302214 0.206099
0.938300 0.320890 0.219909
0.938837 0.338016 0.233277
0.939344 0.354345 0.246036
0.939824 0.369927 0.258204
0.940278 0.385077 0.270426
0.940707 0.399602 0.282245
0.941114 0.413450 0.293511
0.941499 0.426647 0.304247
0.941862 0.439444 0.315016
0.942206 0.451646 0.325301
0.942532 0.463267 0.335097
0.942841 0.474333 0.344425
0.943133 0.484929 0.353412
0.943412 0.495330 0.362511
0.943676 0.505229 0.371173
0.943927 0.514649 0.379416
0.944164 0.523612 0.387261
0.027731 0.114206 0.086286
0.027731 0.114206 0.086286
0.027731 0.114206 0.086286
0.027731 0.114206 0.086286
0.027731 0.114206 0.086286
0.033104 0.130405 0.086916
0.044443 0.143831 0.084582
0.059489 0.155563 0.081329
0.074216 0.165737 0.080285
0.091050 0.173437 0.078532
0.110722 0.179724 0.077459
0.136882 0.181764 0.074876
0.165844 0.184742 0.071079
0.192989 0.187765 0.067065
0.220725 0.190332 0.062553
0.249237 0.189477 0.056885
0.279301 0.183656 0.049795
0.313724 0.173474 0.041325
0.351162 0.157811 0.031549
0.389918 0.136404 0.020942
0.432364 0.109435 0.009564
0.476569 0.077550 0.000000
0.520802 0.042299 0.000000
0.568879 0.006782 0.000000
0.617597 0.000000 0.000000
0.668918 0.000000 0.000000
0.713467 0.000000 0.000000
0.752658 0.000000 0.000000
0.783496 0.000000 0.000000
0.812284 0.000000 0.000000
0.842787 0.000000 0.000000
0.866502 0.000000 0.000000
0.883606 0.000000 0.000000
0.896248 0.000000 0.000000
0.905948 0.000000 0.000000
0.912736 0.000000 0.000000
0.918508 0.000000 0.000000
0.923281 0.000000 0.021554
0.926300 0.033372 0.044950
0.928819 0.079245 0.067553
0.930448 0.116230 0.087971
0.932108 0.153689 0.107980
0.933477 0.186169 0.126356
0.934678 0.216432 0.144938
0.935571 0.240894 0.161757
0.936417 0.264338 0.177840
0.937126 0.285043 0.192865
0.937761 0.304142 0.207077
0.938362 0.322392 0.220645
0.938898 0.339624 0.234151
0.939406 0.356068 0.247053
0.939886 0.371759 0.259358
0.940332 0.386716 0.271447
0.940753 0.400975 0.283068
0.941151 0.414568 0.294143
0.941528 0.427521 0.304697
0.941893 0.440379 0.315540
0.942239 0.452653 0.325909
0.942567 0.464343 0.335784
0.942877 0.475474 0.345188
0.943172 0.486131 0.354245
0.943451 0.496580 0.363396
0.943716 0.506526 0.372107
0.943967 0.515990 0.380398
0.944205 0.524995 0.388287
0.033562 0.138396 0.096636
0.033562 0.138396 0.096636
0.033562 0.138396 0.096636
0.033562 0.138396 0.096636
0.033562 0.138396 0.096636
0.038960 0.154654 0.097243
0.048480 0.169744 0.095572
0.062564 0.182813 0.092317
0.077455 0.193716 0.089998
0.094068 0.203446 0.088476
0.114516 0.211528 0.086492
0.141138 0.217403 0.084522
0.170578 0.220300 0.081781
0.202520 0.223121 0.077782
0.233243 0.226490 0.073570
0.262840 0.227668 0.068458
0.296870 0.226214 0.061623
0.333089 0.218956 0.052966
0.370921 0.206263 0.043019
0.412550 0.187564 0.031663
0.455024 0.163075 0.019640
0.499936 0.132797 0.006912
0.546444 0.097449 0.000000
0.592937 0.056123 0.000000
0.641089 0.012929 0.000000
0.691037 0.000000 0.000000
0.729904 0.000000 0.000000
0.765920 0.000000 0.000000
