luts/P4P_11_RetroFade_size33.cube
# POCKET 4P D-Log2 LUT pack v1.0 - RetroFade
# Faded stock. Lifted milky blacks, cyan shadows.
# Input:  DJI Osmo Pocket 4P D-Log2 / D-Gamut2, full range
# Output: Rec.709 / gamma 2.4 display
# Built on DJI's official D-Log2 to Rec.709 colorimetry with a
# scene-linear highlight shoulder so nothing clips at +7 stops.
TITLE "POCKET 4P RetroFade v1.0"
LUT_3D_SIZE 5
DOMAIN_MIN 0.0 0.0 0.0
DOMAIN_MAX 1.0 1.0 1.0
0.139934 0.140473 0.171825
0.279170 0.133240 0.190372
0.804934 0.168228 0.274121
0.868644 0.471824 0.427154
0.876555 0.584714 0.519585
0.147215 0.293136 0.229964
0.372787 0.377634 0.186859
0.825799 0.178548 0.253637
0.868920 0.474670 0.427037
0.876414 0.581932 0.515779
0.225723 0.777226 0.425014
0.229606 0.795471 0.429307
0.806510 0.824989 0.252692
0.884154 0.680270 0.543685
0.882759 0.675549 0.591474
0.699654 0.886218 0.674369
0.718843 0.886727 0.690972
0.810592 0.889664 0.763281
0.888418 0.887809 0.685412
0.897613 0.868534 0.744744
0.825885 0.890356 0.793321
0.828374 0.890445 0.795296
0.842921 0.891010 0.809331
0.879674 0.892596 0.828512
0.894401 0.891638 0.813840
0.134465 0.141867 0.259309
0.332676 0.142244 0.315220
0.813609 0.177796 0.356095
0.868508 0.474809 0.436928
0.876408 0.584065 0.522048
0.153862 0.333103 0.334909
0.373252 0.363771 0.370439
0.832737 0.213511 0.349516
0.868906 0.478680 0.436900
0.876405 0.583435 0.520237
0.229206 0.785215 0.457822
0.231305 0.799546 0.460820
0.808812 0.825354 0.297367
0.883847 0.677785 0.551269
0.882808 0.677538 0.596252
0.705841 0.886393 0.681813
0.716550 0.886682 0.691588
0.812241 0.889742 0.766231
0.888467 0.887797 0.687765
0.897633 0.868611 0.746284
0.826781 0.890391 0.794284
0.828167 0.890438 0.795402
0.843203 0.891026 0.810030
0.879722 0.892605 0.829159
0.894431 0.891628 0.814361
0.169778 0.380486 0.647174
0.190719 0.343918 0.748266
0.809856 0.177092 0.714149
0.868283 0.528966 0.626954
0.875941 0.624804 0.645247
0.170450 0.387308 0.653867
0.187551 0.353420 0.744784
0.808512 0.181375 0.712187
0.867946 0.523731 0.623454
0.875455 0.618031 0.639696
0.461621 0.787492 0.757344
0.487595 0.790600 0.760690
0.802695 0.789545 0.776815
0.882481 0.715342 0.717561
0.882450 0.705681 0.691023
0.687739 0.886595 0.758345
0.700510 0.886866 0.761780
0.787937 0.888826 0.781952
0.887488 0.884493 0.772923
0.898101 0.868054 0.789785
0.836513 0.890959 0.820868
0.838667 0.891047 0.822708
0.852633 0.891628 0.832872
0.881535 0.892754 0.836486
0.895317 0.890785 0.821477
0.267174 0.540400 0.844730
0.266465 0.537273 0.845117
0.649874 0.589345 0.856079
0.872185 0.563811 0.812892
0.877687 0.655832 0.764879
0.268595 0.541220 0.844969
0.262429 0.535225 0.844574
0.644209 0.580493 0.855524
0.871462 0.553170 0.811562
0.877072 0.646698 0.761724
0.409990 0.662547 0.856177
0.410737 0.653624 0.855722
0.688709 0.702789 0.861314
0.877534 0.644873 0.824777
0.880175 0.692998 0.778140
0.793249 0.875964 0.858214
0.795369 0.876251 0.858679
0.825171 0.876964 0.861486
0.881969 0.874021 0.863356
0.897171 0.868789 0.860309
0.823447 0.889398 0.854189
0.825595 0.889508 0.854753
0.842008 0.889815 0.858259
0.878937 0.887948 0.864233
0.892945 0.887394 0.864012
0.488857 0.671694 0.857870
0.481048 0.666525 0.857483
0.595241 0.694553 0.860852
0.865726 0.697466 0.863291
0.881929 0.711185 0.832950
0.488064 0.671161 0.857830
0.476875 0.663852 0.857280
0.584619 0.685018 0.860148
0.864480 0.686067 0.862674
0.881284 0.702382 0.831376
0.536960 0.706536 0.860640
0.528116 0.701151 0.860155
0.613933 0.715290 0.862470
0.867528 0.715969 0.864453
0.882901 0.723941 0.835495
0.803336 0.867694 0.875291
0.804244 0.867716 0.875411
0.815305 0.866783 0.876664
0.881534 0.871916 0.876612
0.894716 0.866980 0.872202
0.849214 0.886025 0.872392
0.850318 0.886144 0.872618
0.857847 0.886535 0.873730
0.882616 0.885673 0.875160
0.892325 0.884987 0.875127
