luts/P4P_03_Natural_size33.cube
# POCKET 4P D-Log2 LUT pack v1.0 - Natural
# Everyday. True-to-life with warmer skin and calmer greens.
# Input:  DJI Osmo Pocket 4P D-Log2 / D-Gamut2, full range
# Output: Rec.709 / gamma 2.4 display
# Built on DJI's official D-Log2 to Rec.709 colorimetry with a
# scene-linear highlight shoulder so nothing clips at +7 stops.
TITLE "POCKET 4P Natural v1.0"
LUT_3D_SIZE 5
DOMAIN_MIN 0.0 0.0 0.0
DOMAIN_MAX 1.0 1.0 1.0
0.021334 0.021182 0.020811
0.152831 0.000000 0.000000
0.757570 0.000000 0.000000
0.888576 0.271103 0.186871
0.903275 0.455689 0.353647
0.121661 0.328474 0.194687
0.456724 0.475844 0.164453
0.805150 0.000000 0.000000
0.889652 0.278380 0.189396
0.903255 0.452459 0.348626
0.521065 0.963145 0.776232
0.550444 0.969525 0.801715
0.963788 0.970627 0.497109
0.924401 0.667403 0.456013
0.914681 0.611661 0.483144
0.896612 0.973835 0.879051
0.899701 0.972276 0.880971
0.918892 0.961563 0.889926
0.959900 0.962715 0.833308
0.949300 0.936116 0.832921
0.916582 0.956852 0.897463
0.917242 0.956329 0.897769
0.920249 0.952673 0.900480
0.933423 0.945430 0.900599
0.944038 0.946338 0.887250
0.000000 0.000000 0.088712
0.129773 0.000000 0.082801
0.724698 0.000000 0.000000
0.886821 0.268273 0.196659
0.902511 0.451715 0.354709
0.070050 0.333858 0.316373
0.291210 0.289970 0.286826
0.778629 0.000000 0.000000
0.888295 0.278021 0.200152
0.902720 0.451901 0.352942
0.500530 0.963495 0.809420
0.523747 0.968785 0.821297
0.960402 0.967454 0.524440
0.922557 0.654470 0.458644
0.914288 0.612046 0.488138
0.896853 0.973267 0.880225
0.898461 0.972365 0.881407
0.918764 0.961135 0.890619
0.959685 0.962488 0.834099
0.949097 0.935879 0.833723
0.916723 0.956635 0.897659
0.917083 0.956338 0.897834
0.920150 0.952532 0.900686
0.933250 0.945264 0.900877
0.943921 0.946200 0.887470
0.000000 0.171953 0.577643
0.000000 0.000000 0.609119
0.473661 0.000000 0.283168
0.845717 0.220306 0.382019
0.884743 0.433314 0.477095
0.000000 0.183013 0.588815
0.000000 0.008007 0.616453
0.473069 0.000000 0.282904
0.844262 0.210951 0.374954
0.883653 0.421921 0.467269
0.455400 0.899356 0.882714
0.482863 0.898576 0.881752
0.830122 0.826310 0.821836
0.898611 0.591129 0.611184
0.902314 0.591718 0.579886
0.851199 0.969773 0.906585
0.856053 0.969029 0.906179
0.898136 0.961750 0.899214
0.946198 0.948503 0.865208
0.941110 0.924472 0.854571
0.910872 0.952010 0.905841
0.911451 0.951423 0.906188
0.916309 0.947529 0.907792
0.931875 0.943218 0.903690
0.942113 0.943372 0.889753
0.000000 0.311571 0.850492
0.000000 0.303261 0.849426
0.319340 0.248602 0.807292
0.735682 0.113323 0.575977
0.853845 0.390997 0.604813
0.000000 0.312784 0.850845
0.000000 0.300219 0.848615
0.306220 0.230648 0.802833
0.725418 0.090495 0.564444
0.850878 0.373181 0.593518
0.128986 0.530236 0.882309
0.122564 0.508965 0.878827
0.453021 0.499802 0.859736
0.806228 0.284637 0.666683
0.864800 0.462629 0.651652
0.831747 0.932203 0.924183
0.833582 0.932074 0.924166
0.859441 0.926904 0.920216
0.908074 0.907051 0.904395
0.919752 0.894241 0.893693
0.875521 0.945363 0.923870
0.876996 0.945014 0.923740
0.888580 0.941719 0.921861
0.915522 0.928759 0.913463
0.924337 0.924918 0.909378
0.215597 0.516208 0.875667
0.203574 0.507606 0.874654
0.343779 0.520992 0.870458
0.759902 0.357520 0.792281
0.839934 0.430904 0.739893
0.214370 0.515317 0.875562
0.197222 0.503219 0.874144
0.325121 0.503499 0.868023
0.746815 0.332361 0.781179
0.835719 0.409880 0.728583
0.292997 0.578100 0.883090
0.279074 0.567906 0.881959
0.381313 0.566092 0.877009
0.782290 0.403854 0.807620
0.845892 0.462232 0.757174
0.816188 0.911402 0.925526
0.817045 0.911185 0.925438
0.826564 0.906613 0.923647
0.899384 0.895797 0.910293
0.911409 0.883582 0.900145
0.881908 0.930347 0.924598
0.882874 0.930190 0.924510
0.889415 0.928644 0.923437
0.909826 0.920425 0.916975
0.917391 0.916361 0.913766
