luts/P4P_05_TealAmber_size33.cube
# POCKET 4P D-Log2 LUT pack v1.0 - TealAmber
# Commercial teal and orange, skin protected.
# Input:  DJI Osmo Pocket 4P D-Log2 / D-Gamut2, full range
# Output: Rec.709 / gamma 2.4 display
# Built on DJI's official D-Log2 to Rec.709 colorimetry with a
# scene-linear highlight shoulder so nothing clips at +7 stops.
TITLE "POCKET 4P TealAmber v1.0"
LUT_3D_SIZE 33
DOMAIN_MIN 0.0 0.0 0.0
DOMAIN_MAX 1.0 1.0 1.0
0.000000 0.005061 0.038450
0.000000 0.005061 0.038450
0.000000 0.005061 0.038450
0.000000 0.000000 0.031396
0.003603 0.000000 0.024900
0.018060 0.000000 0.021858
0.040841 0.000000 0.017481
0.071252 0.000000 0.011901
0.113536 0.000000 0.004255
0.168741 0.000000 0.000000
0.239384 0.000000 0.000000
0.324363 0.000000 0.000000
0.420720 0.000000 0.000000
0.522845 0.000000 0.000000
0.622634 0.000000 0.000000
0.726827 0.000000 0.000000
0.807296 0.000000 0.000000
0.843898 0.000000 0.000000
0.864909 0.000000 0.000000
0.880713 0.000000 0.000000
0.896839 0.018109 0.000000
0.906290 0.099761 0.036153
0.912572 0.161296 0.078115
0.917125 0.210868 0.114208
0.920634 0.252515 0.146012
0.923428 0.288850 0.175157
0.925872 0.322118 0.202202
0.928005 0.352666 0.227609
0.929860 0.380448 0.251078
0.931472 0.405691 0.272801
0.932900 0.428653 0.292597
0.934160 0.450242 0.311876
0.935279 0.469794 0.329322
0.000000 0.005061 0.038450
0.000000 0.005061 0.038450
0.000000 0.005061 0.038450
0.000000 0.000000 0.031396
0.003603 0.000000 0.024900
0.018060 0.000000 0.021858
0.040841 0.000000 0.017481
0.071252 0.000000 0.011901
0.113536 0.000000 0.004255
0.168741 0.000000 0.000000
0.239384 0.000000 0.000000
0.324363 0.000000 0.000000
0.420720 0.000000 0.000000
0.522845 0.000000 0.000000
0.622634 0.000000 0.000000
0.726827 0.000000 0.000000
0.807296 0.000000 0.000000
0.843898 0.000000 0.000000
0.864909 0.000000 0.000000
0.880713 0.000000 0.000000
0.896839 0.018109 0.000000
0.906290 0.099761 0.036153
0.912572 0.161296 0.078115
0.917125 0.210868 0.114208
0.920634 0.252515 0.146012
0.923428 0.288850 0.175157
0.925872 0.322118 0.202202
0.928005 0.352666 0.227609
0.929860 0.380448 0.251078
0.931472 0.405691 0.272801
0.932900 0.428653 0.292597
0.934160 0.450242 0.311876
0.935279 0.469794 0.329322
0.000000 0.005061 0.038450
0.000000 0.005061 0.038450
0.000000 0.005061 0.038450
0.000000 0.000000 0.031396
0.003603 0.000000 0.024900
0.018060 0.000000 0.021858
0.040841 0.000000 0.017481
0.071252 0.000000 0.011901
0.113536 0.000000 0.004255
0.168741 0.000000 0.000000
0.239384 0.000000 0.000000
0.324363 0.000000 0.000000
0.420720 0.000000 0.000000
0.522845 0.000000 0.000000
0.622634 0.000000 0.000000
0.726827 0.000000 0.000000
0.807296 0.000000 0.000000
0.843898 0.000000 0.000000
0.864909 0.000000 0.000000
0.880713 0.000000 0.000000
0.896839 0.018109 0.000000
0.906290 0.099761 0.036153
0.912572 0.161296 0.078115
0.917125 0.210868 0.114208
0.920634 0.252515 0.146012
0.923428 0.288850 0.175157
0.925872 0.322118 0.202202
0.928005 0.352666 0.227609
0.929860 0.380448 0.251078
0.931472 0.405691 0.272801
0.932900 0.428653 0.292597
0.934160 0.450242 0.311876
0.935279 0.469794 0.329322
0.000000 0.036177 0.049895
0.000000 0.036177 0.049895
0.000000 0.036177 0.049895
0.009961 0.044437 0.047038
0.037256 0.039058 0.038263
0.058629 0.025947 0.029071
0.081772 0.005729 0.017119
0.109835 0.000000 0.004319
0.148013 0.000000 0.000000
0.199341 0.000000 0.000000
0.263693 0.000000 0.000000
0.342711 0.000000 0.000000
0.431996 0.000000 0.000000
0.527337 0.000000 0.000000
0.623672 0.000000 0.000000
0.725687 0.000000 0.000000
0.806000 0.000000 0.000000
0.842515 0.000000 0.000000
0.863933 0.000000 0.000000
0.878788 0.000000 0.000000
0.895385 0.005545 0.000000
0.905191 0.088769 0.028189
0.911668 0.151305 0.070472
0.916339 0.201364 0.106614
0.919924 0.243280 0.138383
0.922722 0.279115 0.166953
0.925168 0.311895 0.193444
0.927299 0.341965 0.218313
0.929168 0.369513 0.241447
0.930808 0.394754 0.263027
0.932256 0.417653 0.282635
0.933498 0.438499 0.301112
0.934602 0.457375 0.317830
0.005217 0.067394 0.063850
0.005217 0.067394 0.063850
0.005217 0.067394 0.063850
0.027605 0.085322 0.064039
0.056250 0.085718 0.059463
0.094719 0.090588 0.048965
0.132205 0.087185 0.035467
0.166404 0.057218 0.016910
0.199714 0.017464 0.000000
0.238480 0.000000 0.000000
0.296682 0.000000 0.000000
0.368096 0.000000 0.000000
0.450331 0.000000 0.000000
0.539997 0.000000 0.000000
0.631876 0.000000 0.000000
0.732461 0.000000 0.000000
0.808544 0.000000 0.000000
0.844037 0.000000 0.000000
0.864684 0.000000 0.000000
0.879526 0.000000 0.000000
0.895770 0.007397 0.000000
0.905446 0.090149 0.028231
0.911807 0.151886 0.070130
0.916357 0.200855 0.105613
0.919903 0.242412 0.137184
0.922678 0.277967 0.165579
0.925105 0.310502 0.191906
0.927219 0.340362 0.216616
0.929074 0.367695 0.239584
0.930700 0.392717 0.260992
0.932138 0.415420 0.280445
0.933375 0.436133 0.298800
0.934475 0.454888 0.315406
0.019726 0.099830 0.080974
0.019726 0.099830 0.080974
0.019726 0.099830 0.080974
0.045104 0.132574 0.086780
0.080511 0.151216 0.085241
0.119908 0.152940 0.078061
0.171857 0.160551 0.066000
0.219148 0.158900 0.049589
0.263335 0.125447 0.023699
0.303009 0.064696 0.000000
0.342360 0.000000 0.000000
0.398828 0.000000 0.000000
0.474159 0.000000 0.000000
0.557379 0.000000 0.000000
0.644491 0.000000 0.000000
0.742935 0.000000 0.000000
0.811975 0.000000 0.000000
0.845891 0.000000 0.000000
0.865779 0.000000 0.000000
0.880970 0.000000 0.000000
0.896684 0.013380 0.000000
0.905978 0.093977 0.029768
0.912160 0.154586 0.071202
0.916593 0.202746 0.106339
0.920063 0.243744 0.137653
0.922838 0.279505 0.166317
0.925241 0.311876 0.192589
0.927299 0.341048 0.216795
0.929122 0.367983 0.239474
0.930738 0.392884 0.260796
0.932167 0.415476 0.280171
0.933397 0.436079 0.298446
0.934490 0.454736 0.314981
0.041081 0.150001 0.108085
0.041081 0.150001 0.108085
0.041081 0.150001 0.108085
0.066097 0.192075 0.117672
0.104731 0.222548 0.117146
0.148717 0.238910 0.113779
0.206256 0.240744 0.102673
0.266679 0.247747 0.088712
0.325582 0.242678 0.066273
0.380676 0.204820 0.033300
0.426723 0.125653 0.000000
0.463699 0.016168 0.000000
0.510414 0.000000 0.000000
0.585461 0.000000 0.000000
0.663754 0.000000 0.000000
0.759371 0.000000 0.000000
0.817836 0.000000 0.000000
0.848678 0.000000 0.000000
0.867460 0.000000 0.000000
0.882967 0.000000 0.000000
0.897943 0.022159 0.000000
0.906814 0.100568 0.033027
0.912787 0.160042 0.074122
0.917085 0.207412 0.108995
0.920398 0.247069 0.139517
0.923116 0.282428 0.168020
0.925476 0.314496 0.194171
0.927508 0.343475 0.218292
0.929307 0.370217 0.240886
0.930901 0.394928 0.262122
0.932313 0.417379 0.281445
0.933551 0.438215 0.299965
0.934650 0.457083 0.316721
0.067775 0.216476 0.144190
0.067775 0.216476 0.144190
0.067775 0.216476 0.144190
0.093019 0.262751 0.155508
0.128097 0.301374 0.155822
0.174492 0.328715 0.153746
0.238567 0.342255 0.146141
0.309054 0.342228 0.132292
0.379165 0.350021 0.115315
0.449742 0.340457 0.086078
0.514561 0.287896 0.042020
0.562972 0.184231 0.001886
0.597508 0.045300 0.000000
0.627445 0.000000 0.000000
0.694904 0.000000 0.000000
0.784162 0.000000 0.000000
0.826941 0.000000 0.000000
0.853101 0.000000 0.000000
0.869953 0.000000 0.000000
0.885870 0.000000 0.000000
0.899792 0.035715 0.000000
0.908037 0.110681 0.038432
0.913629 0.167614 0.078375
0.917726 0.213663 0.112684
0.920911 0.252507 0.142875
0.923566 0.287428 0.171197
0.925888 0.319326 0.197371
0.927910 0.348493 0.221792
0.929678 0.375053 0.244345
0.931221 0.399224 0.265217
0.932589 0.421208 0.284230
0.933808 0.441910 0.302708
0.934890 0.460655 0.319426
0.100741 0.302832 0.192000
0.100741 0.302832 0.192000
0.100741 0.302832 0.192000
0.124380 0.347283 0.202236
0.151693 0.390236 0.205629
0.195886 0.425442 0.202848
0.263661 0.453071 0.196584
0.344143 0.465704 0.185779
0.426965 0.460454 0.167769
0.505664 0.467132 0.147272
0.585937 0.448787 0.109525
0.659529 0.379084 0.053748
0.709411 0.241301 0.005138
0.731547 0.064922 0.000000
0.751606 0.000000 0.000000
0.810786 0.000000 0.000000
0.841052 0.000000 0.000000
0.860583 0.000000 0.000000
0.874152 0.000000 0.000000
0.890374 0.000000 0.000000
0.902311 0.054554 0.000000
0.909699 0.124687 0.045972
0.914786 0.178277 0.084497
0.918627 0.222722 0.118219
0.921698 0.261127 0.148446
0.924218 0.294916 0.176113
0.926445 0.326028 0.201870
0.928418 0.354873 0.226192
0.930144 0.381161 0.248664
0.931653 0.405109 0.269472
0.932992 0.426893 0.288430
0.934186 0.447450 0.306885
0.935246 0.466062 0.323583
0.139683 0.408162 0.251569
0.139683 0.408162 0.251569
0.139683 0.408162 0.251569
0.159895 0.446666 0.260297
0.183724 0.489030 0.263452
0.217944 0.529101 0.262483
0.277535 0.570386 0.257832
0.367121 0.595262 0.245953
0.462738 0.599806 0.229115
0.555307 0.590426 0.207803
0.642985 0.591604 0.181257
0.732557 0.563493 0.135174
0.801442 0.474332 0.067526
0.827417 0.289603 0.005701
0.836637 0.046806 0.000000
0.841840 0.000000 0.000000
0.859543 0.000000 0.000000
0.871862 0.000000 0.000000
0.883061 0.000000 0.000000
0.896753 0.000000 0.000000
0.905711 0.080816 0.011855
0.911828 0.143081 0.055979
0.916277 0.192579 0.092908
0.919748 0.234482 0.125515
0.922630 0.271516 0.155161
0.925057 0.304711 0.182628
0.927208 0.335342 0.208238
0.929119 0.363832 0.232473
0.930805 0.390014 0.255063
0.932292 0.414097 0.276183
0.933609 0.435949 0.295378
0.934748 0.455988 0.313536
0.935760 0.474127 0.329963
0.186056 0.533406 0.321700
0.186056 0.533406 0.321700
0.186056 0.533406 0.321700
0.201622 0.564310 0.329763
0.221147 0.599765 0.333552
0.246707 0.642530 0.334464
0.294132 0.689391 0.329734
0.372137 0.731269 0.318899
0.480908 0.749764 0.300343
0.590598 0.745992 0.277769
0.693143 0.728968 0.251360
0.785254 0.722815 0.218604
0.841105 0.680875 0.163058
0.878135 0.567143 0.080191
0.896827 0.328885 0.002127
0.895419 0.060347 0.000000
0.890299 0.000000 0.000000
0.893296 0.000000 0.000000
0.899163 0.000000 0.000000
0.905209 0.060475 0.000000
0.910362 0.118959 0.031209
0.914709 0.168826 0.070056
0.918273 0.212059 0.104267
0.921276 0.250554 0.135354
0.923918 0.285859 0.164325
0.926265 0.319000 0.192243
0.928316 0.349149 0.217874
0.930095 0.376529 0.241529
0.931683 0.401942 0.263781
0.933101 0.425582 0.284792
0.934357 0.447039 0.303896
0.935452 0.466846 0.322061
0.936426 0.484774 0.338495
0.239879 0.677705 0.401191
0.239879 0.677705 0.401191
0.239879 0.677705 0.401191
0.250398 0.700187 0.408628
0.264274 0.726793 0.413471
0.283240 0.760402 0.415735
0.315671 0.798607 0.414232
0.376011 0.831091 0.403478
0.475589 0.850762 0.385065
0.601942 0.857250 0.360482
0.723739 0.849987 0.330913
0.814026 0.836147 0.298864
0.865057 0.827378 0.258545
0.901813 0.793043 0.191283
0.928601 0.651748 0.087820
0.936509 0.410122 0.012084
0.930868 0.218314 0.000000
0.921435 0.132383 0.000000
0.915721 0.121425 0.000000
0.914661 0.139251 0.023968
0.916100 0.169796 0.058294
0.918406 0.204209 0.090313
0.920927 0.239449 0.121001
0.923384 0.273737 0.150297
0.925655 0.305947 0.177744
0.927774 0.337269 0.204755
0.929654 0.366136 0.229841
0.931326 0.392906 0.253414
0.932820 0.417811 0.275620
0.934160 0.441040 0.296621
0.935348 0.462138 0.315727
0.936397 0.481816 0.334019
0.937330 0.499625 0.350567
0.298872 0.816262 0.488975
0.298872 0.816262 0.488975
0.298872 0.816262 0.488975
0.305359 0.824467 0.494152
0.314444 0.834531 0.498984
0.327064 0.846715 0.502969
0.348289 0.864008 0.505515
0.389122 0.885045 0.501215
0.460324 0.905911 0.485120
0.579286 0.916670 0.458720
0.724439 0.917811 0.424879
0.829025 0.910245 0.387472
0.882405 0.897882 0.347600
0.916572 0.888074 0.296776
0.940090 0.857556 0.215511
0.956985 0.754661 0.104399
0.956577 0.560020 0.045787
0.945226 0.389169 0.046900
0.933081 0.291211 0.064393
0.926248 0.250141 0.080639
0.923961 0.245913 0.099384
0.923831 0.258803 0.121416
0.924843 0.280864 0.145773
0.926374 0.307145 0.171284
0.928075 0.334659 0.196714
0.929799 0.362528 0.222006
0.931390 0.388943 0.245991
0.932889 0.414514 0.269250
0.934229 0.438158 0.290919
0.935431 0.460066 0.311166
0.936500 0.480008 0.329627
0.937475 0.499168 0.347793
0.938342 0.516504 0.364225
0.362052 0.891705 0.581523
0.362052 0.891705 0.581523
0.362052 0.891705 0.581523
0.365243 0.894659 0.585202
0.370352 0.898840 0.589818
0.377905 0.904113 0.594536
0.392129 0.912294 0.600160
0.416598 0.923148 0.602686
0.461218 0.936111 0.596098
0.543508 0.948676 0.572357
0.684327 0.954752 0.535406
0.823956 0.953769 0.491125
0.890395 0.947189 0.444775
0.926402 0.936785 0.395157
0.948253 0.926565 0.330637
0.964675 0.902821 0.238993
0.969674 0.842551 0.163364
0.964261 0.696988 0.148738
0.952837 0.541972 0.160778
0.942790 0.436601 0.164023
0.935944 0.376632 0.165816
0.932399 0.353204 0.174155
0.931157 0.352305 0.188138
0.931146 0.363008 0.205695
0.931751 0.379788 0.225742
0.932836 0.401667 0.248183
0.933913 0.423073 0.269693
0.935024 0.444697 0.290843
0.936088 0.465702 0.311286
0.937112 0.486215 0.331146
0.938025 0.504871 0.349222
0.938876 0.522747 0.366686
0.939633 0.538913 0.382481
0.426603 0.937355 0.678834
0.426603 0.937355 0.678834
0.426603 0.937355 0.678834
0.428477 0.938393 0.681206
0.431660 0.940034 0.684862
0.436702 0.942402 0.689966
0.445045 0.945632 0.695449
0.460473 0.950456 0.700740
0.487431 0.957068 0.701564
0.536627 0.965020 0.691187
0.630480 0.972525 0.659717
0.789653 0.975652 0.611442
0.882557 0.974013 0.557463
0.928719 0.968387 0.502182
0.952905 0.959919 0.441327
0.967575 0.951884 0.366310
0.975811 0.935805 0.289957
0.975883 0.896812 0.250059
0.968690 0.818469 0.259706
0.959410 0.692607 0.267507
0.951300 0.586741 0.264758
0.945184 0.517438 0.259206
0.941078 0.476894 0.257356
0.938647 0.457947 0.261886
0.937438 0.453933 0.272223
0.937415 0.463842 0.289058
0.937625 0.475697 0.305860
0.938135 0.490477 0.323238
0.938738 0.506241 0.340815
0.939431 0.523017 0.358659
0.940059 0.538385 0.374973
0.940738 0.554482 0.391589
0.941342 0.569031 0.406614
0.490973 0.963043 0.767612
0.490973 0.963043 0.767612
0.490973 0.963043 0.767612
0.492060 0.963428 0.769422
0.494306 0.964144 0.772567
0.497228 0.965019 0.776208
0.502683 0.966408 0.780887
0.512424 0.968494 0.785104
0.529380 0.971513 0.788726
0.558529 0.975533 0.788305
0.617299 0.980672 0.777747
0.733548 0.985766 0.745275
0.860943 0.987462 0.690299
0.924578 0.986044 0.630147
0.954273 0.981359 0.561553
0.968043 0.973532 0.485994
0.978022 0.967176 0.404716
0.981437 0.955740 0.349324
0.978796 0.929124 0.343672
0.972204 0.879758 0.357149
0.964638 0.813740 0.364396
0.958033 0.730454 0.361788
0.952795 0.658668 0.354921
0.948809 0.609290 0.348882
0.945849 0.576073 0.345596
0.944231 0.562701 0.349947
0.943113 0.556314 0.357192
0.942641 0.558584 0.368446
0.942484 0.564772 0.381270
0.942627 0.574692 0.395631
0.942778 0.584040 0.408887
0.943181 0.596828 0.423825
0.943541 0.608375 0.437328
0.559854 0.978273 0.822362
0.559854 0.978273 0.822362
0.559854 0.978273 0.822362
0.560329 0.978392 0.823106
0.562582 0.978788 0.824794
0.565957 0.979349 0.827069
0.571849 0.980250 0.830634
0.580206 0.981416 0.834974
0.594078 0.983084 0.840226
0.615536 0.985137 0.844142
0.651626 0.987723 0.844508
0.721478 0.990662 0.836086
0.826677 0.992831 0.808260
0.909967 0.993124 0.754509
0.951522 0.991605 0.686543
0.969625 0.988407 0.614455
0.978075 0.983365 0.540297
0.983986 0.977850 0.454316
0.984022 0.966920 0.414840
0.980790 0.947976 0.423066
0.975063 0.916548 0.440147
0.968731 0.874865 0.449257
0.963142 0.829444 0.449395
0.958557 0.785724 0.445001
0.954884 0.735257 0.438923
0.952333 0.701113 0.434601
0.950238 0.675750 0.432936
0.948781 0.660564 0.434492
0.947747 0.652110 0.438878
0.947136 0.649929 0.445916
0.946614 0.648615 0.452735
0.946550 0.654573 0.463784
0.946490 0.659941 0.473768
0.642445 0.988173 0.863848
0.642445 0.988173 0.863848
0.642445 0.988173 0.863848
0.642046 0.988159 0.864041
0.643909 0.988337 0.865177
0.646389 0.988566 0.866592
0.649645 0.988862 0.868471
0.654564 0.989286 0.871081
0.661951 0.989864 0.874354
0.673955 0.990662 0.877980
0.693238 0.991658 0.880038
0.731629 0.993108 0.877802
0.800802 0.994662 0.865556
0.884627 0.995568 0.831321
0.943282 0.995204 0.781863
0.967527 0.993802 0.713577
0.978283 0.991527 0.646193
0.984466 0.988148 0.574692
0.987239 0.984208 0.510924
0.986086 0.975821 0.490330
0.982249 0.959823 0.494082
0.977247 0.938597 0.513337
0.971813 0.911293 0.525205
0.966882 0.880884 0.529032
0.962753 0.850744 0.527663
0.959825 0.826109 0.522613
0.957268 0.803302 0.518641
0.955305 0.784912 0.515521
0.953717 0.766173 0.514278
0.952530 0.751914 0.514702
0.951463 0.739745 0.515512
0.950895 0.736101 0.520295
0.950374 0.732811 0.524626
0.702775 0.992384 0.888606
0.702775 0.992384 0.888606
0.702775 0.992384 0.888606
0.702357 0.992372 0.888709
0.703258 0.992431 0.889297
0.704643 0.992518 0.890113
0.707117 0.992668 0.891459
0.709997 0.992847 0.893192
0.714005 0.993085 0.895427
0.720214 0.993414 0.898141
0.730295 0.993830 0.900150
0.751727 0.994468 0.900336
0.797748 0.995332 0.894315
0.864274 0.996021 0.874055
0.931277 0.995968 0.836133
0.962340 0.995331 0.792364
0.976210 0.994313 0.729178
0.983147 0.992783 0.664953
0.987344 0.990195 0.604125
0.988365 0.986757 0.568854
0.986876 0.980396 0.565058
0.983658 0.969951 0.575098
0.979171 0.954317 0.584843
0.974246 0.933968 0.590837
0.969908 0.913307 0.598023
0.966612 0.894492 0.597940
0.963657 0.875801 0.597190
0.961381 0.859906 0.594809
0.959477 0.845922 0.592842
0.958001 0.834600 0.591067
0.956641 0.823977 0.589777
0.955753 0.817521 0.590660
0.954930 0.811492 0.591499
0.753400 0.994179 0.903556
0.753400 0.994179 0.903556
0.753400 0.994179 0.903556
0.752840 0.994170 0.903596
0.753778 0.994200 0.904017
0.755356 0.994237 0.904571
0.757480 0.994292 0.905375
0.759929 0.994359 0.906458
0.762986 0.994451 0.907950
0.767244 0.994581 0.909872
0.773858 0.994738 0.911646
0.786324 0.994960 0.912144
0.817210 0.995260 0.908002
0.868798 0.995489 0.895166
0.921708 0.995244 0.872424
0.952295 0.994726 0.846646
0.969218 0.994214 0.813751
0.979149 0.993624 0.765009
0.985004 0.992427 0.700379
0.988071 0.990446 0.650184
0.988399 0.987498 0.629276
0.986859 0.982449 0.632774
0.984067 0.974878 0.645894
0.980556 0.964786 0.658177
0.976671 0.952136 0.666080
0.973012 0.937998 0.665921
0.969436 0.921680 0.663548
0.966706 0.907715 0.662318
0.964534 0.895820 0.662094
0.962849 0.885831 0.660837
0.961267 0.876123 0.659960
0.960205 0.869444 0.659532
0.959211 0.863083 0.659230
0.806679 0.994626 0.910721
0.806679 0.994626 0.910721
0.806679 0.994626 0.910721
0.805936 0.994622 0.910768
0.806760 0.994620 0.910940
0.808358 0.994623 0.911220
0.810663 0.994615 0.911568
0.813916 0.994602 0.912105
0.817286 0.994587 0.912838
0.821563 0.994561 0.913761
0.827851 0.994526 0.914663
0.837277 0.994487 0.914618
0.857875 0.994372 0.911586
0.887751 0.994153 0.903929
0.919986 0.993599 0.892150
0.943366 0.992972 0.878952
0.959934 0.992560 0.861226
0.971779 0.992415 0.835164
0.979762 0.992202 0.798539
0.985466 0.991230 0.744391
0.987646 0.989702 0.705105
0.987604 0.987073 0.692911
0.986101 0.982853 0.699217
0.983705 0.977030 0.711763
0.980783 0.969722 0.724319
0.977831 0.961840 0.731796
0.974963 0.953085 0.735810
0.972380 0.944035 0.735763
0.970062 0.934766 0.733967
0.968080 0.925777 0.730644
0.966086 0.916213 0.727929
0.964677 0.908919 0.725270
0.963320 0.901607 0.722971
0.854757 0.994081 0.912045
0.854757 0.994081 0.912045
0.854757 0.994081 0.912045
0.854064 0.994091 0.912126
0.855234 0.994054 0.912186
0.856542 0.994022 0.912295
0.858531 0.993965 0.912432
0.861252 0.993886 0.912654
0.864305 0.993782 0.912992
0.868512 0.993619 0.913406
0.873687 0.993412 0.913783
0.879690 0.993175 0.913731
0.889698 0.992826 0.912367
0.904847 0.992297 0.908723
0.923124 0.991488 0.903753
0.938826 0.990634 0.897748
0.952000 0.990055 0.888840
0.963300 0.989944 0.874800
0.972749 0.990223 0.852428
0.980573 0.990136 0.820906
0.984686 0.989419 0.790898
0.986215 0.988059 0.767736
0.986045 0.985719 0.759021
0.984765 0.982227 0.763458
0.982751 0.977585 0.773661
0.980393 0.972321 0.782001
0.978043 0.966618 0.786661
0.975797 0.960817 0.789442
0.973753 0.954988 0.790719
0.971965 0.949377 0.790677
0.970256 0.943565 0.790481
0.968957 0.938654 0.789279
0.967716 0.933690 0.788193
0.888158 0.992842 0.912188
0.888158 0.992842 0.912188
0.888158 0.992842 0.912188
0.887679 0.992864 0.912246
0.888510 0.992807 0.912297
0.889444 0.992740 0.912368
0.890923 0.992633 0.912494
0.892682 0.992489 0.912663
0.894756 0.992308 0.912935
0.897605 0.992044 0.913287
0.900972 0.991702 0.913672
0.904455 0.991306 0.914051
0.909327 0.990850 0.913886
0.917454 0.990187 0.912829
0.927765 0.989230 0.911257
0.937865 0.988145 0.909067
0.947226 0.987306 0.905051
0.956288 0.986927 0.897847
0.965269 0.987227 0.885128
0.974311 0.987589 0.864957
0.979993 0.987638 0.843041
0.983053 0.987099 0.823826
0.984223 0.985906 0.811440
0.984097 0.983904 0.806627
0.983066 0.980997 0.807914
0.981336 0.977278 0.812017
0.979546 0.973283 0.815424
0.977697 0.969123 0.818196
0.975964 0.965003 0.820075
0.974377 0.961071 0.821195
0.972869 0.957075 0.822044
0.971646 0.953611 0.822023
0.970489 0.950153 0.821964
0.908442 0.991090 0.913205
0.908442 0.991090 0.913205
0.908442 0.991090 0.913205
0.908189 0.991109 0.913238
0.908576 0.991053 0.913310
0.909211 0.990965 0.913414
0.910291 0.990816 0.913568
0.911551 0.990627 0.913796
0.913033 0.990385 0.914121
0.914771 0.990077 0.914556
0.916947 0.989671 0.915142
0.919217 0.989186 0.915886
0.921930 0.988685 0.916354
0.926419 0.987951 0.916547
0.932243 0.986944 0.916541
0.938630 0.985718 0.916273
0.945029 0.984628 0.914923
0.951602 0.983923 0.911653
0.959802 0.983830 0.903966
0.968066 0.984255 0.891807
0.974418 0.984848 0.877123
0.978644 0.985002 0.862251
0.981036 0.984608 0.849668
0.982031 0.983609 0.841156
0.982013 0.981927 0.837166
0.980998 0.979350 0.837881
0.979842 0.976569 0.838860
0.978473 0.973518 0.840254
0.977108 0.970458 0.841493
0.975748 0.967443 0.842638
0.974461 0.964430 0.843560
0.973358 0.961847 0.844104
0.972321 0.959308 0.844553
0.921351 0.989053 0.915328
0.921351 0.989053 0.915328
0.921351 0.989053 0.915328
0.921339 0.989045 0.915363
0.921627 0.988979 0.915459
0.922055 0.988878 0.915608
0.922662 0.988733 0.915818
0.923464 0.988534 0.916110
0.924659 0.988221 0.916565
0.925870 0.987877 0.917075
0.927139 0.987461 0.917737
0.928534 0.986967 0.918508
0.930093 0.986466 0.919137
0.932682 0.985701 0.919841
0.936076 0.984694 0.920527
0.940040 0.983441 0.921165
0.944378 0.982178 0.921207
0.949134 0.981210 0.919930
0.956211 0.980663 0.915312
0.962822 0.980791 0.908298
0.968735 0.981441 0.898940
0.973548 0.982171 0.888420
0.976849 0.982396 0.878344
0.978782 0.982080 0.869953
0.979760 0.981307 0.863549
0.979656 0.979754 0.860459
0.979244 0.977987 0.858689
0.978409 0.975819 0.858429
0.977468 0.973571 0.858570
0.976414 0.971236 0.859115
0.975416 0.968928 0.859543
0.974420 0.966800 0.859993
0.973487 0.964724 0.860357
0.928687 0.987035 0.918223
0.928687 0.987035 0.918223
0.928687 0.987035 0.918223
0.928579 0.987063 0.918199
0.928787 0.986994 0.918293
0.929200 0.986853 0.918492
0.929643 0.986701 0.918701
0.930217 0.986497 0.918981
0.931005 0.986204 0.919382
0.931889 0.985855 0.919862
0.932772 0.985445 0.920471
0.933761 0.984965 0.921157
0.934775 0.984503 0.921731
0.936355 0.983849 0.922387
0.938660 0.982915 0.923158
0.941420 0.981749 0.923969
0.944528 0.980542 0.924411
0.949256 0.979381 0.923391
0.954558 0.978642 0.920704
0.959787 0.978473 0.916354
0.964805 0.978801 0.910304
0.969270 0.979403 0.903027
0.972765 0.979839 0.895643
0.975189 0.979886 0.888963
0.976760 0.979626 0.883148
0.977313 0.978695 0.879163
0.977505 0.977613 0.876075
0.977259 0.976189 0.874246
0.976803 0.974636 0.873113
0.976136 0.972925 0.872651
0.975499 0.971255 0.872228
0.974699 0.969530 0.872393
0.973955 0.967866 0.872506
0.933994 0.985067 0.920769
0.933994 0.985067 0.920769
0.933994 0.985067 0.920769
0.933849 0.985121 0.920711
0.933998 0.985055 0.920798
0.934345 0.984898 0.920999
0.934672 0.984744 0.921201
0.935105 0.984534 0.921474
0.935625 0.984270 0.921821
0.936236 0.983947 0.922239
0.936827 0.983577 0.922752
0.937508 0.983144 0.923330
0.938161 0.982731 0.923837
0.939091 0.982194 0.924415
0.940616 0.981374 0.925167
