luts/P4P_11_RetroFade_size65.cube
# POCKET 4P D-Log2 LUT pack v1.0 - RetroFade
# Faded stock. Lifted milky blacks, cyan shadows.
# Input:  DJI Osmo Pocket 4P D-Log2 / D-Gamut2, full range
# Output: Rec.709 / gamma 2.4 display
# Built on DJI's official D-Log2 to Rec.709 colorimetry with a
# scene-linear highlight shoulder so nothing clips at +7 stops.
TITLE "POCKET 4P RetroFade v1.0"
LUT_3D_SIZE 65
DOMAIN_MIN 0.0 0.0 0.0
DOMAIN_MAX 1.0 1.0 1.0
0.139934 0.140473 0.171825
0.139934 0.140473 0.171825
0.139934 0.140473 0.171825
0.139934 0.140473 0.171825
0.139934 0.140473 0.171825
0.146088 0.135573 0.168116
0.155952 0.135536 0.169031
0.164248 0.135169 0.169916
0.172323 0.134866 0.170936
0.180212 0.134299 0.172105
0.189611 0.133964 0.173602
0.200428 0.133525 0.175505
0.211887 0.133192 0.177627
0.225430 0.132975 0.180236
0.240542 0.132676 0.183137
0.258625 0.132835 0.186587
0.279170 0.133240 0.190372
0.301728 0.133887 0.194282
0.327761 0.134896 0.198650
0.356188 0.136240 0.203162
0.387737 0.138274 0.207886
0.422002 0.140939 0.213106
0.457810 0.144141 0.218640
0.496181 0.148078 0.224456
0.535166 0.152379 0.230293
0.574804 0.156868 0.236288
0.614873 0.161072 0.242375
0.653947 0.164187 0.248209
0.692571 0.165796 0.253933
0.724782 0.165790 0.259147
0.758442 0.165304 0.264121
0.785151 0.165409 0.268992
0.804934 0.168228 0.274121
0.819925 0.175635 0.280039
0.831642 0.189082 0.287180
0.840341 0.214407 0.297321
0.847234 0.244846 0.308632
0.852540 0.277391 0.320732
0.855763 0.307817 0.333288
0.858479 0.336126 0.345310
0.860340 0.359241 0.356640
0.861985 0.380310 0.367318
0.863238 0.397252 0.377205
0.864456 0.413287 0.386639
0.865438 0.426757 0.395564
0.866372 0.439581 0.404039
0.867186 0.451067 0.412131
0.867929 0.461706 0.419836
0.868644 0.471824 0.427154
0.869336 0.481280 0.434391
0.869990 0.490265 0.441272
0.870611 0.498806 0.447809
0.871214 0.507206 0.454429
0.871791 0.515350 0.460828
0.872337 0.523089 0.466907
0.872854 0.530444 0.472681
0.873350 0.537589 0.478492
0.873821 0.544387 0.484028
0.874267 0.550844 0.489285
0.874690 0.556979 0.494279
0.875093 0.562866 0.499307
0.875488 0.568756 0.504776
0.875863 0.574352 0.509969
0.876219 0.579666 0.514901
0.876555 0.584714 0.519585
0.139934 0.140473 0.171825
0.139934 0.140473 0.171825
0.139934 0.140473 0.171825
0.139934 0.140473 0.171825
0.139934 0.140473 0.171825
0.146088 0.135573 0.168116
0.155952 0.135536 0.169031
0.164248 0.135169 0.169916
0.172323 0.134866 0.170936
0.180212 0.134299 0.172105
0.189611 0.133964 0.173602
0.200428 0.133525 0.175505
0.211887 0.133192 0.177627
0.225430 0.132975 0.180236
0.240542 0.132676 0.183137
0.258625 0.132835 0.186587
0.279170 0.133240 0.190372
0.301728 0.133887 0.194282
0.327761 0.134896 0.198650
0.356188 0.136240 0.203162
0.387737 0.138274 0.207886
0.422002 0.140939 0.213106
0.457810 0.144141 0.218640
0.496181 0.148078 0.224456
0.535166 0.152379 0.230293
0.574804 0.156868 0.236288
0.614873 0.161072 0.242375
0.653947 0.164187 0.248209
0.692571 0.165796 0.253933
0.724782 0.165790 0.259147
0.758442 0.165304 0.264121
0.785151 0.165409 0.268992
0.804934 0.168228 0.274121
0.819925 0.175635 0.280039
0.831642 0.189082 0.287180
0.840341 0.214407 0.297321
0.847234 0.244846 0.308632
0.852540 0.277391 0.320732
0.855763 0.307817 0.333288
0.858479 0.336126 0.345310
0.860340 0.359241 0.356640
0.861985 0.380310 0.367318
0.863238 0.397252 0.377205
0.864456 0.413287 0.386639
0.865438 0.426757 0.395564
0.866372 0.439581 0.404039
0.867186 0.451067 0.412131
0.867929 0.461706 0.419836
0.868644 0.471824 0.427154
0.869336 0.481280 0.434391
0.869990 0.490265 0.441272
0.870611 0.498806 0.447809
0.871214 0.507206 0.454429
0.871791 0.515350 0.460828
0.872337 0.523089 0.466907
0.872854 0.530444 0.472681
0.873350 0.537589 0.478492
0.873821 0.544387 0.484028
0.874267 0.550844 0.489285
0.874690 0.556979 0.494279
0.875093 0.562866 0.499307
0.875488 0.568756 0.504776
0.875863 0.574352 0.509969
0.876219 0.579666 0.514901
0.876555 0.584714 0.519585
0.139934 0.140473 0.171825
0.139934 0.140473 0.171825
0.139934 0.140473 0.171825
0.139934 0.140473 0.171825
0.139934 0.140473 0.171825
0.146088 0.135573 0.168116
0.155952 0.135536 0.169031
0.164248 0.135169 0.169916
0.172323 0.134866 0.170936
0.180212 0.134299 0.172105
0.189611 0.133964 0.173602
0.200428 0.133525 0.175505
0.211887 0.133192 0.177627
0.225430 0.132975 0.180236
0.240542 0.132676 0.183137
0.258625 0.132835 0.186587
0.279170 0.133240 0.190372
0.301728 0.133887 0.194282
0.327761 0.134896 0.198650
0.356188 0.136240 0.203162
0.387737 0.138274 0.207886
0.422002 0.140939 0.213106
0.457810 0.144141 0.218640
0.496181 0.148078 0.224456
0.535166 0.152379 0.230293
0.574804 0.156868 0.236288
0.614873 0.161072 0.242375
0.653947 0.164187 0.248209
0.692571 0.165796 0.253933
0.724782 0.165790 0.259147
0.758442 0.165304 0.264121
0.785151 0.165409 0.268992
0.804934 0.168228 0.274121
0.819925 0.175635 0.280039
0.831642 0.189082 0.287180
0.840341 0.214407 0.297321
0.847234 0.244846 0.308632
0.852540 0.277391 0.320732
0.855763 0.307817 0.333288
0.858479 0.336126 0.345310
0.860340 0.359241 0.356640
0.861985 0.380310 0.367318
0.863238 0.397252 0.377205
0.864456 0.413287 0.386639
0.865438 0.426757 0.395564
0.866372 0.439581 0.404039
0.867186 0.451067 0.412131
0.867929 0.461706 0.419836
0.868644 0.471824 0.427154
0.869336 0.481280 0.434391
0.869990 0.490265 0.441272
0.870611 0.498806 0.447809
0.871214 0.507206 0.454429
0.871791 0.515350 0.460828
0.872337 0.523089 0.466907
0.872854 0.530444 0.472681
0.873350 0.537589 0.478492
0.873821 0.544387 0.484028
0.874267 0.550844 0.489285
0.874690 0.556979 0.494279
0.875093 0.562866 0.499307
0.875488 0.568756 0.504776
0.875863 0.574352 0.509969
0.876219 0.579666 0.514901
0.876555 0.584714 0.519585
0.139934 0.140473 0.171825
0.139934 0.140473 0.171825
0.139934 0.140473 0.171825
0.139934 0.140473 0.171825
0.139934 0.140473 0.171825
0.146088 0.135573 0.168116
0.155952 0.135536 0.169031
0.164248 0.135169 0.169916
0.172323 0.134866 0.170936
0.180212 0.134299 0.172105
0.189611 0.133964 0.173602
0.200428 0.133525 0.175505
0.211887 0.133192 0.177627
0.225430 0.132975 0.180236
0.240542 0.132676 0.183137
0.258625 0.132835 0.186587
0.279170 0.133240 0.190372
0.301728 0.133887 0.194282
0.327761 0.134896 0.198650
0.356188 0.136240 0.203162
0.387737 0.138274 0.207886
0.422002 0.140939 0.213106
0.457810 0.144141 0.218640
0.496181 0.148078 0.224456
0.535166 0.152379 0.230293
0.574804 0.156868 0.236288
0.614873 0.161072 0.242375
0.653947 0.164187 0.248209
0.692571 0.165796 0.253933
0.724782 0.165790 0.259147
0.758442 0.165304 0.264121
0.785151 0.165409 0.268992
0.804934 0.168228 0.274121
0.819925 0.175635 0.280039
0.831642 0.189082 0.287180
0.840341 0.214407 0.297321
0.847234 0.244846 0.308632
0.852540 0.277391 0.320732
0.855763 0.307817 0.333288
0.858479 0.336126 0.345310
0.860340 0.359241 0.356640
0.861985 0.380310 0.367318
0.863238 0.397252 0.377205
0.864456 0.413287 0.386639
0.865438 0.426757 0.395564
0.866372 0.439581 0.404039
0.867186 0.451067 0.412131
0.867929 0.461706 0.419836
0.868644 0.471824 0.427154
0.869336 0.481280 0.434391
0.869990 0.490265 0.441272
0.870611 0.498806 0.447809
0.871214 0.507206 0.454429
0.871791 0.515350 0.460828
0.872337 0.523089 0.466907
0.872854 0.530444 0.472681
0.873350 0.537589 0.478492
0.873821 0.544387 0.484028
0.874267 0.550844 0.489285
0.874690 0.556979 0.494279
0.875093 0.562866 0.499307
0.875488 0.568756 0.504776
0.875863 0.574352 0.509969
0.876219 0.579666 0.514901
0.876555 0.584714 0.519585
0.139934 0.140473 0.171825
0.139934 0.140473 0.171825
0.139934 0.140473 0.171825
0.139934 0.140473 0.171825
0.139934 0.140473 0.171825
0.146088 0.135573 0.168116
0.155952 0.135536 0.169031
0.164248 0.135169 0.169916
0.172323 0.134866 0.170936
0.180212 0.134299 0.172105
0.189611 0.133964 0.173602
0.200428 0.133525 0.175505
0.211887 0.133192 0.177627
0.225430 0.132975 0.180236
0.240542 0.132676 0.183137
0.258625 0.132835 0.186587
0.279170 0.133240 0.190372
0.301728 0.133887 0.194282
0.327761 0.134896 0.198650
0.356188 0.136240 0.203162
0.387737 0.138274 0.207886
0.422002 0.140939 0.213106
0.457810 0.144141 0.218640
0.496181 0.148078 0.224456
0.535166 0.152379 0.230293
0.574804 0.156868 0.236288
0.614873 0.161072 0.242375
0.653947 0.164187 0.248209
0.692571 0.165796 0.253933
0.724782 0.165790 0.259147
0.758442 0.165304 0.264121
0.785151 0.165409 0.268992
0.804934 0.168228 0.274121
0.819925 0.175635 0.280039
0.831642 0.189082 0.287180
0.840341 0.214407 0.297321
0.847234 0.244846 0.308632
0.852540 0.277391 0.320732
0.855763 0.307817 0.333288
0.858479 0.336126 0.345310
0.860340 0.359241 0.356640
0.861985 0.380310 0.367318
0.863238 0.397252 0.377205
0.864456 0.413287 0.386639
0.865438 0.426757 0.395564
0.866372 0.439581 0.404039
0.867186 0.451067 0.412131
0.867929 0.461706 0.419836
0.868644 0.471824 0.427154
0.869336 0.481280 0.434391
0.869990 0.490265 0.441272
0.870611 0.498806 0.447809
0.871214 0.507206 0.454429
0.871791 0.515350 0.460828
0.872337 0.523089 0.466907
0.872854 0.530444 0.472681
0.873350 0.537589 0.478492
0.873821 0.544387 0.484028
0.874267 0.550844 0.489285
0.874690 0.556979 0.494279
0.875093 0.562866 0.499307
0.875488 0.568756 0.504776
0.875863 0.574352 0.509969
0.876219 0.579666 0.514901
0.876555 0.584714 0.519585
0.135237 0.146723 0.170807
0.135237 0.146723 0.170807
0.135237 0.146723 0.170807
0.135237 0.146723 0.170807
0.135237 0.146723 0.170807
0.147459 0.148768 0.169445
0.161019 0.149257 0.167658
0.171694 0.148751 0.168437
0.180338 0.147907 0.169326
0.191085 0.146832 0.170404
0.201132 0.146090 0.171483
0.212642 0.144873 0.172839
0.225008 0.143869 0.174855
0.238210 0.142711 0.176986
0.253581 0.141245 0.179661
0.271046 0.140160 0.182914
0.290110 0.139263 0.186342
0.312300 0.138734 0.190311
0.336626 0.138473 0.194534
0.364114 0.138700 0.199248
0.394460 0.139714 0.204377
0.426628 0.141536 0.209447
0.461881 0.144279 0.215166
0.499003 0.147840 0.221421
0.536585 0.151910 0.227492
0.575554 0.156358 0.233856
0.614102 0.160543 0.240039
0.653198 0.163927 0.246275
0.691311 0.165817 0.252193
0.722998 0.166068 0.257488
0.756511 0.165789 0.262682
0.783299 0.165960 0.267590
0.803327 0.168571 0.272721
0.818614 0.175409 0.278590
0.830472 0.187841 0.285552
0.839140 0.210925 0.295121
0.846134 0.239789 0.306061
0.851705 0.271874 0.318040
0.855155 0.302350 0.330550
0.858052 0.330769 0.342523
0.859933 0.353968 0.353732
0.861612 0.375252 0.364362
0.862909 0.392797 0.374419
0.864173 0.409392 0.384040
0.865160 0.422884 0.392888
0.866100 0.435729 0.401288
0.866919 0.447224 0.409312
0.867665 0.457867 0.416952
0.868374 0.467990 0.424209
0.869058 0.477497 0.431441
0.869721 0.486532 0.438321
0.870349 0.495121 0.444855
0.870943 0.503329 0.451313
0.871505 0.511238 0.457514
0.872038 0.518779 0.463405
0.872543 0.525944 0.469000
0.873043 0.533102 0.474787
0.873517 0.539920 0.480307
0.873967 0.546398 0.485550
0.874392 0.552552 0.490530
0.874797 0.558440 0.495323
0.875189 0.564246 0.500519
0.875560 0.569762 0.505613
0.875912 0.575001 0.510451
0.876246 0.579977 0.515045
0.135220 0.156988 0.173881
0.135220 0.156988 0.173881
0.135220 0.156988 0.173881
0.135220 0.156988 0.173881
0.135220 0.156988 0.173881
0.146974 0.161454 0.170385
0.161759 0.163393 0.170527
0.174525 0.164174 0.168413
0.186797 0.165256 0.165059
0.199494 0.164583 0.165694
0.211632 0.163001 0.167068
0.225067 0.160892 0.169220
0.238549 0.158462 0.171360
0.252615 0.156849 0.173446
0.268409 0.154669 0.175911
0.284984 0.152020 0.178717
0.304096 0.149863 0.182195
0.324998 0.147722 0.185879
0.348932 0.145929 0.190215
0.375474 0.144583 0.195074
0.403848 0.143923 0.200256
0.435460 0.144435 0.205998
0.469350 0.146006 0.211895
0.504465 0.148569 0.218152
0.541596 0.152155 0.225075
0.578844 0.156182 0.231679
0.617304 0.160339 0.238412
0.655694 0.163747 0.244942
0.692599 0.165727 0.250970
0.724104 0.166172 0.256532
0.757368 0.166080 0.261821
0.783840 0.166401 0.266826
0.803693 0.169122 0.272047
0.818788 0.175909 0.277934
0.830384 0.188000 0.284791
0.839140 0.211138 0.294508
0.846155 0.239917 0.305512
0.851678 0.271729 0.317460
0.855097 0.301634 0.329776
0.857973 0.329598 0.341601
0.859881 0.353122 0.352987
0.861573 0.374572 0.363703
0.862846 0.391791 0.373566
0.864087 0.408117 0.383036
0.865081 0.421705 0.391932
0.866029 0.434642 0.400379
0.866852 0.446194 0.408435
0.867602 0.456878 0.416101
0.868313 0.467039 0.423382
0.868978 0.476354 0.430461
0.869627 0.485200 0.437189
0.870242 0.493609 0.443580
0.870838 0.501836 0.450049
0.871406 0.509792 0.456301
0.871944 0.517400 0.462240
0.872454 0.524630 0.467881
0.872951 0.531756 0.473639
0.873422 0.538540 0.479127
0.873869 0.544985 0.484340
0.874292 0.551108 0.489290
0.874694 0.556950 0.494041
0.875078 0.562625 0.498977
0.875443 0.568015 0.503945
0.875788 0.573135 0.508663
0.876115 0.577998 0.513143
0.135303 0.166676 0.177113
0.135303 0.166676 0.177113
0.135303 0.166676 0.177113
0.135303 0.166676 0.177113
0.135303 0.166676 0.177113
0.146884 0.172230 0.172770
0.160525 0.175986 0.171736
0.175329 0.177812 0.172348
0.187499 0.179376 0.169525
0.203058 0.181290 0.164574
0.216539 0.181948 0.162835
0.231369 0.180712 0.163486
0.248371 0.178529 0.165580
0.264896 0.175036 0.168537
0.281345 0.171381 0.171553
0.299399 0.167994 0.174582
0.318265 0.164553 0.177638
0.338777 0.160643 0.181085
0.361911 0.157090 0.185394
0.386828 0.153854 0.190090
0.414868 0.151296 0.195616
0.445062 0.149862 0.201585
0.477325 0.149689 0.207927
0.512014 0.150892 0.214564
0.547203 0.153258 0.221777
0.584122 0.156640 0.229160
0.621579 0.160323 0.236406
0.658432 0.163468 0.243223
0.695317 0.165516 0.249741
0.725386 0.166077 0.255434
0.758486 0.166145 0.260910
0.784808 0.166624 0.266095
0.804255 0.169421 0.271343
0.819035 0.176288 0.277242
0.830701 0.188576 0.284271
0.839310 0.211489 0.293975
0.846226 0.240056 0.304970
0.851691 0.271681 0.316920
0.855134 0.301880 0.329429
0.858031 0.330069 0.341405
0.859900 0.353133 0.352615
0.861566 0.374279 0.363230
0.862848 0.391655 0.373213
0.864097 0.408111 0.382786
0.865084 0.421615 0.391653
0.866025 0.434474 0.400071
0.866835 0.445846 0.408009
0.867570 0.456318 0.415528
0.868267 0.466277 0.422670
0.868934 0.475696 0.429836
0.869591 0.484649 0.436654
0.870213 0.493161 0.443130
0.870807 0.501365 0.449582
0.871372 0.509259 0.455791
0.871906 0.516814 0.461690
0.872413 0.523993 0.467292
0.872902 0.531005 0.472956
0.873366 0.537676 0.478353
0.873805 0.544014 0.483479
0.874221 0.550035 0.488347
0.874619 0.555807 0.493040
0.875008 0.561553 0.497940
0.875377 0.567011 0.502967
0.875727 0.572195 0.507741
0.876058 0.577120 0.512275
0.135569 0.175836 0.180391
0.135569 0.175836 0.180391
0.135569 0.175836 0.180391
0.135569 0.175836 0.180391
0.135569 0.175836 0.180391
0.146580 0.181464 0.176129
0.160504 0.186898 0.173348
0.175019 0.190422 0.173418
0.189466 0.192682 0.173836
0.204913 0.194853 0.170268
0.220505 0.197857 0.164913
0.235421 0.199730 0.162219
0.252998 0.198435 0.162474
0.271858 0.195565 0.164174
0.290975 0.192097 0.166401
0.310074 0.187150 0.169165
0.330538 0.182309 0.172849
0.352027 0.176933 0.177037
0.374204 0.171953 0.180691
0.399368 0.166573 0.185281
0.425820 0.161359 0.190697
0.455033 0.157631 0.196884
0.486629 0.155403 0.203708
0.519451 0.154679 0.210740
0.554186 0.155616 0.218177
0.590010 0.157864 0.226314
0.625817 0.160693 0.233958
0.662518 0.163481 0.241445
0.698058 0.165307 0.248218
0.727475 0.165893 0.254296
0.760628 0.166074 0.260026
0.786066 0.166680 0.265311
0.805233 0.169748 0.270758
0.819909 0.176969 0.276892
0.831323 0.189613 0.284077
0.839716 0.212701 0.293888
0.846495 0.241438 0.305000
0.851874 0.273146 0.317072
0.855237 0.302738 0.329399
0.858072 0.330376 0.341217
0.859951 0.353610 0.352565
0.861622 0.374862 0.363283
0.862895 0.392149 0.373269
0.864135 0.408495 0.382821
0.865101 0.421730 0.391528
0.866023 0.434331 0.399795
0.866833 0.445730 0.407775
0.867577 0.456337 0.415406
0.868282 0.466425 0.422655
0.868940 0.475679 0.429700
0.869585 0.484467 0.436397
0.870197 0.492820 0.442758
0.870788 0.500994 0.449190
0.871351 0.508886 0.455406
0.871885 0.516444 0.461310
0.872390 0.523627 0.466918
0.872883 0.530697 0.472634
0.873351 0.537427 0.478082
0.873794 0.543820 0.483256
0.874214 0.549895 0.488171
0.874613 0.555691 0.492887
0.874995 0.561331 0.497676
0.875358 0.566689 0.502612
0.875701 0.571778 0.507300
0.876026 0.576611 0.511752
0.135690 0.184687 0.183877
0.135690 0.184687 0.183877
0.135690 0.184687 0.183877
0.135690 0.184687 0.183877
0.135690 0.184687 0.183877
0.146001 0.192368 0.180171
0.159938 0.198442 0.175431
0.174583 0.203354 0.173845
0.188584 0.206957 0.175378
0.205293 0.209163 0.174831
0.221003 0.212418 0.170415
0.239705 0.215257 0.165422
0.257940 0.216789 0.163388
0.276153 0.216432 0.162974
0.296152 0.213717 0.163736
0.317837 0.209631 0.165717
0.339979 0.204334 0.168288
0.362183 0.197832 0.171523
0.386096 0.190366 0.175570
0.411431 0.183188 0.180450
0.437749 0.175966 0.185928
0.466369 0.169496 0.191983
0.496090 0.164249 0.198772
0.528321 0.160848 0.206407
0.561797 0.159528 0.214298
0.595830 0.159990 0.222719
0.631289 0.161748 0.231264
0.666401 0.163743 0.239198
0.701621 0.165256 0.246622
0.730022 0.165688 0.253055
0.762611 0.165895 0.258959
0.787467 0.166627 0.264472
0.806149 0.169842 0.270054
0.820426 0.177200 0.276265
0.831649 0.189973 0.283560
0.840057 0.213678 0.293684
0.846773 0.242603 0.304925
0.851999 0.273952 0.316927
0.855360 0.303836 0.329462
0.858202 0.331738 0.341467
0.860051 0.354658 0.352733
0.861693 0.375609 0.363365
0.862944 0.392616 0.373239
0.864164 0.408731 0.382702
0.865138 0.422096 0.391533
0.866067 0.434821 0.399918
0.866868 0.446117 0.407850
0.867598 0.456538 0.415372
0.868290 0.466448 0.422517
0.868952 0.475774 0.429632
0.869601 0.484638 0.436398
0.870216 0.493063 0.442826
0.870807 0.501230 0.449261
0.871369 0.509097 0.455463
0.871901 0.516628 0.461354
0.872405 0.523785 0.466949
0.872889 0.530731 0.472568
0.873348 0.537336 0.477919
0.873783 0.543612 0.483002
0.874196 0.549574 0.487829
0.874589 0.555292 0.492485
0.874975 0.561000 0.497298
0.875342 0.566421 0.502296
0.875689 0.571571 0.507042
0.876018 0.576462 0.511550
0.136151 0.195582 0.188008
0.136151 0.195582 0.188008
0.136151 0.195582 0.188008
0.136151 0.195582 0.188008
0.136151 0.195582 0.188008
0.145617 0.203534 0.184446
0.159185 0.210147 0.179010
0.173913 0.216497 0.176173
0.187978 0.221177 0.175063
0.204853 0.224320 0.176514
0.222514 0.227468 0.175059
0.241495 0.231175 0.170387
0.262602 0.234003 0.166804
0.282514 0.235379 0.164917
0.302363 0.235019 0.164483
0.324398 0.232485 0.164748
0.347374 0.227742 0.165912
0.371627 0.221726 0.167992
0.396376 0.213727 0.171229
0.422504 0.204641 0.175181
0.449674 0.194469 0.180195
0.477711 0.184659 0.186363
0.507474 0.176179 0.193856
0.538235 0.169834 0.201605
0.570194 0.165823 0.209958
0.603755 0.164090 0.218603
0.637341 0.164016 0.227730
0.672060 0.164869 0.236535
0.705795 0.165604 0.244560
0.733729 0.165660 0.251370
0.765683 0.165697 0.257730
0.789311 0.166406 0.263411
0.807389 0.169791 0.269203
0.821448 0.177534 0.275708
0.832521 0.190933 0.283327
0.840581 0.214694 0.293492
0.847118 0.243970 0.304920
0.852310 0.275993 0.317265
0.855595 0.305804 0.329874
0.858365 0.333501 0.341896
0.860173 0.355979 0.353041
0.861783 0.376604 0.363603
0.863032 0.393628 0.373563
0.864248 0.409716 0.383071
0.865197 0.422757 0.391734
0.866100 0.435172 0.399959
0.866897 0.446433 0.407900
0.867628 0.456923 0.415495
0.868322 0.466900 0.422709
0.868988 0.476220 0.429835
0.869637 0.485076 0.436611
0.870252 0.493495 0.443047
0.870834 0.501544 0.449400
0.871385 0.509272 0.455499
0.871907 0.516667 0.461292
0.872402 0.523694 0.466794
0.872892 0.530727 0.472486
0.873358 0.537428 0.477915
0.873799 0.543793 0.483072
0.874217 0.549841 0.487969
0.874614 0.555612 0.492669
0.874995 0.561226 0.497417
0.875356 0.566559 0.502335
0.875698 0.571624 0.507006
0.876022 0.576435 0.511441
0.137088 0.207501 0.192890
0.137088 0.207501 0.192890
0.137088 0.207501 0.192890
0.137088 0.207501 0.192890
0.137088 0.207501 0.192890
0.145294 0.215808 0.189316
0.157864 0.223360 0.183801
0.172738 0.229560 0.179406
0.187375 0.236014 0.177298
0.203844 0.240288 0.176614
0.221326 0.244703 0.177587
0.243291 0.248209 0.175390
0.264236 0.251746 0.171513
0.286527 0.254855 0.168628
0.308935 0.255984 0.166897
0.331613 0.255213 0.166394
0.354612 0.252711 0.166389
0.379649 0.247241 0.167054
0.406362 0.240208 0.168751
0.433766 0.231447 0.171473
0.461383 0.220530 0.175541
0.490570 0.208567 0.180794
0.520332 0.195548 0.187526
0.549918 0.184461 0.195448
0.580905 0.176191 0.204680
0.612341 0.170904 0.213975
0.645392 0.168263 0.223332
0.678812 0.167149 0.233021
0.710125 0.166491 0.241587
0.738874 0.165861 0.249180
0.768657 0.165498 0.255879
0.791457 0.166198 0.262009
0.808977 0.169851 0.268207
0.822538 0.177988 0.275032
0.833183 0.191786 0.282895
0.841179 0.216604 0.293570
0.847599 0.246391 0.305299
0.852601 0.278311 0.317724
0.855794 0.307643 0.330240
0.858500 0.334921 0.342192
0.860310 0.357530 0.353501
0.861912 0.378142 0.364141
0.863126 0.394713 0.373915
0.864310 0.410411 0.383263
0.865264 0.423558 0.392039
0.866173 0.436073 0.400373
0.866965 0.447299 0.408318
0.867688 0.457705 0.415879
0.868373 0.467601 0.423060
0.869033 0.476773 0.430088
0.869672 0.485487 0.436769
0.870278 0.493769 0.443116
0.870864 0.501872 0.449525
0.871421 0.509707 0.455715
0.871950 0.517199 0.461596
0.872450 0.524318 0.467181
0.872935 0.531274 0.472819
0.873394 0.537893 0.478190
0.873829 0.544180 0.483291
0.874242 0.550154 0.488137
0.874635 0.555872 0.492801
0.875018 0.561528 0.497606
0.875382 0.566900 0.502565
0.875726 0.572003 0.507276
0.876053 0.576849 0.511749
0.138034 0.220741 0.198464
0.138034 0.220741 0.198464
0.138034 0.220741 0.198464
0.138034 0.220741 0.198464
0.138034 0.220741 0.198464
0.145421 0.229874 0.195161
0.156316 0.237607 0.189601
0.170817 0.244754 0.183644
0.185176 0.251569 0.181122
0.201988 0.257291 0.178727
0.219897 0.262790 0.178449
0.241648 0.266671 0.178763
0.265013 0.271059 0.176611
0.288362 0.274652 0.173281
0.312765 0.277631 0.170772
0.337943 0.278711 0.169156
0.362347 0.277232 0.168445
0.388047 0.273943 0.168235
0.415497 0.268242 0.168535
0.443408 0.259918 0.169881
0.473225 0.249314 0.172681
0.503517 0.236602 0.176892
0.532991 0.222560 0.182362
0.563549 0.207413 0.189497
0.593303 0.193437 0.198085
0.624273 0.183421 0.208010
0.655666 0.176492 0.218103
0.686918 0.171991 0.228370
0.716498 0.169020 0.237893
0.745215 0.166949 0.246195
0.773262 0.165727 0.253567
0.794724 0.166128 0.260234
0.811155 0.169817 0.266826
0.824005 0.178313 0.274042
0.834366 0.192854 0.282428
0.842024 0.218422 0.293416
0.848177 0.248469 0.305421
0.853023 0.280824 0.318155
0.856121 0.310347 0.330902
0.858747 0.337659 0.343008
0.860495 0.359611 0.354119
0.862050 0.379747 0.364643
0.863267 0.396382 0.374554
0.864450 0.412105 0.383998
0.865389 0.425087 0.392738
0.866283 0.437445 0.401037
0.867057 0.448460 0.408882
0.867762 0.458640 0.416319
0.868431 0.468321 0.423383
0.869099 0.477557 0.430490
0.869740 0.486339 0.437251
0.870348 0.494686 0.443674
0.870925 0.502687 0.450014
0.871471 0.510391 0.456101
0.871990 0.517747 0.461883
0.872481 0.524736 0.467375
0.872968 0.531729 0.473055
0.873431 0.538390 0.478472
0.873869 0.544718 0.483618
0.874284 0.550730 0.488505
0.874680 0.556484 0.493207
0.875065 0.562167 0.498082
0.875430 0.567564 0.503070
0.875776 0.572691 0.507807
0.876104 0.577561 0.512306
0.139547 0.235915 0.204943
0.139547 0.235915 0.204943
0.139547 0.235915 0.204943
0.139547 0.235915 0.204943
0.139547 0.235915 0.204943
0.145532 0.244885 0.201648
0.155206 0.253252 0.196330
0.168279 0.260803 0.190016
0.182484 0.267601 0.185563
0.198568 0.274228 0.182807
0.217718 0.280434 0.180534
0.239545 0.286282 0.180299
0.263569 0.290891 0.180626
0.289180 0.295440 0.178564
0.315377 0.299441 0.175508
0.341410 0.301715 0.173191
0.368259 0.302644 0.171533
0.395475 0.300676 0.170679
0.423479 0.296220 0.170187
0.453678 0.289228 0.170454
0.483883 0.279641 0.171873
0.515064 0.267579 0.174543
0.546278 0.253383 0.178845
0.576771 0.236399 0.184883
0.607464 0.218727 0.192633
0.637756 0.201905 0.201785
0.667189 0.189401 0.211629
0.697515 0.180164 0.221949
