luts/P4P_02_FlatBase_size65.cube
# POCKET 4P D-Log2 LUT pack v1.0 - FlatBase
# Low-contrast base to grade on top of. Not a finished look.
# Input:  DJI Osmo Pocket 4P D-Log2 / D-Gamut2, full range
# Output: Rec.709 / gamma 2.4 display
# Built on DJI's official D-Log2 to Rec.709 colorimetry with a
# scene-linear highlight shoulder so nothing clips at +7 stops.
TITLE "POCKET 4P FlatBase v1.0"
LUT_3D_SIZE 9
DOMAIN_MIN 0.0 0.0 0.0
DOMAIN_MAX 1.0 1.0 1.0
0.155348 0.155343 0.155354
0.208795 0.135756 0.151255
0.304841 0.110037 0.189362
0.477461 0.150623 0.238298
0.635929 0.163893 0.279497
0.687905 0.362679 0.356548
0.695208 0.440018 0.411792
0.699003 0.479842 0.448601
0.701610 0.506569 0.475102
0.126805 0.213390 0.173599
0.226436 0.231460 0.149594
0.344119 0.219220 0.146233
0.488244 0.159895 0.224761
0.636303 0.168387 0.276363
0.687502 0.358447 0.353121
0.694877 0.436599 0.408453
0.698613 0.475836 0.444524
0.701169 0.502062 0.470358
0.092758 0.318997 0.239506
0.181399 0.344401 0.213215
0.371914 0.382416 0.123264
0.534443 0.341752 0.162252
0.653335 0.187561 0.258963
0.688854 0.373258 0.358501
0.695333 0.441863 0.411735
0.698952 0.479487 0.447242
0.701457 0.505042 0.472818
0.125896 0.477386 0.327131
0.103055 0.483383 0.324391
0.241278 0.514271 0.262024
0.523043 0.536533 0.184152
0.688749 0.460273 0.266622
0.694024 0.429283 0.385648
0.697265 0.462725 0.426700
0.700493 0.495333 0.460540
0.702810 0.518913 0.485554
0.116332 0.617474 0.397968
0.111317 0.618750 0.398743
0.099692 0.630201 0.399467
0.294368 0.663645 0.292453
0.628658 0.653932 0.159043
0.708825 0.596014 0.424318
0.706313 0.558127 0.490935
0.705528 0.548522 0.502504
0.706245 0.555260 0.517359
0.302861 0.701979 0.444578
0.303409 0.702090 0.445218
0.321062 0.704590 0.453052
0.381506 0.710198 0.466217
0.570585 0.715806 0.452786
0.688114 0.703631 0.377880
0.715718 0.672947 0.503610
0.714867 0.648261 0.560128
0.713732 0.633769 0.576052
0.544842 0.716318 0.554108
0.545930 0.716356 0.554983
0.556991 0.716744 0.563317
0.578563 0.717510 0.580605
0.625589 0.719101 0.610008
0.676856 0.720357 0.591989
0.707858 0.715847 0.560254
0.717664 0.703896 0.582295
0.719095 0.694576 0.602612
0.619688 0.718984 0.615141
0.619705 0.718984 0.615169
0.624215 0.719147 0.619281
0.630497 0.719351 0.625373
0.649763 0.720026 0.638696
0.679326 0.720988 0.650880
0.700833 0.721436 0.634839
0.712895 0.718777 0.625019
0.717962 0.714157 0.625857
0.639466 0.719692 0.633108
0.639510 0.719693 0.633123
0.641832 0.719766 0.634692
0.645682 0.719890 0.637549
0.656216 0.720243 0.646348
0.678001 0.721043 0.660633
0.696835 0.721592 0.663054
0.708690 0.721568 0.656185
0.714963 0.720129 0.650572
0.138825 0.130022 0.188194
0.216164 0.125361 0.209007
0.320948 0.114557 0.240163
0.481856 0.154658 0.276490
0.637563 0.164859 0.291395
0.688022 0.363697 0.359626
0.695230 0.440154 0.412921
0.698997 0.479725 0.449089
0.701598 0.506370 0.475316
0.113310 0.219147 0.218410
0.234534 0.234534 0.234534
0.362866 0.190313 0.242418
0.493422 0.161773 0.271965
0.638562 0.173282 0.288819
0.687659 0.359876 0.356598
0.694895 0.436789 0.409706
0.698627 0.475958 0.445296
0.701173 0.502020 0.470776
0.088300 0.332808 0.275086
0.147922 0.355067 0.269698
0.371990 0.382002 0.222818
0.544279 0.329073 0.214022
0.655839 0.204017 0.277017
0.689036 0.374979 0.361862
0.695344 0.441926 0.412954
0.698944 0.479391 0.447830
0.701447 0.504906 0.473152
0.127301 0.481745 0.339908
0.105954 0.487681 0.339333
0.228849 0.518162 0.278774
0.524486 0.536919 0.220537
0.690023 0.456816 0.280532
0.693954 0.428457 0.386258
0.697221 0.462203 0.426928
0.700437 0.494668 0.460344
0.702736 0.518119 0.485080
0.122007 0.618721 0.400630
0.118242 0.619769 0.401468
0.099752 0.630645 0.401889
0.288508 0.664253 0.296061
0.629140 0.653896 0.186902
0.708777 0.594953 0.427180
0.706145 0.556238 0.490702
0.705469 0.547889 0.502678
0.706285 0.555587 0.518293
0.302758 0.702058 0.445153
0.302257 0.702093 0.445583
0.318691 0.704426 0.453032
0.381871 0.710131 0.466878
0.570136 0.715792 0.453122
0.687961 0.703458 0.377662
0.715674 0.672519 0.502980
0.714759 0.647045 0.560072
0.713604 0.632360 0.575661
0.545505 0.716343 0.554870
0.545123 0.716331 0.554743
0.555120 0.716682 0.562327
0.577914 0.717488 0.580230
0.624870 0.719076 0.609502
0.676681 0.720350 0.591754
0.707726 0.715779 0.558990
0.717599 0.703715 0.580901
0.719058 0.694354 0.601691
0.619622 0.718982 0.615186
0.619307 0.718971 0.614920
0.623330 0.719116 0.618608
0.629992 0.719333 0.624966
0.649370 0.720012 0.638417
0.679210 0.720984 0.650840
0.700763 0.721432 0.634591
0.712845 0.718747 0.624562
0.717914 0.714066 0.625126
0.639499 0.719693 0.633178
0.639407 0.719690 0.633115
0.641554 0.719757 0.634558
0.645223 0.719873 0.637142
0.655877 0.720231 0.646098
0.677823 0.721037 0.660534
0.696792 0.721590 0.663042
0.708655 0.721564 0.655978
0.714909 0.720102 0.650024
0.134308 0.156529 0.273283
0.221823 0.104589 0.293470
0.346773 0.135628 0.323934
0.495984 0.165226 0.358111
0.645068 0.181939 0.355067
0.689032 0.372931 0.381724
0.695395 0.441748 0.418904
0.699039 0.480120 0.451684
0.701587 0.506163 0.476540
0.105173 0.216526 0.286899
0.221412 0.192726 0.324996
0.365361 0.166036 0.342921
0.503916 0.170075 0.361115
0.646277 0.191954 0.353681
0.688772 0.370273 0.378779
0.695115 0.438852 0.416010
0.698678 0.476413 0.447971
0.701185 0.502072 0.472309
0.074392 0.348845 0.340954
0.120004 0.359548 0.353522
0.372971 0.372971 0.372971
0.553958 0.311615 0.376167
0.663526 0.234270 0.350641
0.690000 0.384019 0.380739
0.695592 0.444247 0.418915
0.699089 0.480743 0.451165
0.701546 0.505832 0.475467
0.135567 0.493980 0.399517
0.129545 0.498774 0.401598
0.226346 0.521986 0.392002
0.526612 0.534354 0.381293
0.693015 0.464548 0.340390
0.694328 0.431736 0.395183
0.697404 0.463784 0.431327
0.700565 0.495877 0.463325
0.702849 0.519183 0.487418
0.127739 0.623388 0.423366
0.124470 0.624607 0.423736
0.105177 0.633384 0.423952
0.270131 0.667898 0.325127
0.631251 0.654931 0.269575
0.709093 0.595269 0.441731
0.706233 0.556787 0.495159
0.705586 0.548977 0.505842
0.706357 0.556251 0.519998
0.307062 0.702960 0.452921
0.306197 0.703012 0.453407
0.316072 0.704640 0.459282
0.396221 0.710977 0.474140
0.572342 0.716032 0.462079
0.688591 0.703748 0.388951
0.715823 0.673047 0.508812
0.714774 0.646823 0.563915
0.713621 0.632300 0.578122
0.548671 0.716464 0.558276
0.548356 0.716454 0.558200
0.555491 0.716706 0.563683
0.580324 0.717576 0.582412
0.627025 0.719161 0.612176
0.677272 0.720390 0.594245
0.707916 0.715830 0.561574
0.717702 0.703909 0.583525
0.719115 0.694654 0.603644
0.620970 0.719032 0.616628
0.620671 0.719022 0.616377
0.623321 0.719117 0.618842
0.630539 0.719347 0.625699
0.650260 0.720047 0.639643
0.679441 0.720999 0.651697
0.700880 0.721440 0.635126
0.712934 0.718761 0.625365
0.717979 0.714149 0.626291
0.640313 0.719721 0.633884
0.640237 0.719715 0.633825
0.641633 0.719760 0.634783
0.645488 0.719884 0.637668
0.656504 0.720256 0.646953
0.678109 0.721051 0.661159
0.696888 0.721599 0.663668
0.708766 0.721570 0.656626
0.715001 0.720116 0.651034
0.088443 0.284199 0.417303
0.168466 0.237652 0.454125
0.351587 0.180857 0.483511
0.511276 0.158946 0.474056
0.652255 0.192871 0.460525
0.691817 0.396669 0.459841
0.697118 0.456716 0.465892
0.700088 0.489054 0.479153
0.702232 0.511616 0.493660
0.088823 0.292220 0.420420
0.156549 0.259294 0.455920
0.354568 0.208176 0.489014
0.513369 0.174853 0.476273
0.652255 0.197156 0.460027
0.691576 0.394104 0.458134
0.696861 0.454004 0.463417
0.699802 0.486113 0.476245
0.701903 0.508272 0.490256
0.114230 0.345137 0.443763
0.107254 0.342756 0.458718
0.349978 0.327698 0.512794
0.537398 0.264870 0.500412
0.664694 0.240218 0.468123
0.692626 0.405800 0.460343
0.697177 0.457756 0.464343
0.700015 0.488417 0.476824
0.702078 0.510141 0.490907
0.132198 0.503640 0.492468
0.133484 0.504927 0.493692
0.251624 0.517351 0.507361
0.519285 0.519285 0.519285
0.687006 0.477146 0.508393
0.696825 0.452359 0.471473
0.698900 0.476647 0.470478
0.701367 0.503018 0.484325
0.703321 0.523467 0.500026
0.188929 0.629862 0.504962
0.195309 0.630864 0.505310
0.222990 0.638683 0.508221
0.387033 0.656667 0.506007
0.633351 0.646933 0.512908
0.709919 0.599664 0.510917
0.706779 0.561438 0.510529
0.705949 0.552146 0.513694
0.706536 0.557871 0.524654
0.309086 0.703488 0.505938
0.309036 0.703634 0.505938
0.322061 0.705438 0.508656
0.395766 0.710658 0.513669
0.571792 0.716169 0.503749
0.689701 0.701225 0.494865
0.716386 0.672449 0.537458
0.714922 0.647578 0.573115
0.713933 0.635136 0.585104
0.555073 0.716779 0.572669
0.554863 0.716772 0.572556
0.562348 0.717023 0.577001
0.580539 0.717635 0.588007
0.630548 0.719290 0.615381
0.676824 0.720415 0.598723
0.708643 0.714973 0.567645
0.718075 0.703475 0.588851
0.719231 0.694523 0.608642
0.625084 0.719187 0.621202
0.624832 0.719179 0.621009
0.627384 0.719269 0.623307
0.632727 0.719451 0.628385
0.653158 0.720161 0.642356
0.680329 0.721036 0.653040
0.701657 0.721448 0.633718
0.713436 0.718457 0.625281
0.718208 0.714010 0.628160
0.643755 0.719823 0.636363
0.643616 0.719818 0.636270
0.645039 0.719866 0.637525
0.647775 0.719957 0.640438
0.658523 0.720338 0.649333
0.679011 0.721090 0.662552
0.697581 0.721625 0.664344
0.709433 0.721517 0.656023
0.715334 0.720016 0.652185
0.124860 0.382732 0.551465
0.124281 0.381027 0.557678
0.200823 0.357185 0.610399
0.479488 0.354447 0.636494
0.640464 0.170040 0.582730
0.692758 0.398145 0.551078
0.699142 0.472265 0.537833
0.702043 0.505370 0.540252
0.704032 0.526928 0.546379
0.124546 0.382136 0.550461
0.123982 0.380293 0.556585
0.201334 0.355336 0.607573
0.477603 0.351684 0.633565
0.637369 0.163129 0.579914
0.692230 0.392304 0.549588
0.698821 0.468732 0.535893
0.701717 0.501907 0.537843
0.703701 0.523483 0.543701
0.122485 0.387388 0.554999
0.124775 0.385581 0.560891
0.192808 0.364107 0.608058
0.479241 0.360416 0.634858
0.640052 0.180940 0.582297
0.692444 0.394694 0.549923
0.698863 0.469170 0.535945
0.701714 0.501897 0.537687
0.703679 0.523261 0.543389
0.191364 0.467900 0.595905
0.194335 0.464876 0.597635
0.229534 0.462563 0.617667
0.485084 0.479386 0.644178
0.668635 0.395818 0.614534
0.696192 0.436246 0.559837
0.700316 0.484988 0.543250
0.702868 0.514415 0.544422
0.704700 0.534209 0.549918
0.407021 0.626926 0.612600
0.408876 0.626672 0.612513
0.424750 0.629125 0.614844
0.506632 0.631922 0.620886
0.627171 0.625805 0.625668
0.707030 0.606503 0.615893
0.708662 0.575251 0.585540
0.707740 0.566166 0.571780
0.708057 0.569976 0.570486
0.407791 0.699105 0.595748
0.409288 0.699113 0.595858
0.424771 0.700245 0.598354
0.480743 0.702271 0.605642
0.597527 0.698780 0.617417
0.686344 0.693507 0.619237
0.716583 0.674885 0.621463
0.715830 0.653376 0.617799
0.714709 0.640993 0.614385
0.537550 0.716600 0.607535
0.537551 0.716599 0.607498
0.544783 0.716830 0.609959
0.561457 0.717347 0.615618
0.606433 0.718321 0.624526
0.666171 0.719629 0.621183
0.706771 0.711920 0.618081
0.717947 0.703183 0.626932
0.719448 0.694105 0.635224
0.616521 0.719090 0.635565
0.616337 0.719084 0.635473
0.619344 0.719192 0.638011
0.625840 0.719430 0.644032
0.644977 0.720056 0.653701
0.680075 0.721093 0.659756
0.700384 0.721062 0.644036
0.713541 0.717105 0.636850
0.718526 0.712938 0.642114
0.649665 0.720216 0.656762
0.649566 0.720212 0.656704
0.651814 0.720291 0.658418
0.655914 0.720437 0.661704
0.666340 0.720786 0.667779
0.683577 0.721297 0.671024
0.698971 0.721724 0.670732
0.710395 0.721147 0.660880
0.716139 0.719053 0.657695
0.118574 0.435001 0.639798
0.118178 0.434235 0.638634
0.107465 0.430937 0.652252
0.351341 0.433272 0.687743
0.600312 0.408049 0.688843
0.692097 0.393408 0.645091
0.699854 0.474185 0.595977
0.703129 0.512380 0.586581
0.705109 0.535237 0.586990
0.118158 0.434199 0.638468
0.117715 0.433291 0.637090
0.103854 0.428979 0.649636
0.348658 0.429889 0.687157
0.598300 0.403549 0.687611
0.691287 0.385449 0.644087
0.699474 0.469993 0.594705
0.702799 0.508804 0.584824
0.704784 0.531747 0.584921
0.119007 0.435954 0.641381
0.118410 0.434760 0.639520
0.105505 0.430304 0.650828
0.348857 0.428799 0.686978
0.597786 0.401800 0.687154
0.691021 0.382729 0.643674
0.699355 0.468688 0.594285
0.702701 0.507747 0.584296
0.704697 0.530834 0.584371
0.126027 0.450480 0.653271
0.118562 0.448382 0.650674
0.136673 0.447221 0.660908
0.350069 0.450313 0.687976
0.603088 0.430598 0.689760
0.693567 0.409561 0.646453
0.700261 0.478677 0.597194
0.703393 0.515262 0.587692
0.705316 0.537490 0.588004
0.422026 0.601224 0.688272
0.421330 0.599805 0.688155
0.427726 0.598240 0.690327
0.455082 0.594316 0.694183
0.615098 0.609589 0.688861
0.700351 0.585246 0.672235
0.707836 0.561635 0.627729
0.707558 0.560341 0.609067
0.708186 0.567963 0.604428
0.555009 0.685066 0.673223
0.554989 0.684922 0.673116
0.558245 0.685666 0.674193
0.569427 0.686958 0.676598
0.625026 0.685476 0.679908
0.683075 0.682513 0.682159
0.713397 0.674606 0.678575
0.716579 0.658792 0.664802
0.715637 0.647549 0.653832
0.575942 0.710998 0.663200
0.575901 0.710946 0.663116
0.578981 0.711255 0.664379
0.587209 0.711731 0.667265
0.621724 0.710234 0.673486
0.672068 0.707295 0.678752
0.702920 0.705529 0.681241
0.717409 0.701096 0.679227
0.719821 0.694871 0.678245
0.606266 0.718354 0.663940
0.606177 0.718338 0.663871
0.608649 0.718461 0.665156
0.614192 0.718688 0.667929
0.632047 0.718583 0.673429
0.669544 0.717475 0.678115
0.694322 0.717817 0.674718
0.711158 0.714228 0.677401
0.717647 0.711504 0.678553
0.632949 0.719860 0.671617
0.632951 0.719859 0.671614
0.634773 0.719924 0.672744
0.639227 0.720075 0.675078
0.653090 0.720451 0.679500
0.676258 0.720582 0.683093
0.695944 0.721303 0.681458
0.708006 0.719720 0.678725
0.715158 0.717499 0.679127
0.268419 0.485233 0.688173
0.265086 0.484068 0.687576
0.267998 0.483427 0.688577
0.349063 0.488922 0.693010
0.535951 0.510060 0.699650
0.677737 0.476719 0.695976
0.701910 0.491431 0.657225
0.704273 0.521222 0.627014
0.706078 0.542600 0.618344
0.263320 0.483458 0.687260
0.259518 0.482140 0.686584
0.260358 0.480825 0.687448
0.343702 0.485391 0.692567
0.533671 0.506491 0.699282
0.676627 0.470942 0.695541
0.701489 0.486725 0.656456
0.703887 0.517011 0.625293
0.705719 0.538693 0.616652
0.269737 0.485703 0.688411
0.265012 0.484042 0.687561
0.264170 0.482233 0.688023
0.341910 0.484016 0.692402
0.533126 0.505182 0.699155
0.676306 0.468976 0.695376
0.701360 0.485293 0.656193
0.703786 0.515917 0.624828
0.705633 0.537753 0.616235
0.284747 0.491005 0.690056
0.277397 0.488482 0.689379
0.279148 0.487586 0.690179
0.347368 0.488649 0.692943
0.535204 0.507158 0.699379
0.677168 0.472836 0.695609
0.701679 0.488864 0.656642
0.704074 0.519068 0.626023
0.705912 0.540798 0.617509
0.379168 0.551368 0.699188
0.372326 0.548293 0.698745
0.380371 0.546717 0.698818
0.411495 0.549498 0.699858
0.552781 0.570144 0.703690
0.682161 0.552615 0.700771
0.705855 0.536307 0.666778
0.706688 0.547507 0.638303
0.707866 0.561969 0.627496
0.566265 0.674910 0.702921
0.565683 0.674497 0.702778
0.568027 0.674924 0.703442
0.573962 0.675053 0.705048
0.603685 0.672181 0.707254
0.681697 0.677651 0.703961
0.709126 0.669879 0.698013
0.715514 0.656798 0.686556
0.715689 0.646885 0.676106
0.611684 0.703641 0.695467
0.611741 0.703613 0.695454
0.613402 0.703916 0.695910
0.617740 0.704509 0.696925
0.639572 0.704265 0.698472
0.680767 0.702773 0.700069
0.700260 0.700257 0.700242
0.714750 0.699331 0.700796
0.718896 0.694692 0.697024
0.625775 0.714207 0.691425
0.625703 0.714174 0.691374
0.627331 0.714360 0.691948
0.630753 0.714611 0.693042
0.646796 0.714360 0.695418
0.678971 0.712450 0.698439
0.697988 0.710898 0.700747
0.709464 0.710727 0.700829
0.717140 0.709313 0.699520
0.636933 0.718350 0.690073
0.636857 0.718338 0.690026
0.638954 0.718457 0.690651
0.643318 0.718657 0.691891
0.655122 0.718627 0.694262
0.678956 0.717423 0.697506
0.696118 0.715877 0.699919
0.705908 0.716169 0.698682
0.713120 0.714949 0.700090
0.378021 0.527744 0.697117
0.375428 0.526554 0.696947
0.372460 0.525130 0.696747
0.401106 0.529659 0.697875
0.501585 0.545346 0.701817
0.643920 0.541280 0.705116
0.699686 0.530487 0.691671
0.706317 0.541505 0.666408
0.707528 0.555717 0.651427
0.372907 0.525453 0.696787
0.369683 0.524060 0.696583
0.365405 0.522077 0.696301
0.395075 0.526107 0.697414
0.497954 0.541762 0.701414
0.642158 0.536989 0.704710
0.699146 0.525759 0.691225
0.705927 0.537177 0.665455
0.707144 0.551513 0.649848
0.377761 0.527621 0.697099
0.373302 0.525622 0.696811
0.369327 0.523808 0.696552
0.393030 0.524824 0.697250
0.496913 0.540533 0.701280
0.641628 0.535598 0.704580
0.698997 0.524323 0.691073
0.705826 0.536048 0.665189
0.707055 0.550543 0.649470
0.387837 0.532420 0.697774
0.382243 0.529745 0.697398
0.380339 0.528819 0.697269
0.398954 0.528586 0.697728
0.499075 0.541811 0.701447
0.642973 0.537566 0.704779
0.699346 0.526858 0.691235
0.706087 0.538927 0.665741
0.707319 0.553443 0.650505
0.421985 0.554809 0.700591
0.416322 0.551797 0.700185
0.419068 0.552578 0.700323
0.435439 0.555750 0.701018
0.513523 0.566240 0.703936
0.648932 0.565530 0.707246
0.701507 0.550838 0.693998
0.707622 0.555856 0.670023
0.708590 0.567311 0.656022
0.551213 0.654987 0.711056
0.549193 0.653573 0.710884
0.550111 0.652319 0.711113
0.553381 0.649244 0.711403
0.574344 0.646997 0.711566
0.666228 0.664168 0.712094
0.705322 0.655574 0.707549
0.713979 0.639695 0.695082
0.714372 0.630805 0.683585
0.620880 0.699347 0.708350
0.620607 0.699211 0.708285
0.622006 0.699488 0.708566
0.625660 0.700079 0.709178
0.638980 0.700355 0.710094
0.673859 0.699034 0.712182
0.701894 0.700316 0.709620
0.712345 0.698611 0.708101
0.716921 0.695895 0.705873
0.641782 0.710730 0.704647
0.641729 0.710704 0.704623
0.643446 0.710908 0.704948
0.647221 0.711268 0.705590
0.658634 0.711390 0.706563
0.684065 0.710422 0.707524
0.699878 0.709518 0.708462
0.708661 0.708487 0.708410
0.715186 0.708227 0.708618
0.653387 0.715848 0.702709
0.653233 0.715819 0.702662
0.654864 0.715972 0.703047
0.657809 0.716176 0.703688
0.665836 0.716169 0.704840
0.685078 0.715080 0.706382
0.699226 0.713915 0.707636
0.707305 0.713349 0.708428
0.712767 0.713176 0.708463
0.433972 0.555677 0.700975
0.431951 0.554581 0.700828
0.429073 0.553050 0.700621
0.442325 0.556182 0.701219
0.499748 0.566620 0.703567
0.618766 0.574532 0.707363
0.691432 0.564061 0.704437
0.706732 0.564570 0.687662
0.709034 0.571651 0.673429
0.430132 0.553619 0.700698
0.427375 0.552177 0.700502
0.423327 0.550096 0.700218
0.436536 0.552783 0.700781
0.495286 0.563059 0.703148
0.616762 0.570802 0.706988
0.690570 0.559500 0.704070
0.706290 0.560196 0.687034
0.708659 0.567508 0.672353
0.433477 0.555407 0.700939
0.429834 0.553451 0.700675
0.426431 0.551688 0.700435
0.434443 0.551518 0.700617
0.493858 0.561826 0.703006
0.616052 0.569507 0.706858
0.690349 0.558190 0.703957
0.706176 0.559023 0.686857
0.708572 0.566548 0.672089
0.441715 0.559878 0.701538
0.436939 0.557279 0.701190
0.435300 0.556391 0.701071
0.440654 0.555314 0.701106
0.495978 0.563118 0.703173
0.617508 0.571284 0.707049
0.690951 0.560804 0.704131
0.706483 0.561894 0.687210
0.708843 0.569523 0.672818
0.463126 0.573562 0.703270
0.456922 0.570120 0.702814
0.457809 0.570559 0.702875
0.466784 0.572845 0.703292
0.509677 0.578053 0.704855
0.622863 0.584903 0.708366
0.692892 0.574646 0.705354
0.707580 0.573324 0.689178
0.709730 0.579257 0.675634
0.540941 0.635161 0.710533
0.537744 0.632775 0.710243
0.538411 0.631436 0.710178
0.542287 0.628887 0.710100
0.562342 0.632052 0.710834
0.645325 0.651113 0.713736
0.698004 0.645159 0.712124
0.711497 0.630282 0.701927
0.713743 0.624976 0.691061
0.620849 0.694887 0.713678
0.620315 0.694654 0.713607
0.621623 0.694896 0.713804
0.624608 0.695074 0.714330
0.631401 0.693804 0.715156
0.662877 0.693358 0.715974
0.700021 0.697941 0.714121
0.711728 0.696110 0.712050
0.716546 0.692605 0.709267
0.650210 0.708607 0.711038
0.649937 0.708535 0.710991
0.651411 0.708732 0.711234
0.654632 0.709090 0.711701
0.662551 0.709412 0.712291
0.683200 0.709035 0.712964
0.698060 0.708031 0.714224
0.709102 0.708382 0.712658
0.714091 0.707877 0.712109
0.662851 0.714017 0.709152
0.662760 0.713989 0.709129
0.664020 0.714139 0.709377
0.666466 0.714368 0.709816
0.672219 0.714487 0.710469
0.687874 0.713877 0.711128
0.700515 0.713104 0.711724
0.707853 0.712613 0.712200
0.712264 0.712162 0.712020
