luts/P4P_10_Mono_size33.cube
# POCKET 4P D-Log2 LUT pack v1.0 - Mono
# Black and white, orange-filter response, warm print tone.
# Input:  DJI Osmo Pocket 4P D-Log2 / D-Gamut2, full range
# Output: Rec.709 / gamma 2.4 display
# Built on DJI's official D-Log2 to Rec.709 colorimetry with a
# scene-linear highlight shoulder so nothing clips at +7 stops.
TITLE "POCKET 4P Mono v1.0"
LUT_3D_SIZE 33
DOMAIN_MIN 0.0 0.0 0.0
DOMAIN_MAX 1.0 1.0 1.0
0.000916 0.000806 0.000567
0.000916 0.000806 0.000567
0.000916 0.000806 0.000567
0.004760 0.004613 0.004289
0.010968 0.010759 0.010300
0.018170 0.017890 0.017274
0.030209 0.029810 0.028932
0.047626 0.047054 0.045797
0.072273 0.071458 0.069663
0.104686 0.103549 0.101049
0.146477 0.144927 0.141516
0.197602 0.195545 0.191021
0.256787 0.254144 0.248331
0.320760 0.317484 0.310277
0.384618 0.380710 0.372112
0.450701 0.446139 0.436101
0.511968 0.506799 0.495427
0.559483 0.553844 0.541437
0.606422 0.600318 0.586889
0.655464 0.648874 0.634377
0.694007 0.687036 0.671699
0.723488 0.716225 0.700246
0.745939 0.739571 0.723078
0.762006 0.755944 0.742056
0.775192 0.769335 0.755907
0.786472 0.780797 0.767776
0.796439 0.790930 0.778280
0.805363 0.800007 0.787699
0.813249 0.808031 0.796034
0.820249 0.815157 0.803441
0.826407 0.821428 0.809965
0.832154 0.827282 0.816060
0.837199 0.832423 0.821417
0.000916 0.000806 0.000567
0.000916 0.000806 0.000567
0.000916 0.000806 0.000567
0.004760 0.004613 0.004289
0.010968 0.010759 0.010300
0.018170 0.017890 0.017274
0.030209 0.029810 0.028932
0.047626 0.047054 0.045797
0.072273 0.071458 0.069663
0.104686 0.103549 0.101049
0.146477 0.144927 0.141516
0.197602 0.195545 0.191021
0.256787 0.254144 0.248331
0.320760 0.317484 0.310277
0.384618 0.380710 0.372112
0.450701 0.446139 0.436101
0.511968 0.506799 0.495427
0.559483 0.553844 0.541437
0.606422 0.600318 0.586889
0.655464 0.648874 0.634377
0.694007 0.687036 0.671699
0.723488 0.716225 0.700246
0.745939 0.739571 0.723078
0.762006 0.755944 0.742056
0.775192 0.769335 0.755907
0.786472 0.780797 0.767776
0.796439 0.790930 0.778280
0.805363 0.800007 0.787699
0.813249 0.808031 0.796034
0.820249 0.815157 0.803441
0.826407 0.821428 0.809965
0.832154 0.827282 0.816060
0.837199 0.832423 0.821417
0.000916 0.000806 0.000567
0.000916 0.000806 0.000567
0.000916 0.000806 0.000567
0.004760 0.004613 0.004289
0.010968 0.010759 0.010300
0.018170 0.017890 0.017274
0.030209 0.029810 0.028932
0.047626 0.047054 0.045797
0.072273 0.071458 0.069663
0.104686 0.103549 0.101049
0.146477 0.144927 0.141516
0.197602 0.195545 0.191021
0.256787 0.254144 0.248331
0.320760 0.317484 0.310277
0.384618 0.380710 0.372112
0.450701 0.446139 0.436101
0.511968 0.506799 0.495427
0.559483 0.553844 0.541437
0.606422 0.600318 0.586889
0.655464 0.648874 0.634377
0.694007 0.687036 0.671699
0.723488 0.716225 0.700246
0.745939 0.739571 0.723078
0.762006 0.755944 0.742056
0.775192 0.769335 0.755907
0.786472 0.780797 0.767776
0.796439 0.790930 0.778280
0.805363 0.800007 0.787699
0.813249 0.808031 0.796034
0.820249 0.815157 0.803441
0.826407 0.821428 0.809965
0.832154 0.827282 0.816060
0.837199 0.832423 0.821417
0.004736 0.004589 0.004265
0.004736 0.004589 0.004265
0.004736 0.004589 0.004265
0.015034 0.014786 0.014238
0.024568 0.024224 0.023469
0.035367 0.034917 0.033927
0.050106 0.049510 0.048198
0.067701 0.066931 0.065236
0.089761 0.088772 0.086597
0.119109 0.117829 0.115015
0.157153 0.155497 0.151854
0.205027 0.202897 0.198212
0.260608 0.257927 0.252031
0.321695 0.318409 0.311182
0.383960 0.380059 0.371475
0.449083 0.444537 0.434535
0.509854 0.504706 0.493380
0.556626 0.551015 0.538670
0.601858 0.595799 0.582469
0.650549 0.644008 0.629618
0.689261 0.682336 0.667103
0.719123 0.711903 0.696019
0.742466 0.735460 0.719057
0.758799 0.752687 0.738463
0.772164 0.766259 0.752724
0.783389 0.777664 0.764531
0.793306 0.787744 0.774976
0.802181 0.796770 0.784339
0.810086 0.804813 0.792690
0.817162 0.812015 0.800174
0.823372 0.818337 0.806749
0.828989 0.824058 0.812703
0.833925 0.829087 0.817940
0.012050 0.011831 0.011349
0.012050 0.011831 0.011349
0.012050 0.011831 0.011349
0.022984 0.022657 0.021936
0.036134 0.035677 0.034670
0.052417 0.051798 0.050436
0.070440 0.069643 0.067888
0.090414 0.089419 0.087229
0.112654 0.111439 0.108765
0.139427 0.137947 0.134690
0.173658 0.171839 0.167836
0.217417 0.215165 0.210209
0.269344 0.266577 0.260490
0.327411 0.324069 0.316717
0.387558 0.383621 0.374959
0.452331 0.447752 0.437680
0.511817 0.506650 0.495281
0.558310 0.552682 0.540301
0.602896 0.596826 0.583474
0.651204 0.644656 0.630252
0.689515 0.682588 0.667349
0.719315 0.712093 0.696205
0.742420 0.735406 0.719005
0.758448 0.752331 0.738033
0.771741 0.765829 0.752279
0.782917 0.777184 0.764034
0.792791 0.787220 0.774433
0.801625 0.796205 0.783753
0.809493 0.804209 0.792063
0.816533 0.811374 0.799507
0.822713 0.817666 0.806051
0.828314 0.823370 0.811986
0.833236 0.828385 0.817209
0.020710 0.020405 0.019734
0.020710 0.020405 0.019734
0.020710 0.020405 0.019734
0.033229 0.032800 0.031856
0.049161 0.048574 0.047283
0.068338 0.067561 0.065852
0.094095 0.093064 0.090794
0.117383 0.116121 0.113344
0.140628 0.139136 0.135852
0.165509 0.163770 0.159945
0.196057 0.194016 0.189525
0.234547 0.232125 0.226796
0.281566 0.278678 0.272325
0.335632 0.332209 0.324678
0.393487 0.389491 0.380700
0.457535 0.452905 0.442719
0.514538 0.509343 0.497916
0.560374 0.554726 0.542300
0.604951 0.598862 0.585464
0.653362 0.646793 0.632341
0.691186 0.684243 0.668967
0.720374 0.713142 0.697231
0.743050 0.736146 0.719729
0.758854 0.752743 0.738531
0.771993 0.766085 0.752544
0.783249 0.777522 0.764383
0.793081 0.787516 0.774740
0.801725 0.796307 0.783858
0.809489 0.804205 0.792059
0.816500 0.811340 0.799473
0.822655 0.817607 0.805990
0.828235 0.823289 0.811903
0.833139 0.828286 0.817106
0.035260 0.034811 0.033823
0.035260 0.034811 0.033823
0.035260 0.034811 0.033823
0.048468 0.047888 0.046612
0.065303 0.064557 0.062914
0.085986 0.085034 0.082941
0.116143 0.114893 0.112143
0.147727 0.146165 0.142727
0.177198 0.175343 0.171264
0.205478 0.203344 0.198648
0.234119 0.231701 0.226381
0.264340 0.261623 0.255645
0.302460 0.299366 0.292557
0.350248 0.346680 0.338831
0.402423 0.398339 0.389353
0.465507 0.460798 0.450438
0.519452 0.514209 0.502674
0.563627 0.557946 0.545449
0.608894 0.602766 0.589282
0.656648 0.650047 0.635524
0.693816 0.686847 0.671514
0.722427 0.715175 0.699218
0.744553 0.737924 0.721467
0.760111 0.754020 0.740068
0.772829 0.766935 0.753423
0.783967 0.778251 0.765139
0.793711 0.788156 0.775404
0.802293 0.796884 0.784457
0.810001 0.804726 0.792600
0.816963 0.811811 0.799962
0.823084 0.818043 0.806443
0.828720 0.823784 0.812418
0.833673 0.828830 0.817673
0.055948 0.055294 0.053855
0.055948 0.055294 0.053855
0.055948 0.055294 0.053855
0.068267 0.067491 0.065784
0.083265 0.082340 0.080306
0.104004 0.102874 0.100388
0.136666 0.135213 0.132016
0.174905 0.173073 0.169043
0.212481 0.210277 0.205429
0.248153 0.245596 0.239971
0.281180 0.278296 0.271952
0.312743 0.309546 0.302514
0.343425 0.339925 0.332224
0.375151 0.371337 0.362945
0.417841 0.413603 0.404282
0.478156 0.473321 0.462686
0.527355 0.522034 0.510327
0.569163 0.563427 0.550810
0.615294 0.609102 0.595479
0.661733 0.655082 0.640448
0.698047 0.691035 0.675610
0.725731 0.718445 0.702417
0.746689 0.740396 0.723954
0.761822 0.755756 0.741863
0.774267 0.768396 0.754935
0.785261 0.779567 0.766501
0.794949 0.789415 0.776709
0.803576 0.798189 0.785811
0.811215 0.805961 0.793882
0.818008 0.812876 0.801069
0.823992 0.818968 0.807406
0.829582 0.824662 0.813332
0.834495 0.829667 0.818545
0.083590 0.082662 0.080621
0.083590 0.082662 0.080621
0.083590 0.082662 0.080621
0.093995 0.092964 0.090697
0.105884 0.104735 0.102209
0.123406 0.122084 0.119176
0.154681 0.153050 0.149460
0.197738 0.195681 0.191153
0.243925 0.241410 0.235876
0.286922 0.283981 0.277512
0.327790 0.324444 0.317084
0.365285 0.361568 0.353392
0.399310 0.395256 0.386338
0.424786 0.420480 0.411007
0.452027 0.447452 0.437386
0.498746 0.493708 0.482624
0.539985 0.534539 0.522557
0.579065 0.573231 0.560398
0.626093 0.619794 0.605936
0.669637 0.662907 0.648101
0.703885 0.696816 0.681264
0.730332 0.723001 0.706873
0.749710 0.743462 0.727507
0.764339 0.758312 0.744505
0.776612 0.770778 0.757400
0.787224 0.781562 0.768568
0.796658 0.791153 0.778512
0.805174 0.799815 0.787500
0.812719 0.807492 0.795473
0.819432 0.814326 0.802577
0.825347 0.820348 0.808842
0.830881 0.825985 0.814710
0.835744 0.830940 0.819872
0.118533 0.117259 0.114457
0.118533 0.117259 0.114457
0.118533 0.117259 0.114457
0.126754 0.125399 0.122418
0.135206 0.133768 0.130603
0.147571 0.146010 0.142576
0.171894 0.170092 0.166127
0.215586 0.213351 0.208435
0.267880 0.265128 0.259073
0.320753 0.317477 0.310271
0.369280 0.365523 0.357260
0.415458 0.411245 0.401975
0.456068 0.451452 0.441298
0.488031 0.483099 0.472248
0.513691 0.508505 0.497096
0.532582 0.527209 0.515388
0.560831 0.555178 0.542742
0.598157 0.592135 0.578885
0.642901 0.636435 0.622211
0.681531 0.674683 0.659618
0.712043 0.704893 0.689163
0.736423 0.729031 0.712770
0.753734 0.747546 0.732309
0.767548 0.761571 0.747874
0.779397 0.773608 0.760330
0.789795 0.784175 0.771277
0.799054 0.793590 0.781039
0.807429 0.802109 0.789882
0.814914 0.809726 0.797795
0.821637 0.816570 0.804911
0.827542 0.822584 0.811168
0.832910 0.828052 0.816862
0.837629 0.832861 0.821873
0.160597 0.158907 0.155189
0.160597 0.158907 0.155189
0.160597 0.158907 0.155189
0.167236 0.165480 0.161617
0.173515 0.171697 0.167698
0.181746 0.179847 0.175668
0.197193 0.195141 0.190626
0.228677 0.226313 0.221112
0.284099 0.281186 0.274778
0.345343 0.341824 0.334082
0.405127 0.401016 0.391972
0.458103 0.453467 0.443269
0.507098 0.501977 0.490711
0.548421 0.542891 0.530725
0.586679 0.580770 0.567771
0.601437 0.595382 0.582062
0.612453 0.606289 0.592728
0.639093 0.632665 0.618525
0.670149 0.663413 0.648596
0.699560 0.692534 0.677076
0.724087 0.716818 0.700826
0.744190 0.737494 0.721047
0.759088 0.752981 0.738819
0.771855 0.765945 0.752399
0.783183 0.777454 0.764313
0.793546 0.787988 0.775229
0.802627 0.797223 0.784809
0.810638 0.805374 0.793273
0.817869 0.812734 0.800921
0.824433 0.819417 0.807873
0.830202 0.825293 0.813989
0.835476 0.830667 0.819587
0.840113 0.835393 0.824512
0.209029 0.206860 0.202087
0.209029 0.206860 0.202087
0.209029 0.206860 0.202087
0.214389 0.212166 0.207276
0.219511 0.217237 0.212236
0.225044 0.222716 0.217594
0.233795 0.231381 0.226068
0.251801 0.249208 0.243503
0.293728 0.290719 0.284101
0.358945 0.355291 0.347252
0.428100 0.423761 0.414216
0.492521 0.487544 0.476596
0.549316 0.543777 0.531592
0.600042 0.594001 0.580711
0.649582 0.643051 0.628682
0.681157 0.674313 0.659256
0.687333 0.680427 0.665236
0.694888 0.687908 0.672552
0.708021 0.700911 0.685268
0.723943 0.716675 0.700686
0.740559 0.733226 0.716872
0.754090 0.747907 0.732736
0.766662 0.760671 0.746944
0.778204 0.772395 0.759074
0.788589 0.782949 0.770006
0.798335 0.792859 0.780281
0.806988 0.801660 0.789416
0.814768 0.809578 0.797641
0.821802 0.816738 0.805085
0.828196 0.823250 0.811862
0.833819 0.828979 0.817828
0.839000 0.834258 0.823329
0.843553 0.838900 0.828170
0.263032 0.260327 0.254378
0.263032 0.260327 0.254378
0.263032 0.260327 0.254378
0.266578 0.263839 0.257812
0.270595 0.267815 0.261701
0.275150 0.272325 0.266112
0.281396 0.278510 0.272161
0.291228 0.288245 0.281681
0.311005 0.307825 0.300831
0.361154 0.357478 0.349391
0.435820 0.431405 0.421692
0.512349 0.507177 0.495796
0.582084 0.576221 0.563322
0.642325 0.635865 0.621654
0.693744 0.686775 0.671444
0.746306 0.740008 0.723507
0.758879 0.752769 0.738562
0.758385 0.752267 0.737956
0.754831 0.748660 0.733631
0.755817 0.749660 0.734824
0.761048 0.754971 0.741051
0.768696 0.762737 0.749081
0.777611 0.771793 0.758451
0.786939 0.781272 0.768268
0.796030 0.790514 0.777849
0.804753 0.799387 0.787055
0.812697 0.807469 0.795450
0.820101 0.815006 0.803284
0.826733 0.821760 0.810311
0.832705 0.827843 0.816645
0.837975 0.833214 0.822241
0.842970 0.838305 0.827550
0.847361 0.842783 0.832221
0.320652 0.317377 0.310173
0.320652 0.317377 0.310173
0.320652 0.317377 0.310173
0.322885 0.319588 0.312335
0.325941 0.322614 0.315294
0.329603 0.326240 0.318840
0.335199 0.331780 0.324259
0.341824 0.338339 0.330674
0.351067 0.347492 0.339625
0.371266 0.367490 0.359183
0.428517 0.424175 0.414621
0.513725 0.508538 0.497128
0.598765 0.592737 0.579474
0.672971 0.666208 0.651329
0.733436 0.726074 0.709878
0.782477 0.776737 0.763570
0.804556 0.799186 0.786846
0.809453 0.804168 0.792020
0.802890 0.797492 0.785088
0.795902 0.790384 0.777714
0.791562 0.785971 0.773138
0.791786 0.786199 0.773374
0.795312 0.789784 0.777091
0.800654 0.795217 0.782727
0.807000 0.801672 0.789428
0.814147 0.808945 0.796983
0.820794 0.815712 0.804018
0.827149 0.822184 0.810752
0.833089 0.828235 0.817053
0.838675 0.833928 0.822985
0.843603 0.838951 0.828223
0.848217 0.843656 0.833132
0.852277 0.847797 0.837456
0.380160 0.376296 0.367796
0.380160 0.376296 0.367796
0.380160 0.376296 0.367796
0.381556 0.377678 0.369147
0.383797 0.379897 0.371317
0.387099 0.383167 0.374515
0.391354 0.387379 0.378635
0.397153 0.393121 0.384250
0.403432 0.399338 0.390330
0.411599 0.407424 0.398238
0.432507 0.428124 0.418483
0.497967 0.492936 0.481869
0.593050 0.587078 0.573940
0.683765 0.676895 0.661781
0.756702 0.750559 0.735900
0.802080 0.796667 0.784232
0.832854 0.827995 0.816803
0.844300 0.839661 0.828964
0.843840 0.839193 0.828475
0.837761 0.832996 0.822014
0.830880 0.825984 0.814708
0.825136 0.820133 0.808618
0.821904 0.816842 0.805193
0.821558 0.816490 0.804827
0.823572 0.818540 0.806960
0.828049 0.823101 0.811706
0.832548 0.827684 0.816478
0.837255 0.832480 0.821476
0.841940 0.837256 0.826455
0.846613 0.842020 0.831426
0.850771 0.846261 0.835852
0.854918 0.850491 0.840271
0.858571 0.854219 0.844167
0.435682 0.431268 0.421558
0.435682 0.431268 0.421558
0.435682 0.431268 0.421558
0.436713 0.432289 0.422556
0.438600 0.434158 0.424384
0.440854 0.436389 0.426566
0.444365 0.439865 0.429966
0.449364 0.444815 0.434807
0.455567 0.450956 0.440813
0.461656 0.456985 0.446710
0.470919 0.466157 0.455679
0.500775 0.495717 0.484589
0.579409 0.573572 0.560731
0.680755 0.673915 0.658866
0.765629 0.759622 0.745859
0.810693 0.805430 0.793331
0.846392 0.841795 0.831190
0.864168 0.859932 0.850142
0.870195 0.866087 0.856586
0.868966 0.864832 0.855271
0.864288 0.860055 0.850271
0.858927 0.854583 0.844547
0.853870 0.849422 0.839154
0.849928 0.845401 0.834954
0.847320 0.842740 0.832177
0.847333 0.842754 0.832192
0.848352 0.843794 0.833277
0.850688 0.846176 0.835764
0.853528 0.849073 0.838790
0.856828 0.852440 0.842308
0.859821 0.855495 0.845501
0.863245 0.858990 0.849157
0.866270 0.862079 0.852389
0.488177 0.483244 0.472390
0.488177 0.483244 0.472390
0.488177 0.483244 0.472390
0.488893 0.483953 0.473083
0.490793 0.485834 0.474923
0.493454 0.488468 0.477500
0.497851 0.492822 0.481758
0.503560 0.498474 0.487285
0.511432 0.506269 0.494908
0.519842 0.514595 0.503052
0.528190 0.522860 0.511135
0.540130 0.534682 0.522697
0.573270 0.567494 0.554787
0.661537 0.654887 0.640258
0.762572 0.756518 0.742650
0.820306 0.815216 0.803502
0.852204 0.847722 0.837378
0.876276 0.872299 0.863096
0.884075 0.880273 0.871462
0.888129 0.884418 0.875816
0.887283 0.883553 0.874907
0.884083 0.880281 0.871470
0.880240 0.876351 0.867346
0.876462 0.872489 0.863295
0.873024 0.868977 0.859613
0.870646 0.866548 0.857069
0.869088 0.864956 0.855402
0.868563 0.864420 0.854840
0.868870 0.864733 0.855168
0.869954 0.865840 0.856328
0.871036 0.866946 0.857486
0.873200 0.869157 0.859802
0.875124 0.871123 0.861862
0.546040 0.540534 0.528420
0.546040 0.540534 0.528420
0.546040 0.540534 0.528420
0.546166 0.540658 0.528542
0.547836 0.542312 0.530159
0.549967 0.544422 0.532222
0.552816 0.547242 0.534981
0.556912 0.551298 0.538947
0.562406 0.556737 0.544267
0.569456 0.563718 0.551094
0.576267 0.570461 0.557689
0.582012 0.576150 0.563252
0.592993 0.587021 0.573885
0.643201 0.636733 0.622502
0.746468 0.740173 0.723696
0.816344 0.811181 0.799308
0.855567 0.851153 0.840963
0.882047 0.878199 0.869285
0.896647 0.893135 0.884984
0.901600 0.898208 0.890326
0.901866 0.898480 0.890613
0.901373 0.897974 0.890080
0.899268 0.895818 0.887809
0.896637 0.893125 0.884973
0.893905 0.890329 0.882030
0.891355 0.887718 0.879285
0.889229 0.885544 0.876999
0.887601 0.883878 0.875249
0.886519 0.882772 0.874087
0.885958 0.882198 0.873484
0.885537 0.881768 0.873032
0.886087 0.882330 0.873622
0.886581 0.882835 0.874153
0.589921 0.583980 0.570911
0.589921 0.583980 0.570911
0.589921 0.583980 0.570911
0.589962 0.584021 0.570950
0.590985 0.585034 0.571941
0.592436 0.586470 0.573345
0.594882 0.588892 0.575714
0.597992 0.591972 0.578726
0.602122 0.596060 0.582725
0.607511 0.601396 0.587943
0.612791 0.606624 0.593056
0.618170 0.611949 0.598264
0.627512 0.621199 0.607310
0.662429 0.655771 0.641122
0.750003 0.743759 0.727855
0.816109 0.810942 0.799059
0.855674 0.851262 0.841077
0.880232 0.876343 0.867338
0.900289 0.896865 0.888911
0.910140 0.906957 0.899555
0.914313 0.911237 0.904075
0.915000 0.911942 0.904820
0.913333 0.910232 0.903013
0.910799 0.907634 0.900269
0.909103 0.905895 0.898433
0.907175 0.903919 0.896348
0.905432 0.902133 0.894464
0.903858 0.900520 0.892763
0.902563 0.899193 0.891365
0.901531 0.898137 0.890251
0.900641 0.897225 0.889290
0.900333 0.896910 0.888958
0.900056 0.896626 0.888659
0.629379 0.623047 0.609118
0.629379 0.623047 0.609118
0.629379 0.623047 0.609118
0.629230 0.622900 0.608974
0.630294 0.623954 0.610005
0.631952 0.625595 0.611610
0.634237 0.627857 0.613822
0.637180 0.630771 0.616672
0.641050 0.634603 0.620420
0.646145 0.639648 0.625353
0.652051 0.645495 0.631072
0.659604 0.652973 0.638385
0.677411 0.670604 0.655628
0.720065 0.712836 0.696931
0.783218 0.777490 0.764350
0.832168 0.827296 0.816075
0.863930 0.859689 0.849888
0.884434 0.880640 0.871847
0.900753 0.897340 0.889411
0.913865 0.910777 0.903590
0.920540 0.917626 0.910834
0.923666 0.920835 0.914232
0.924552 0.921745 0.915196
0.923965 0.921142 0.914558
0.922418 0.919554 0.912875
0.920146 0.917222 0.910406
0.917846 0.914861 0.907908
0.916245 0.913219 0.906170
0.915114 0.912058 0.904943
0.914110 0.911028 0.903855
0.913221 0.910117 0.902892
0.912653 0.909535 0.902277
0.912140 0.909009 0.901721
0.682818 0.675958 0.660864
0.682818 0.675958 0.660864
0.682818 0.675958 0.660864
0.682143 0.675289 0.660210
0.683529 0.676661 0.661552
0.685999 0.679107 0.663944
0.689670 0.682741 0.667499
0.695037 0.688055 0.672696
0.701153 0.694111 0.678618
0.709167 0.702045 0.686378
0.720066 0.712837 0.696932
0.733352 0.725991 0.709797
0.755403 0.749240 0.734322
0.785508 0.779817 0.766761
0.823199 0.818160 0.806565
0.854906 0.850479 0.840259
0.877936 0.873997 0.864876
0.893781 0.890201 0.881896
0.904689 0.901372 0.893661
0.917053 0.914047 0.907047
0.924472 0.921663 0.915109
0.928792 0.926100 0.919815
0.931057 0.928428 0.922286
0.931923 0.929318 0.923231
0.931858 0.929252 0.923161
0.930870 0.928236 0.922082
0.929704 0.927038 0.920810
0.928291 0.925585 0.919269
0.926895 0.924152 0.917748
0.925526 0.922745 0.916257
0.924259 0.921444 0.914877
0.923287 0.920446 0.913820
0.922388 0.919523 0.912842
0.756158 0.750007 0.735239
0.756158 0.750007 0.735239
0.756158 0.750007 0.735239
0.755319 0.749155 0.734221
0.757379 0.751245 0.736725
0.759627 0.753528 0.739482
0.763075 0.757029 0.743178
0.767845 0.761872 0.748186
0.773493 0.767609 0.754121
0.781290 0.775531 0.762321
0.790549 0.784941 0.772070
0.800238 0.794794 0.782288
0.813950 0.808744 0.796775
0.832981 0.828125 0.816938
0.856315 0.851917 0.841761
0.876864 0.872900 0.863726
0.892635 0.889029 0.880663
0.904286 0.900958 0.893225
0.912571 0.909450 0.902188
0.921895 0.919017 0.912306
0.928524 0.925825 0.919523
0.932814 0.930234 0.924205
0.935479 0.932975 0.927118
0.937021 0.934561 0.928805
0.937786 0.935348 0.929643
0.937594 0.935151 0.929433
0.937153 0.934697 0.928949
0.936401 0.933923 0.928126
0.935580 0.933078 0.927228
0.934695 0.932169 0.926261
0.933865 0.931315 0.925353
0.933082 0.930510 0.924498
0.932356 0.929764 0.923705
0.811541 0.806293 0.794228
0.811541 0.806293 0.794228
0.811541 0.806293 0.794228
0.810827 0.805566 0.793472
0.812460 0.807229 0.795200
0.814327 0.809129 0.797174
0.817295 0.812150 0.800314
0.820935 0.815855 0.804167
0.825338 0.820339 0.808832
0.831332 0.826444 0.815188
0.838358 0.833604 0.822648
0.845601 0.840988 0.830348
0.853960 0.849513 0.839249
0.865789 0.861587 0.851875
0.880385 0.876500 0.867502
0.894384 0.890819 0.882546
0.905512 0.902215 0.894550
0.914119 0.911038 0.903865
0.920474 0.917558 0.910761
0.927772 0.925052 0.918703
0.932977 0.930402 0.924383
0.936615 0.934143 0.928361
0.939101 0.936702 0.931084
0.940748 0.938396 0.932889
0.941806 0.939485 0.934049
0.942105 0.939793 0.934378
0.942115 0.939804 0.934388
0.941792 0.939471 0.934034
0.941349 0.939015 0.933548
0.940798 0.938448 0.932944
0.940274 0.937909 0.932370
0.939718 0.937337 0.931760
0.939203 0.936806 0.931195
0.850756 0.846245 0.835836
0.850756 0.846245 0.835836
0.850756 0.846245 0.835836
0.850373 0.845855 0.835428
0.851248 0.846747 0.836360
0.852642 0.848169 0.837845
0.854952 0.850526 0.840307
0.857740 0.853371 0.843280
0.861118 0.856818 0.846885
0.865134 0.860918 0.851175
0.870050 0.865938 0.856430
0.875376 0.871380 0.862133
0.880744 0.876867 0.867887
0.888339 0.884633 0.876042
0.897640 0.894152 0.886054
0.907392 0.904142 0.896583
0.915683 0.912642 0.905561
0.922279 0.919411 0.912724
0.928157 0.925448 0.919123
0.933370 0.930806 0.924812
0.937223 0.934768 0.929026
0.940147 0.937778 0.932230
0.942275 0.939968 0.934564
0.943768 0.941505 0.936203
0.944842 0.942612 0.937384
0.945367 0.943153 0.937961
0.945617 0.943411 0.938236
0.945569 0.943361 0.938183
0.945373 0.943159 0.937968
0.945047 0.942823 0.937609
0.944730 0.942497 0.937261
0.944350 0.942106 0.936844
0.943999 0.941743 0.936457
0.877688 0.873743 0.864610
0.877688 0.873743 0.864610
0.877688 0.873743 0.864610
0.877743 0.873799 0.864669
0.878413 0.874484 0.865387
0.879419 0.875512 0.866465
0.880837 0.876961 0.867986
0.882727 0.878894 0.870014
0.885552 0.881783 0.873048
0.888476 0.884774 0.876190
0.891739 0.888112 0.879699
0.895341 0.891798 0.883577
0.898871 0.895413 0.887381
0.904020 0.900686 0.892938
0.910217 0.907037 0.899638
0.917029 0.914023 0.907021
0.923402 0.920564 0.913945
0.928701 0.926007 0.919716
0.934159 0.931617 0.925674
0.938092 0.935663 0.929978
0.940935 0.938589 0.933094
0.943216 0.940937 0.935597
0.945027 0.942802 0.937587
0.946381 0.944197 0.939076
0.947352 0.945198 0.940145
0.947894 0.945757 0.940742
0.948222 0.946096 0.941104
0.948335 0.946211 0.941228
0.948310 0.946186 0.941200
0.948166 0.946037 0.941041
0.948008 0.945875 0.940868
0.947706 0.945564 0.940535
0.947426 0.945274 0.940226
0.895056 0.891506 0.883269
0.895056 0.891506 0.883269
0.895056 0.891506 0.883269
0.894843 0.891289 0.883040
0.895339 0.891796 0.883574
0.896341 0.892822 0.884654
0.897401 0.893908 0.885797
0.898784 0.895323 0.887287
0.900693 0.897278 0.889346
0.902863 0.899501 0.891688
0.905222 0.901917 0.894236
0.907830 0.904590 0.897056
0.910253 0.907074 0.899678
0.913580 0.910485 0.903281
0.918031 0.915051 0.908109
0.923055 0.920208 0.913568
0.927925 0.925210 0.918870
0.933132 0.930561 0.924552
0.937542 0.935097 0.929376
0.940862 0.938514 0.933014
0.943382 0.941108 0.935780
0.945335 0.943120 0.937926
0.946936 0.944770 0.939687
0.948211 0.946084 0.941091
0.949155 0.947057 0.942131
0.949730 0.947650 0.942765
0.950114 0.948045 0.943188
0.950302 0.948239 0.943395
0.950357 0.948296 0.943456
0.950296 0.948234 0.943389
0.950220 0.948155 0.943305
0.950036 0.947965 0.943102
0.949863 0.947787 0.942912
0.907532 0.904285 0.896733
0.907532 0.904285 0.896733
0.907532 0.904285 0.896733
0.907222 0.903967 0.896398
0.907584 0.904338 0.896790
0.908428 0.905204 0.897703
0.909237 0.906033 0.898578
0.910314 0.907136 0.899744
0.911626 0.908481 0.901164
0.913167 0.910062 0.902833
0.914815 0.911752 0.904619
0.916667 0.913651 0.906628
0.918358 0.915387 0.908464
0.920511 0.917597 0.910802
0.923678 0.920847 0.914245
