luts/P4P_12_Punch_size65.cube
# POCKET 4P D-Log2 LUT pack v1.0 - Punch
# High contrast and saturation for social and vertical.
# Input:  DJI Osmo Pocket 4P D-Log2 / D-Gamut2, full range
# Output: Rec.709 / gamma 2.4 display
# Built on DJI's official D-Log2 to Rec.709 colorimetry with a
# scene-linear highlight shoulder so nothing clips at +7 stops.
TITLE "POCKET 4P Punch v1.0"
LUT_3D_SIZE 65
DOMAIN_MIN 0.0 0.0 0.0
DOMAIN_MAX 1.0 1.0 1.0
0.000270 0.000268 0.000271
0.000270 0.000268 0.000271
0.000270 0.000268 0.000271
0.000270 0.000268 0.000271
0.000270 0.000268 0.000271
0.002781 0.000000 0.000000
0.007611 0.000000 0.000000
0.011871 0.000000 0.000000
0.016262 0.000000 0.000000
0.020925 0.000000 0.000000
0.027220 0.000000 0.000000
0.035701 0.000000 0.000000
0.046089 0.000000 0.000000
0.060191 0.000000 0.000000
0.076101 0.000000 0.000000
0.095512 0.000000 0.000000
0.118217 0.000000 0.000000
0.143914 0.000000 0.000000
0.174468 0.000000 0.000000
0.208852 0.000000 0.000000
0.248159 0.000000 0.000000
0.292033 0.000000 0.000000
0.339161 0.000000 0.000000
0.390946 0.000000 0.000000
0.445107 0.000000 0.000000
0.501829 0.000000 0.000000
0.560430 0.000000 0.000000
0.618798 0.000000 0.000000
0.677640 0.000000 0.000000
0.733739 0.000000 0.000000
0.790906 0.000000 0.000000
0.831949 0.000000 0.000000
0.859729 0.000000 0.000000
0.879032 0.000000 0.000000
0.892948 0.000000 0.000000
0.902357 0.000000 0.000000
0.909900 0.000000 0.000000
0.916617 0.000000 0.000000
0.919848 0.000000 0.000000
0.926852 0.000000 0.000000
0.931594 0.000000 0.000000
0.935666 0.003993 0.000000
0.938550 0.041193 0.000000
0.941170 0.076643 0.012264
0.943102 0.105586 0.034049
0.944906 0.133473 0.054981
0.946388 0.158084 0.074328
0.947696 0.180822 0.092575
0.948920 0.202634 0.110054
0.949963 0.222684 0.126865
0.950939 0.241859 0.142950
0.951854 0.260209 0.158331
0.952704 0.278003 0.173668
0.953500 0.295081 0.188498
0.954246 0.311401 0.202664
0.954948 0.326991 0.216191
0.955589 0.341940 0.229574
0.956190 0.356211 0.242370
0.956756 0.369830 0.254578
0.957288 0.382820 0.266222
0.957789 0.395293 0.277465
0.958259 0.407617 0.288897
0.958702 0.419365 0.299796
0.959119 0.430561 0.310184
0.959512 0.441229 0.320082
0.000270 0.000268 0.000271
0.000270 0.000268 0.000271
0.000270 0.000268 0.000271
0.000270 0.000268 0.000271
0.000270 0.000268 0.000271
0.002781 0.000000 0.000000
0.007611 0.000000 0.000000
0.011871 0.000000 0.000000
0.016262 0.000000 0.000000
0.020925 0.000000 0.000000
0.027220 0.000000 0.000000
0.035701 0.000000 0.000000
0.046089 0.000000 0.000000
0.060191 0.000000 0.000000
0.076101 0.000000 0.000000
0.095512 0.000000 0.000000
0.118217 0.000000 0.000000
0.143914 0.000000 0.000000
0.174468 0.000000 0.000000
0.208852 0.000000 0.000000
0.248159 0.000000 0.000000
0.292033 0.000000 0.000000
0.339161 0.000000 0.000000
0.390946 0.000000 0.000000
0.445107 0.000000 0.000000
0.501829 0.000000 0.000000
0.560430 0.000000 0.000000
0.618798 0.000000 0.000000
0.677640 0.000000 0.000000
0.733739 0.000000 0.000000
0.790906 0.000000 0.000000
0.831949 0.000000 0.000000
0.859729 0.000000 0.000000
0.879032 0.000000 0.000000
0.892948 0.000000 0.000000
0.902357 0.000000 0.000000
0.909900 0.000000 0.000000
0.916617 0.000000 0.000000
0.919848 0.000000 0.000000
0.926852 0.000000 0.000000
0.931594 0.000000 0.000000
0.935666 0.003993 0.000000
0.938550 0.041193 0.000000
0.941170 0.076643 0.012264
0.943102 0.105586 0.034049
0.944906 0.133473 0.054981
0.946388 0.158084 0.074328
0.947696 0.180822 0.092575
0.948920 0.202634 0.110054
0.949963 0.222684 0.126865
0.950939 0.241859 0.142950
0.951854 0.260209 0.158331
0.952704 0.278003 0.173668
0.953500 0.295081 0.188498
0.954246 0.311401 0.202664
0.954948 0.326991 0.216191
0.955589 0.341940 0.229574
0.956190 0.356211 0.242370
0.956756 0.369830 0.254578
0.957288 0.382820 0.266222
0.957789 0.395293 0.277465
0.958259 0.407617 0.288897
0.958702 0.419365 0.299796
0.959119 0.430561 0.310184
0.959512 0.441229 0.320082
0.000270 0.000268 0.000271
0.000270 0.000268 0.000271
0.000270 0.000268 0.000271
0.000270 0.000268 0.000271
0.000270 0.000268 0.000271
0.002781 0.000000 0.000000
0.007611 0.000000 0.000000
0.011871 0.000000 0.000000
0.016262 0.000000 0.000000
0.020925 0.000000 0.000000
0.027220 0.000000 0.000000
0.035701 0.000000 0.000000
0.046089 0.000000 0.000000
0.060191 0.000000 0.000000
0.076101 0.000000 0.000000
0.095512 0.000000 0.000000
0.118217 0.000000 0.000000
0.143914 0.000000 0.000000
0.174468 0.000000 0.000000
0.208852 0.000000 0.000000
0.248159 0.000000 0.000000
0.292033 0.000000 0.000000
0.339161 0.000000 0.000000
0.390946 0.000000 0.000000
0.445107 0.000000 0.000000
0.501829 0.000000 0.000000
0.560430 0.000000 0.000000
0.618798 0.000000 0.000000
0.677640 0.000000 0.000000
0.733739 0.000000 0.000000
0.790906 0.000000 0.000000
0.831949 0.000000 0.000000
0.859729 0.000000 0.000000
0.879032 0.000000 0.000000
0.892948 0.000000 0.000000
0.902357 0.000000 0.000000
0.909900 0.000000 0.000000
0.916617 0.000000 0.000000
0.919848 0.000000 0.000000
0.926852 0.000000 0.000000
0.931594 0.000000 0.000000
0.935666 0.003993 0.000000
0.938550 0.041193 0.000000
0.941170 0.076643 0.012264
0.943102 0.105586 0.034049
0.944906 0.133473 0.054981
0.946388 0.158084 0.074328
0.947696 0.180822 0.092575
0.948920 0.202634 0.110054
0.949963 0.222684 0.126865
0.950939 0.241859 0.142950
0.951854 0.260209 0.158331
0.952704 0.278003 0.173668
0.953500 0.295081 0.188498
0.954246 0.311401 0.202664
0.954948 0.326991 0.216191
0.955589 0.341940 0.229574
0.956190 0.356211 0.242370
0.956756 0.369830 0.254578
0.957288 0.382820 0.266222
0.957789 0.395293 0.277465
0.958259 0.407617 0.288897
0.958702 0.419365 0.299796
0.959119 0.430561 0.310184
0.959512 0.441229 0.320082
0.000270 0.000268 0.000271
0.000270 0.000268 0.000271
0.000270 0.000268 0.000271
0.000270 0.000268 0.000271
0.000270 0.000268 0.000271
0.002781 0.000000 0.000000
0.007611 0.000000 0.000000
0.011871 0.000000 0.000000
0.016262 0.000000 0.000000
0.020925 0.000000 0.000000
0.027220 0.000000 0.000000
0.035701 0.000000 0.000000
0.046089 0.000000 0.000000
0.060191 0.000000 0.000000
0.076101 0.000000 0.000000
0.095512 0.000000 0.000000
0.118217 0.000000 0.000000
0.143914 0.000000 0.000000
0.174468 0.000000 0.000000
0.208852 0.000000 0.000000
0.248159 0.000000 0.000000
0.292033 0.000000 0.000000
0.339161 0.000000 0.000000
0.390946 0.000000 0.000000
0.445107 0.000000 0.000000
0.501829 0.000000 0.000000
0.560430 0.000000 0.000000
0.618798 0.000000 0.000000
0.677640 0.000000 0.000000
0.733739 0.000000 0.000000
0.790906 0.000000 0.000000
0.831949 0.000000 0.000000
0.859729 0.000000 0.000000
0.879032 0.000000 0.000000
0.892948 0.000000 0.000000
0.902357 0.000000 0.000000
0.909900 0.000000 0.000000
0.916617 0.000000 0.000000
0.919848 0.000000 0.000000
0.926852 0.000000 0.000000
0.931594 0.000000 0.000000
0.935666 0.003993 0.000000
0.938550 0.041193 0.000000
0.941170 0.076643 0.012264
0.943102 0.105586 0.034049
0.944906 0.133473 0.054981
0.946388 0.158084 0.074328
0.947696 0.180822 0.092575
0.948920 0.202634 0.110054
0.949963 0.222684 0.126865
0.950939 0.241859 0.142950
0.951854 0.260209 0.158331
0.952704 0.278003 0.173668
0.953500 0.295081 0.188498
0.954246 0.311401 0.202664
0.954948 0.326991 0.216191
0.955589 0.341940 0.229574
0.956190 0.356211 0.242370
0.956756 0.369830 0.254578
0.957288 0.382820 0.266222
0.957789 0.395293 0.277465
0.958259 0.407617 0.288897
0.958702 0.419365 0.299796
0.959119 0.430561 0.310184
0.959512 0.441229 0.320082
0.000270 0.000268 0.000271
0.000270 0.000268 0.000271
0.000270 0.000268 0.000271
0.000270 0.000268 0.000271
0.000270 0.000268 0.000271
0.002781 0.000000 0.000000
0.007611 0.000000 0.000000
0.011871 0.000000 0.000000
0.016262 0.000000 0.000000
0.020925 0.000000 0.000000
0.027220 0.000000 0.000000
0.035701 0.000000 0.000000
0.046089 0.000000 0.000000
0.060191 0.000000 0.000000
0.076101 0.000000 0.000000
0.095512 0.000000 0.000000
0.118217 0.000000 0.000000
0.143914 0.000000 0.000000
0.174468 0.000000 0.000000
0.208852 0.000000 0.000000
0.248159 0.000000 0.000000
0.292033 0.000000 0.000000
0.339161 0.000000 0.000000
0.390946 0.000000 0.000000
0.445107 0.000000 0.000000
0.501829 0.000000 0.000000
0.560430 0.000000 0.000000
0.618798 0.000000 0.000000
0.677640 0.000000 0.000000
0.733739 0.000000 0.000000
0.790906 0.000000 0.000000
0.831949 0.000000 0.000000
0.859729 0.000000 0.000000
0.879032 0.000000 0.000000
0.892948 0.000000 0.000000
0.902357 0.000000 0.000000
0.909900 0.000000 0.000000
0.916617 0.000000 0.000000
0.919848 0.000000 0.000000
0.926852 0.000000 0.000000
0.931594 0.000000 0.000000
0.935666 0.003993 0.000000
0.938550 0.041193 0.000000
0.941170 0.076643 0.012264
0.943102 0.105586 0.034049
0.944906 0.133473 0.054981
0.946388 0.158084 0.074328
0.947696 0.180822 0.092575
0.948920 0.202634 0.110054
0.949963 0.222684 0.126865
0.950939 0.241859 0.142950
0.951854 0.260209 0.158331
0.952704 0.278003 0.173668
0.953500 0.295081 0.188498
0.954246 0.311401 0.202664
0.954948 0.326991 0.216191
0.955589 0.341940 0.229574
0.956190 0.356211 0.242370
0.956756 0.369830 0.254578
0.957288 0.382820 0.266222
0.957789 0.395293 0.277465
0.958259 0.407617 0.288897
0.958702 0.419365 0.299796
0.959119 0.430561 0.310184
0.959512 0.441229 0.320082
0.001660 0.008284 0.003338
0.001660 0.008284 0.003338
0.001660 0.008284 0.003338
0.001660 0.008284 0.003338
0.001660 0.008284 0.003338
0.008350 0.009023 0.001979
0.016476 0.008310 0.000000
0.022323 0.005247 0.000000
0.027078 0.001867 0.000000
0.033365 0.000000 0.000000
0.040444 0.000000 0.000000
0.049738 0.000000 0.000000
0.061322 0.000000 0.000000
0.075061 0.000000 0.000000
0.091424 0.000000 0.000000
0.110479 0.000000 0.000000
0.131851 0.000000 0.000000
0.157402 0.000000 0.000000
0.186209 0.000000 0.000000
0.219663 0.000000 0.000000
0.257613 0.000000 0.000000
0.298979 0.000000 0.000000
0.345448 0.000000 0.000000
0.395610 0.000000 0.000000
0.447857 0.000000 0.000000
0.503575 0.000000 0.000000
0.559897 0.000000 0.000000
0.618190 0.000000 0.000000
0.676167 0.000000 0.000000
0.730847 0.000000 0.000000
0.788041 0.000000 0.000000
0.829387 0.000000 0.000000
0.857675 0.000000 0.000000
0.877497 0.000000 0.000000
0.891687 0.000000 0.000000
0.901138 0.000000 0.000000
0.908689 0.000000 0.000000
0.915599 0.000000 0.000000
0.918761 0.000000 0.000000
0.925751 0.000000 0.000000
0.930613 0.000000 0.000000
0.934791 0.000000 0.000000
0.937844 0.031619 0.000000
0.940607 0.068356 0.005990
0.942574 0.097362 0.027669
0.944410 0.125316 0.048500
0.945917 0.149963 0.067742
0.947247 0.172726 0.085886
0.948492 0.194563 0.103267
0.949556 0.214718 0.120083
0.950551 0.233997 0.136177
0.951485 0.252449 0.151568
0.952330 0.269910 0.166543
0.953115 0.286551 0.180924
0.953853 0.302452 0.194660
0.954546 0.317640 0.207775
0.955198 0.332615 0.221110
0.955811 0.346933 0.233878
0.956388 0.360597 0.246060
0.956931 0.373632 0.257679
0.957439 0.386112 0.268867
0.957911 0.398261 0.280081
0.958354 0.409842 0.290771
0.958772 0.420879 0.300960
0.959166 0.431395 0.310668
0.005836 0.019233 0.009175
0.005836 0.019233 0.009175
0.005836 0.019233 0.009175
0.005836 0.019233 0.009175
0.005836 0.019233 0.009175
0.015004 0.023159 0.008975
0.022379 0.023780 0.007221
0.030879 0.023776 0.004202
0.039777 0.024108 0.001367
0.048110 0.020318 0.000000
0.056941 0.014393 0.000000
0.068522 0.006264 0.000000
0.080446 0.000000 0.000000
0.093696 0.000000 0.000000
0.108849 0.000000 0.000000
0.126917 0.000000 0.000000
0.148789 0.000000 0.000000
0.173253 0.000000 0.000000
0.201967 0.000000 0.000000
0.234631 0.000000 0.000000
0.270442 0.000000 0.000000
0.311319 0.000000 0.000000
0.356256 0.000000 0.000000
0.403881 0.000000 0.000000
0.455678 0.000000 0.000000
0.509002 0.000000 0.000000
0.565193 0.000000 0.000000
0.622439 0.000000 0.000000
0.678568 0.000000 0.000000
0.733286 0.000000 0.000000
0.789634 0.000000 0.000000
0.830326 0.000000 0.000000
0.858274 0.000000 0.000000
0.877800 0.000000 0.000000
0.891662 0.000000 0.000000
0.901202 0.000000 0.000000
0.908770 0.000000 0.000000
0.915611 0.000000 0.000000
0.918810 0.000000 0.000000
0.925595 0.000000 0.000000
0.930523 0.000000 0.000000
0.934734 0.000000 0.000000
0.937734 0.029722 0.000000
0.940455 0.065833 0.003814
0.942442 0.095035 0.025613
0.944297 0.123182 0.046562
0.945815 0.147939 0.065876
0.947152 0.170776 0.084073
0.948404 0.192687 0.101504
0.949449 0.212429 0.117961
0.950426 0.231298 0.133697
0.951344 0.249354 0.148744
0.952193 0.266842 0.163735
0.952988 0.283620 0.178225
0.953734 0.299654 0.192067
0.954435 0.314969 0.205283
0.955086 0.329874 0.218545
0.955698 0.344115 0.231234
0.956273 0.357705 0.243341
0.956814 0.370669 0.254889
0.957321 0.383047 0.265974
0.957784 0.394922 0.276912
0.958221 0.406240 0.287338
0.958633 0.417026 0.297275
0.959020 0.427302 0.306742
0.010132 0.030363 0.015225
0.010132 0.030363 0.015225
0.010132 0.030363 0.015225
0.010132 0.030363 0.015225
0.010132 0.030363 0.015225
0.020837 0.036237 0.015393
0.029145 0.039154 0.015472
0.037139 0.039699 0.013354
0.046322 0.041151 0.010565
0.059477 0.042484 0.006778
0.071532 0.040810 0.002894
0.085226 0.034355 0.000000
0.100708 0.024439 0.000000
0.115068 0.011601 0.000000
0.129935 0.000000 0.000000
0.147266 0.000000 0.000000
0.166095 0.000000 0.000000
0.190046 0.000000 0.000000
0.218382 0.000000 0.000000
0.249465 0.000000 0.000000
0.285241 0.000000 0.000000
0.324655 0.000000 0.000000
0.367714 0.000000 0.000000
0.415043 0.000000 0.000000
0.464449 0.000000 0.000000
0.517406 0.000000 0.000000
0.572195 0.000000 0.000000
0.627162 0.000000 0.000000
0.683234 0.000000 0.000000
0.736130 0.000000 0.000000
0.791672 0.000000 0.000000
0.831909 0.000000 0.000000
0.859160 0.000000 0.000000
0.878209 0.000000 0.000000
0.892113 0.000000 0.000000
0.901463 0.000000 0.000000
0.908909 0.000000 0.000000
0.915670 0.000000 0.000000
0.918922 0.000000 0.000000
0.925812 0.000000 0.000000
0.930616 0.000000 0.000000
0.934753 0.000000 0.000000
0.937772 0.029748 0.000000
0.940506 0.066112 0.003600
0.942475 0.095109 0.025284
0.944313 0.123055 0.046120
0.945806 0.147415 0.065137
0.947116 0.169786 0.082969
0.948342 0.191245 0.100050
0.949399 0.211189 0.116688
0.950387 0.230269 0.132615
0.951315 0.248530 0.147845
0.952162 0.265963 0.162789
0.952952 0.282619 0.177174
0.953693 0.298536 0.190915
0.954390 0.313739 0.204034
0.955031 0.328397 0.217075
0.955633 0.342395 0.229546
0.956200 0.355752 0.241444
0.956733 0.368493 0.252792
0.957234 0.380715 0.263736
0.957705 0.392735 0.274801
0.958148 0.404193 0.285349
0.958566 0.415112 0.295401
0.958959 0.425516 0.304980
0.014502 0.041479 0.021340
0.014502 0.041479 0.021340
0.014502 0.041479 0.021340
0.014502 0.041479 0.021340
0.014502 0.041479 0.021340
0.025330 0.048120 0.021604
0.035942 0.053112 0.022358
0.044743 0.056052 0.022068
0.053733 0.057462 0.019993
0.066717 0.059587 0.016344
0.083304 0.062611 0.012579
0.100055 0.062382 0.008224
0.117167 0.054703 0.001110
0.134425 0.042633 0.000000
0.151601 0.028324 0.000000
0.168883 0.011626 0.000000
0.188316 0.000000 0.000000
0.209461 0.000000 0.000000
0.233545 0.000000 0.000000
0.265440 0.000000 0.000000
0.299780 0.000000 0.000000
0.338322 0.000000 0.000000
0.380860 0.000000 0.000000
0.425939 0.000000 0.000000
0.475094 0.000000 0.000000
0.526702 0.000000 0.000000
0.579193 0.000000 0.000000
0.633968 0.000000 0.000000
0.688011 0.000000 0.000000
0.740524 0.000000 0.000000
0.795361 0.000000 0.000000
0.833937 0.000000 0.000000
0.860604 0.000000 0.000000
0.879389 0.000000 0.000000
0.892900 0.000000 0.000000
0.901961 0.000000 0.000000
0.909264 0.000000 0.000000
0.915946 0.000000 0.000000
0.919074 0.000000 0.000000
0.925969 0.000000 0.000000
0.930782 0.000000 0.000000
0.934920 0.000000 0.000000
0.937906 0.031106 0.000000
0.940610 0.067194 0.004034
0.942533 0.095598 0.025302
0.944330 0.122965 0.045735
0.945822 0.147355 0.064812
0.947145 0.169997 0.082887
0.948384 0.191719 0.100201
0.949421 0.211304 0.116549
0.950391 0.230024 0.132182
0.951301 0.247937 0.147130
0.952145 0.265296 0.162020
0.952933 0.281954 0.176412
0.953674 0.297872 0.190158
0.954370 0.313076 0.203284
0.955016 0.327849 0.216435
0.955623 0.341964 0.229017
0.956194 0.355432 0.241021
0.956731 0.368279 0.252470
0.957234 0.380550 0.263463
0.957696 0.392345 0.274324
0.958131 0.403587 0.284676
0.958541 0.414300 0.294542
0.958927 0.424507 0.303942
0.018774 0.052696 0.027675
0.018774 0.052696 0.027675
0.018774 0.052696 0.027675
0.018774 0.052696 0.027675
0.018774 0.052696 0.027675
0.030613 0.062758 0.029437
0.043754 0.070153 0.030531
0.054688 0.075997 0.031624
0.063867 0.079621 0.031996
0.075449 0.081329 0.028888
0.091893 0.085894 0.025325
0.114103 0.088271 0.020062
0.134663 0.086756 0.014332
0.153690 0.080318 0.007201
0.172914 0.067541 0.000000
0.192158 0.049408 0.000000
0.211979 0.028482 0.000000
0.232307 0.005469 0.000000
0.255602 0.000000 0.000000
0.281748 0.000000 0.000000
0.315193 0.000000 0.000000
0.353551 0.000000 0.000000
0.394079 0.000000 0.000000
0.438867 0.000000 0.000000
0.486593 0.000000 0.000000
0.535904 0.000000 0.000000
0.588048 0.000000 0.000000
0.640535 0.000000 0.000000
0.694387 0.000000 0.000000
0.745351 0.000000 0.000000
0.798852 0.000000 0.000000
0.836179 0.000000 0.000000
0.861981 0.000000 0.000000
0.880143 0.000000 0.000000
0.893362 0.000000 0.000000
0.902392 0.000000 0.000000
0.909633 0.000000 0.000000
0.916144 0.000000 0.000000
0.919335 0.000000 0.000000
0.926373 0.000000 0.000000
0.931076 0.000000 0.000000
0.935130 0.000000 0.000000
0.938052 0.032490 0.000000
0.940703 0.068024 0.004183
0.942635 0.096672 0.025695
0.944439 0.124276 0.046365
0.945911 0.148428 0.065296
0.947205 0.170649 0.083078
0.948416 0.191961 0.100108
0.949458 0.211688 0.116598
0.950432 0.230558 0.132380
0.951347 0.248614 0.147469
0.952187 0.265950 0.162354
0.952972 0.282540 0.176702
0.953709 0.298392 0.190407
0.954402 0.313534 0.203493
0.955035 0.328042 0.216414
0.955630 0.341891 0.228767
0.956190 0.355106 0.240551
0.956717 0.367710 0.251790
0.957213 0.379807 0.262634
0.957680 0.391737 0.273624
0.958120 0.403109 0.284100
0.958535 0.413946 0.294084
0.958925 0.424271 0.303597
0.024747 0.067513 0.035857
0.024747 0.067513 0.035857
0.024747 0.067513 0.035857
0.024747 0.067513 0.035857
0.024747 0.067513 0.035857
0.037278 0.080110 0.038684
0.052222 0.090038 0.040363
0.065980 0.099501 0.043042
0.077502 0.106485 0.044629
0.088852 0.109721 0.044117
0.104653 0.113753 0.040870
0.127578 0.119692 0.036247
0.152935 0.121757 0.030495
0.175933 0.119799 0.023889
0.197410 0.112738 0.015712
0.219511 0.098698 0.004639
0.239895 0.076635 0.000000
0.261046 0.050612 0.000000
0.282519 0.020325 0.000000
0.306765 0.000000 0.000000
0.333963 0.000000 0.000000
0.368645 0.000000 0.000000
0.409662 0.000000 0.000000
0.453153 0.000000 0.000000
0.499107 0.000000 0.000000
0.548101 0.000000 0.000000
0.597810 0.000000 0.000000
0.649875 0.000000 0.000000
0.702345 0.000000 0.000000
0.752238 0.000000 0.000000
0.804035 0.000000 0.000000
0.839105 0.000000 0.000000
0.863826 0.000000 0.000000
0.881543 0.000000 0.000000
0.894463 0.000000 0.000000
0.903041 0.000000 0.000000
0.910083 0.000000 0.000000
0.916579 0.000000 0.000000
0.919980 0.000000 0.000000
0.926865 0.000000 0.000000
0.931422 0.000000 0.000000
0.935381 0.000000 0.000000
0.938281 0.035027 0.000000
0.940907 0.070462 0.005527
0.942779 0.098383 0.026568
0.944527 0.125276 0.046779
0.945985 0.149319 0.065684
0.947280 0.171670 0.083609
0.948494 0.193108 0.100778
0.949531 0.212809 0.117274
0.950502 0.231650 0.133058
0.951413 0.249679 0.148150
0.952239 0.266758 0.162832
0.953007 0.283039 0.176931
0.953729 0.298593 0.190395
0.954407 0.313448 0.203250
0.955049 0.328139 0.216337
0.955652 0.342186 0.228868
0.956219 0.355590 0.240823
0.956753 0.368376 0.252225
0.957253 0.380587 0.263172
0.957713 0.392320 0.273984
0.958145 0.403504 0.284291
0.958553 0.414160 0.294112
0.958937 0.424313 0.303470
0.032680 0.086405 0.046220
0.032680 0.086405 0.046220
0.032680 0.086405 0.046220
0.032680 0.086405 0.046220
0.032680 0.086405 0.046220
0.046031 0.101965 0.050268
0.062691 0.116121 0.053372
0.078568 0.127033 0.056288
0.093281 0.138330 0.059890
0.106231 0.144553 0.060944
0.121420 0.150673 0.061036
0.143824 0.154692 0.055405
0.168884 0.159364 0.049652
0.196311 0.161761 0.043758
0.222583 0.158738 0.035682
0.247704 0.149914 0.025580
0.271841 0.135534 0.013658
0.295592 0.111546 0.000000
0.318756 0.080137 0.000000
0.341776 0.042757 0.000000
0.365301 0.001596 0.000000
0.392843 0.000000 0.000000
0.427292 0.000000 0.000000
0.469617 0.000000 0.000000
0.514861 0.000000 0.000000
0.561172 0.000000 0.000000
0.610501 0.000000 0.000000
0.660960 0.000000 0.000000
0.710842 0.000000 0.000000
0.761573 0.000000 0.000000
0.809112 0.000000 0.000000
0.842501 0.000000 0.000000
0.866151 0.000000 0.000000
0.883035 0.000000 0.000000
0.895321 0.000000 0.000000
0.903748 0.000000 0.000000
0.910695 0.000000 0.000000
0.916996 0.000000 0.000000
0.920564 0.000000 0.000000
0.927273 0.000000 0.000000
0.931804 0.000000 0.000000
0.935728 0.001501 0.000000
0.938524 0.037746 0.000000
0.941065 0.072266 0.006420
0.942939 0.100381 0.027677
0.944690 0.127461 0.048098
0.946134 0.151417 0.066983
0.947409 0.173574 0.084798
0.948605 0.194823 0.101861
0.949622 0.214201 0.118114
0.950575 0.232726 0.133658
0.951469 0.250450 0.148520
0.952297 0.267629 0.163315
0.953073 0.284113 0.177611
0.953801 0.299863 0.191266
0.954486 0.314906 0.204304
0.955118 0.329429 0.217259
0.955711 0.343299 0.229648
0.956270 0.356532 0.241466
0.956795 0.369154 0.252738
0.957289 0.381247 0.263594
0.957751 0.393062 0.274492
0.958186 0.404324 0.284881
0.958595 0.415056 0.294782
0.958981 0.425281 0.304215
0.043092 0.110732 0.059368
0.043092 0.110732 0.059368
0.043092 0.110732 0.059368
0.043092 0.110732 0.059368
0.043092 0.110732 0.059368
0.058233 0.130902 0.065493
0.074987 0.147183 0.069243
0.093000 0.160673 0.072408
0.108705 0.172794 0.076511
0.124215 0.182351 0.079071
0.140760 0.190872 0.080911
0.161108 0.195107 0.078062
0.186920 0.200721 0.072406
0.214901 0.205037 0.065632
0.245237 0.206709 0.058669
0.275442 0.202941 0.049151
0.302842 0.191954 0.037140
0.330370 0.174553 0.022746
0.358146 0.149018 0.005157
0.382370 0.113120 0.000000
0.407296 0.069087 0.000000
0.431993 0.018553 0.000000
0.456967 0.000000 0.000000
0.489096 0.000000 0.000000
0.532656 0.000000 0.000000
0.579067 0.000000 0.000000
0.626423 0.000000 0.000000
0.674081 0.000000 0.000000
0.723236 0.000000 0.000000
0.772809 0.000000 0.000000
0.816685 0.000000 0.000000
0.847562 0.000000 0.000000
0.869313 0.000000 0.000000
0.885044 0.000000 0.000000
0.896821 0.000000 0.000000
0.904751 0.000000 0.000000
0.911436 0.000000 0.000000
0.917572 0.000000 0.000000
0.921425 0.000000 0.000000
0.927970 0.000000 0.000000
0.932314 0.000000 0.000000
0.936103 0.005509 0.000000
0.938876 0.041816 0.000000
0.941393 0.076347 0.008818
0.943221 0.104063 0.029895
0.944930 0.130751 0.050138
0.946333 0.154224 0.068725
0.947570 0.175870 0.086202
0.948729 0.196624 0.102936
0.949746 0.216115 0.119338
0.950698 0.234765 0.135038
0.951591 0.252608 0.150049
0.952406 0.269568 0.164676
0.953164 0.285749 0.178728
0.953876 0.301209 0.192147
0.954546 0.315972 0.204958
0.955179 0.330560 0.217994
0.955775 0.344507 0.230475
0.956335 0.357815 0.242383
0.956862 0.370508 0.253739
0.957357 0.382668 0.264673
0.957820 0.394538 0.275632
0.958255 0.405853 0.286078
0.958665 0.416636 0.296033
0.959052 0.426909 0.305519
0.057045 0.142360 0.076215
0.057045 0.142360 0.076215
0.057045 0.142360 0.076215
0.057045 0.142360 0.076215
0.057045 0.142360 0.076215
0.071602 0.162740 0.082422
0.088620 0.181301 0.087046
0.107175 0.196969 0.090533
0.124238 0.209589 0.094136
0.141181 0.221266 0.097874
0.159550 0.231471 0.100486
0.181320 0.239876 0.101159
0.206203 0.245454 0.097504
0.235061 0.250939 0.090818
0.267165 0.255697 0.083150
0.299546 0.255388 0.074541
0.332496 0.250882 0.063847
0.363741 0.237782 0.049644
0.393982 0.216431 0.032395
0.424877 0.185917 0.011616
0.451831 0.145057 0.000000
0.477701 0.095272 0.000000
0.503121 0.038833 0.000000
0.526307 0.000000 0.000000
0.553867 0.000000 0.000000
0.598842 0.000000 0.000000
0.644074 0.000000 0.000000
0.690933 0.000000 0.000000
