luts/P4P_09_Nordic_size33.cube
# POCKET 4P D-Log2 LUT pack v1.0 - Nordic
# Cold and muted. Overcast, slate greens.
# Input:  DJI Osmo Pocket 4P D-Log2 / D-Gamut2, full range
# Output: Rec.709 / gamma 2.4 display
# Built on DJI's official D-Log2 to Rec.709 colorimetry with a
# scene-linear highlight shoulder so nothing clips at +7 stops.
TITLE "POCKET 4P Nordic v1.0"
LUT_3D_SIZE 33
DOMAIN_MIN 0.0 0.0 0.0
DOMAIN_MAX 1.0 1.0 1.0
0.004257 0.014633 0.037042
0.004257 0.014633 0.037042
0.004257 0.014633 0.037042
0.012266 0.004428 0.028282
0.021380 0.000000 0.024309
0.032241 0.000000 0.020914
0.051675 0.000000 0.017283
0.077572 0.000000 0.012674
0.113453 0.000000 0.006387
0.160277 0.000000 0.000000
0.220159 0.000000 0.000000
0.291236 0.000000 0.000000
0.371249 0.000000 0.000000
0.456015 0.000000 0.000000
0.539971 0.000000 0.000000
0.627522 0.000000 0.000000
0.706994 0.000000 0.000000
0.762094 0.000000 0.000000
0.787883 0.000000 0.000000
0.808456 0.000000 0.000000
0.835726 0.055465 0.027745
0.851678 0.131898 0.078406
0.861822 0.188759 0.119973
0.869010 0.234289 0.155856
0.874478 0.272392 0.187547
0.878801 0.305542 0.216630
0.882550 0.335816 0.243694
0.885794 0.363558 0.269209
0.888531 0.388760 0.293277
0.890844 0.411656 0.315945
0.892887 0.432455 0.336640
0.894688 0.451999 0.356755
0.896288 0.469677 0.374969
0.004257 0.014633 0.037042
0.004257 0.014633 0.037042
0.004257 0.014633 0.037042
0.012266 0.004428 0.028282
0.021380 0.000000 0.024309
0.032241 0.000000 0.020914
0.051675 0.000000 0.017283
0.077572 0.000000 0.012674
0.113453 0.000000 0.006387
0.160277 0.000000 0.000000
0.220159 0.000000 0.000000
0.291236 0.000000 0.000000
0.371249 0.000000 0.000000
0.456015 0.000000 0.000000
0.539971 0.000000 0.000000
0.627522 0.000000 0.000000
0.706994 0.000000 0.000000
0.762094 0.000000 0.000000
0.787883 0.000000 0.000000
0.808456 0.000000 0.000000
0.835726 0.055465 0.027745
0.851678 0.131898 0.078406
0.861822 0.188759 0.119973
0.869010 0.234289 0.155856
0.874478 0.272392 0.187547
0.878801 0.305542 0.216630
0.882550 0.335816 0.243694
0.885794 0.363558 0.269209
0.888531 0.388760 0.293277
0.890844 0.411656 0.315945
0.892887 0.432455 0.336640
0.894688 0.451999 0.356755
0.896288 0.469677 0.374969
0.004257 0.014633 0.037042
0.004257 0.014633 0.037042
0.004257 0.014633 0.037042
0.012266 0.004428 0.028282
0.021380 0.000000 0.024309
0.032241 0.000000 0.020914
0.051675 0.000000 0.017283
0.077572 0.000000 0.012674
0.113453 0.000000 0.006387
0.160277 0.000000 0.000000
0.220159 0.000000 0.000000
0.291236 0.000000 0.000000
0.371249 0.000000 0.000000
0.456015 0.000000 0.000000
0.539971 0.000000 0.000000
0.627522 0.000000 0.000000
0.706994 0.000000 0.000000
0.762094 0.000000 0.000000
0.787883 0.000000 0.000000
0.808456 0.000000 0.000000
0.835726 0.055465 0.027745
0.851678 0.131898 0.078406
0.861822 0.188759 0.119973
0.869010 0.234289 0.155856
0.874478 0.272392 0.187547
0.878801 0.305542 0.216630
0.882550 0.335816 0.243694
0.885794 0.363558 0.269209
0.888531 0.388760 0.293277
0.890844 0.411656 0.315945
0.892887 0.432455 0.336640
0.894688 0.451999 0.356755
0.896288 0.469677 0.374969
0.015414 0.039640 0.049376
0.015414 0.039640 0.049376
0.015414 0.039640 0.049376
0.035512 0.045908 0.048725
0.057719 0.051362 0.039959
0.075121 0.040668 0.029388
0.093713 0.020742 0.017583
0.115105 0.000213 0.006158
0.143596 0.000000 0.000000
0.186182 0.000000 0.000000
0.239647 0.000000 0.000000
0.305287 0.000000 0.000000
0.379715 0.000000 0.000000
0.459795 0.000000 0.000000
0.540854 0.000000 0.000000
0.626557 0.000000 0.000000
0.705213 0.000000 0.000000
0.759781 0.000000 0.000000
0.787322 0.000000 0.000000
0.805200 0.000000 0.000000
0.833226 0.043675 0.019349
0.849840 0.121683 0.070569
0.860370 0.179552 0.112406
0.867770 0.225572 0.148317
0.873371 0.263949 0.179957
0.877710 0.296664 0.208449
0.881471 0.326514 0.234938
0.884722 0.353841 0.259875
0.887534 0.378830 0.283277
0.889892 0.401733 0.305770
0.891967 0.422486 0.326266
0.893743 0.441366 0.345547
0.895321 0.458443 0.363007
0.029392 0.066571 0.065333
0.029392 0.066571 0.065333
0.029392 0.066571 0.065333
0.051890 0.072710 0.066959
0.075455 0.086615 0.067228
0.112129 0.102139 0.057018
0.141333 0.097800 0.043179
0.168778 0.072850 0.022925
0.194292 0.035491 0.004406
0.220559 0.000000 0.000000
0.265470 0.000000 0.000000
0.326035 0.000000 0.000000
0.395321 0.000000 0.000000
0.470520 0.000000 0.000000
0.547757 0.000000 0.000000
0.632238 0.000000 0.000000
0.708673 0.000000 0.000000
0.762288 0.000000 0.000000
0.788193 0.000000 0.000000
0.806426 0.000000 0.000000
0.833840 0.045420 0.019417
0.850238 0.122964 0.070632
0.860580 0.180085 0.112090
0.867790 0.225100 0.147343
0.873334 0.263150 0.178782
0.877638 0.295612 0.207096
0.881370 0.325242 0.233416
0.884599 0.352380 0.258187
0.887398 0.377176 0.281370
0.889739 0.399881 0.303671
0.891799 0.420458 0.324000
0.893568 0.439220 0.343152
0.895140 0.456190 0.360496
0.044715 0.096408 0.083422
0.044715 0.096408 0.083422
0.044715 0.096408 0.083422
0.073782 0.108139 0.087650
0.099959 0.126613 0.094149
0.133958 0.146391 0.093027
0.183729 0.167654 0.080870
0.220467 0.163844 0.063823
0.254017 0.135548 0.036464
0.284198 0.082429 0.005825
0.309576 0.008776 0.000000
0.351090 0.000000 0.000000
0.415169 0.000000 0.000000
0.485204 0.000000 0.000000
0.558325 0.000000 0.000000
0.641018 0.000000 0.000000
0.713423 0.000000 0.000000
0.765391 0.000000 0.000000
0.789382 0.000000 0.000000
0.808837 0.000000 0.000000
0.835347 0.051041 0.021874
0.851093 0.126521 0.072173
0.861130 0.182568 0.113180
0.868152 0.226830 0.148089
0.873577 0.264362 0.179270
0.877881 0.297008 0.207852
0.881576 0.326485 0.234118
0.884719 0.352997 0.258386
0.887468 0.377431 0.281284
0.889794 0.400026 0.303497
0.891841 0.420503 0.323743
0.893600 0.439166 0.342811
0.895162 0.456046 0.360077
0.068825 0.140625 0.110152
0.068825 0.140625 0.110152
0.068825 0.140625 0.110152
0.100437 0.158594 0.116170
0.129403 0.172964 0.123134
0.161893 0.196129 0.129643
0.213216 0.225324 0.126189
0.271004 0.248073 0.111660
0.316499 0.240869 0.087826
0.356966 0.207374 0.053345
0.393355 0.141914 0.009090
0.415827 0.040461 0.000000
0.444085 0.000000 0.000000
0.508339 0.000000 0.000000
0.574297 0.000000 0.000000
0.654753 0.000000 0.000000
0.721734 0.000000 0.000000
0.770123 0.000000 0.000000
0.791105 0.000000 0.000000
0.812164 0.000000 0.000000
0.837435 0.059281 0.025940
0.852443 0.132637 0.075417
0.862114 0.187587 0.116108
0.868916 0.231100 0.150760
0.874093 0.267392 0.181156
0.878306 0.299665 0.209579
0.881934 0.328860 0.235726
0.885034 0.355191 0.259915
0.887736 0.379450 0.282790
0.890029 0.401872 0.304918
0.892052 0.422220 0.325108
0.893821 0.441092 0.344430
0.895393 0.458162 0.361927
0.100555 0.197481 0.144779
0.100555 0.197481 0.144779
0.100555 0.197481 0.144779
0.131737 0.221236 0.152828
0.162547 0.231447 0.156849
0.194748 0.250916 0.165497
0.242863 0.282618 0.171489
0.307437 0.317726 0.165670
0.374004 0.341993 0.147662
0.428277 0.330716 0.116227
0.473838 0.282912 0.069910
0.512430 0.198962 0.013171
0.531696 0.072420 0.000000
0.541506 0.000000 0.000000
0.599956 0.000000 0.000000
0.676785 0.000000 0.000000
0.735132 0.000000 0.000000
0.777768 0.000000 0.000000
0.793514 0.000000 0.000000
0.817005 0.000000 0.000000
0.840510 0.071990 0.032658
0.854415 0.142008 0.080794
0.863436 0.194548 0.120367
0.869909 0.236819 0.154467
0.874882 0.272350 0.184537
0.878993 0.304209 0.212787
0.882560 0.333241 0.238965
0.885641 0.359735 0.263469
0.888272 0.383828 0.286445
0.890489 0.405757 0.308203
0.892448 0.425678 0.328067
0.894190 0.444425 0.347341
0.895736 0.461381 0.364794
0.140986 0.271165 0.190636
0.140986 0.271165 0.190636
0.140986 0.271165 0.190636
0.169263 0.295555 0.198244
0.199439 0.308789 0.201224
0.230836 0.319315 0.206652
0.275979 0.344793 0.216292
0.338184 0.385043 0.221832
0.415019 0.423913 0.212531
0.489470 0.449043 0.190703
0.550596 0.430112 0.149420
0.600121 0.365706 0.090309
0.639415 0.254504 0.016916
0.646598 0.095336 0.000000
0.645002 0.000000 0.000000
0.710779 0.000000 0.000000
0.757071 0.000000 0.000000
0.787604 0.000000 0.000000
0.797541 0.000000 0.000000
0.824449 0.000000 0.000000
0.844691 0.089628 0.041880
0.857079 0.154960 0.088308
0.865248 0.204340 0.126501
0.871305 0.245101 0.160026
0.876094 0.280205 0.190139
0.879990 0.311014 0.217747
0.883406 0.339317 0.243520
0.886406 0.365507 0.267948
0.888946 0.389355 0.291022
0.891111 0.411077 0.312720
0.893027 0.430812 0.332523
0.894732 0.449423 0.351770
0.896248 0.466255 0.369196
0.190411 0.360867 0.247235
0.190411 0.360867 0.247235
0.190411 0.360867 0.247235
0.213172 0.383576 0.254596
0.240850 0.399420 0.256235
0.270933 0.409173 0.257921
0.311325 0.421963 0.265059
0.370065 0.453136 0.275067
0.444877 0.498113 0.277569
0.531077 0.539645 0.266434
0.613032 0.562925 0.239321
0.680481 0.535127 0.187926
0.732670 0.452182 0.113508
0.766151 0.302429 0.017721
0.764354 0.082659 0.000000
0.755251 0.000000 0.000000
0.785616 0.000000 0.000000
0.801158 0.000000 0.000000
0.811652 0.000000 0.000000
0.834989 0.038098 0.000965
0.850308 0.114200 0.054761
0.860462 0.171926 0.098303
0.867579 0.217455 0.134930
0.873042 0.255841 0.167354
0.877527 0.289663 0.196900
0.881271 0.319908 0.224324
0.884562 0.347756 0.249971
0.887458 0.373609 0.274360
0.889898 0.397365 0.297800
0.892029 0.419201 0.319827
0.893911 0.438990 0.339873
0.895538 0.457126 0.358801
0.896985 0.473525 0.375934
0.249355 0.466563 0.313567
0.249355 0.466563 0.313567
0.249355 0.466563 0.313567
0.266580 0.486197 0.320760
0.288196 0.502821 0.323814
0.315936 0.516545 0.324524
0.353006 0.525907 0.325283
0.402362 0.536134 0.331185
0.472387 0.571697 0.342051
0.557896 0.620875 0.344090
0.653548 0.663657 0.329711
0.741791 0.683252 0.295156
0.801161 0.642871 0.232014
0.831655 0.536899 0.139125
0.852690 0.344277 0.010871
0.841785 0.100208 0.000000
0.827508 0.000000 0.000000
0.830293 0.000000 0.000000
0.838185 0.031499 0.000000
0.848895 0.095103 0.028775
0.857889 0.149610 0.074022
0.865000 0.195598 0.112407
0.870683 0.235280 0.146343
0.875399 0.270496 0.177261
0.879498 0.302704 0.206147
0.883107 0.332872 0.234042
0.886235 0.360257 0.259747
0.888881 0.385096 0.283859
0.891160 0.408151 0.307039
0.893189 0.429576 0.328948
0.894984 0.448999 0.348886
0.896549 0.466917 0.367810
0.897940 0.483118 0.384937
0.316672 0.587039 0.390052
0.316672 0.587039 0.390052
0.316672 0.587039 0.390052
0.327979 0.602692 0.397738
0.342874 0.617663 0.402791
0.363144 0.632200 0.405310
0.394398 0.646302 0.405576
0.439231 0.652802 0.403796
0.498593 0.658490 0.408732
0.579912 0.699283 0.419359
0.675611 0.750177 0.416777
0.778009 0.787609 0.396212
0.835842 0.796813 0.352107
0.869598 0.750541 0.274806
0.893365 0.615137 0.155878
0.902828 0.418860 0.029688
0.890988 0.246784 0.000000
0.873016 0.160690 0.000000
0.865177 0.151417 0.032052
0.864345 0.168172 0.067528
0.866984 0.196383 0.101146
0.870775 0.228010 0.132744
0.874790 0.260286 0.163167
0.878636 0.291601 0.192307
0.882146 0.320947 0.219689
0.885392 0.349426 0.246714
0.888241 0.375620 0.271959
0.890651 0.399913 0.296444
0.892792 0.422493 0.319581
0.894707 0.443532 0.341467
0.896405 0.462618 0.361389
0.897904 0.480408 0.380430
0.899238 0.496492 0.397661
0.388190 0.719666 0.479572
0.388190 0.719666 0.479572
0.388190 0.719666 0.479572
0.395054 0.730056 0.485031
0.404720 0.741872 0.490136
0.418204 0.754970 0.494381
0.440825 0.771196 0.497245
0.477137 0.783864 0.496023
0.528967 0.786573 0.491067
0.597966 0.786578 0.492512
0.689513 0.812781 0.499319
0.789766 0.841006 0.491591
0.851955 0.859498 0.463904
0.892464 0.862588 0.407590
0.914855 0.827225 0.313719
0.930343 0.705904 0.188288
0.927287 0.538782 0.111511
0.910093 0.391109 0.099340
0.892378 0.305595 0.110827
0.882409 0.269317 0.124859
0.879162 0.265828 0.142656
0.879130 0.277754 0.164161
0.880788 0.297949 0.188208
0.883191 0.321923 0.213546
0.885815 0.346959 0.238918
0.888439 0.372267 0.264292
0.890749 0.396245 0.289051
0.892897 0.419439 0.313241
0.894813 0.440861 0.335796
0.896530 0.460688 0.356874
0.898058 0.478716 0.376099
0.899452 0.496027 0.394983
0.900692 0.511674 0.412068
0.462909 0.828858 0.574424
0.462909 0.828858 0.574424
0.462909 0.828858 0.574424
0.466741 0.832386 0.578138
0.472720 0.837107 0.582792
0.481291 0.842566 0.587522
0.496656 0.850274 0.593199
0.521358 0.858675 0.596226
0.560936 0.864958 0.592508
0.619478 0.864110 0.581399
0.698312 0.861042 0.577696
0.793817 0.877943 0.581030
0.856914 0.896513 0.567996
0.901632 0.907478 0.530709
0.929240 0.905942 0.457662
0.945690 0.876996 0.352529
0.948522 0.806457 0.261674
0.938575 0.659001 0.226009
0.921472 0.527342 0.221139
0.906997 0.436190 0.214685
0.897221 0.383577 0.211529
0.892100 0.363042 0.218136
0.890335 0.362531 0.231454
0.890383 0.372389 0.248721
0.891281 0.387706 0.269005
0.892839 0.407604 0.292115
0.894379 0.427045 0.314334
0.895965 0.446651 0.336246
0.897483 0.465673 0.357445
0.898945 0.484227 0.378055
0.900251 0.501084 0.396816
0.901468 0.517223 0.414931
0.902552 0.531806 0.431316
0.538632 0.891597 0.672526
0.538632 0.891597 0.672526
0.538632 0.891597 0.672526
0.540847 0.892974 0.674899
0.544550 0.895111 0.678561
0.550309 0.898129 0.683685
0.559469 0.901850 0.689211
0.575731 0.906704 0.694644
0.602607 0.911993 0.696070
0.645972 0.915771 0.688880
0.711678 0.913923 0.672094
0.793998 0.909889 0.663475
0.855383 0.920385 0.662350
0.901998 0.931800 0.639743
0.933970 0.937975 0.589930
0.953195 0.935527 0.506310
0.961402 0.915551 0.416752
0.958184 0.867061 0.361364
0.945679 0.783552 0.346993
0.931339 0.660313 0.337082
0.919394 0.569714 0.323866
0.910561 0.509597 0.312261
0.904669 0.474168 0.306991
0.901186 0.457661 0.309715
0.899455 0.454383 0.319235
0.899418 0.463520 0.336099
0.899712 0.474368 0.353090
0.900436 0.487798 0.370872
0.901296 0.502090 0.388925
0.902285 0.517267 0.407316
0.903183 0.531159 0.424132
0.904155 0.545685 0.441294
0.905023 0.558806 0.456811
0.611948 0.929299 0.762240
0.611948 0.929299 0.762240
0.611948 0.929299 0.762240
0.613239 0.929911 0.764061
0.615891 0.931004 0.767109
0.619310 0.932299 0.770605
0.625458 0.934217 0.775453
0.636081 0.936839 0.780886
0.653953 0.940128 0.784357
0.682879 0.943481 0.784011
0.733878 0.945825 0.774998
0.803302 0.945488 0.760790
0.858236 0.943387 0.752517
0.902565 0.950006 0.746612
0.934064 0.955782 0.711125
0.953443 0.956795 0.644748
0.966739 0.953948 0.557017
0.969815 0.939735 0.487503
0.963464 0.905679 0.463160
0.951594 0.849496 0.454449
0.939430 0.781924 0.443541
0.929399 0.696366 0.429677
0.921665 0.634799 0.415997
0.915859 0.592097 0.405635
0.911571 0.563232 0.399512
0.909236 0.551735 0.402454
0.907621 0.546374 0.408773
0.906936 0.548666 0.419659
0.906704 0.554418 0.432374
0.906905 0.563467 0.446869
0.907117 0.571983 0.460262
0.907697 0.583541 0.475545
0.908216 0.593972 0.489356
0.690015 0.952833 0.817761
0.690015 0.952833 0.817761
0.690015 0.952833 0.817761
0.690629 0.953086 0.818501
0.693219 0.953771 0.820175
0.697057 0.954716 0.822430
0.703665 0.956211 0.825968
0.712922 0.958092 0.830274
0.727940 0.960609 0.835482
0.750213 0.963267 0.839382
0.783684 0.965897 0.840027
0.820457 0.967430 0.834224
0.862718 0.965005 0.820734
0.902180 0.963086 0.812858
0.933903 0.967200 0.803763
0.954251 0.970215 0.774722
0.966514 0.970329 0.710792
0.974758 0.967016 0.620611
0.973789 0.953592 0.561895
0.967307 0.929297 0.548848
0.956757 0.891435 0.546272
0.946065 0.846004 0.538014
0.937253 0.799902 0.525887
0.930293 0.748863 0.513769
0.924824 0.703452 0.502629
0.921065 0.674062 0.495235
0.917996 0.652203 0.491270
0.915869 0.639158 0.491337
0.914362 0.631988 0.494712
0.913472 0.630314 0.501171
0.912710 0.629378 0.507503
0.912616 0.634866 0.518488
0.912528 0.639810 0.528411
0.781000 0.969715 0.859083
0.781000 0.969715 0.859083
0.781000 0.969715 0.859083
0.780755 0.969734 0.859276
0.782233 0.970106 0.860415
0.784172 0.970576 0.861833
0.786697 0.971191 0.863718
0.790425 0.972057 0.866337
0.795807 0.973189 0.869625
0.803992 0.974611 0.873277
0.815780 0.976007 0.875403
0.835557 0.977321 0.873605
0.864676 0.977240 0.864773
0.899913 0.973324 0.849347
0.930763 0.972895 0.842132
0.952317 0.975780 0.830181
0.965741 0.977573 0.805130
0.975164 0.977889 0.756327
0.979155 0.974922 0.689043
0.977007 0.964804 0.646843
0.970137 0.944543 0.625373
0.960983 0.917963 0.625484
0.951408 0.886388 0.622242
0.943277 0.853833 0.613565
0.936804 0.823090 0.603400
0.932329 0.798524 0.593249
0.928479 0.774574 0.585431
0.925548 0.750511 0.579667
0.923192 0.732579 0.576450
0.921437 0.720375 0.575481
0.919863 0.709955 0.575095
0.919030 0.706976 0.579257
0.918265 0.704282 0.583031
0.822530 0.978107 0.884022
0.822530 0.978107 0.884022
0.822530 0.978107 0.884022
0.822319 0.978111 0.884123
0.822913 0.978264 0.884716
0.823810 0.978483 0.885540
0.825388 0.978851 0.886899
0.827240 0.979309 0.888648
0.829765 0.979907 0.890905
0.833496 0.980677 0.893650
0.838989 0.981443 0.895698
0.849202 0.982208 0.896013
0.869217 0.982248 0.891184
0.898407 0.979556 0.879026
0.926827 0.975317 0.868398
0.947586 0.976764 0.862029
0.962142 0.979316 0.847967
0.971805 0.980875 0.825130
0.978765 0.980951 0.791791
0.980637 0.978125 0.751366
0.978227 0.970567 0.726433
0.972738 0.957470 0.713810
0.964858 0.937791 0.703249
0.955989 0.912907 0.693609
0.948478 0.889478 0.689675
0.943034 0.869290 0.681820
0.938371 0.849914 0.674497
0.934854 0.833751 0.667791
0.931949 0.819730 0.662637
0.929716 0.808487 0.658619
0.927669 0.798030 0.655412
0.926340 0.791747 0.655104
0.925112 0.785904 0.654886
0.848899 0.982118 0.899564
0.848899 0.982118 0.899564
0.848899 0.982118 0.899564
0.848670 0.982116 0.899597
0.849129 0.982205 0.900031
0.849842 0.982315 0.900615
0.850820 0.982479 0.901455
0.851957 0.982693 0.902582
0.853410 0.982994 0.904124
0.855416 0.983394 0.906110
0.858288 0.983792 0.907981
0.864086 0.984037 0.908709
0.879062 0.983429 0.905763
0.902102 0.980758 0.897927
0.923896 0.975516 0.889616
0.940374 0.974388 0.886154
0.954574 0.976845 0.879323
0.966128 0.979800 0.864875
0.974640 0.981636 0.843563
0.979833 0.981689 0.818693
0.980640 0.979083 0.799495
0.978299 0.973199 0.789712
0.973759 0.963900 0.785244
0.967793 0.951339 0.781415
0.960809 0.935388 0.775387
0.954232 0.918168 0.764466
0.948009 0.899463 0.753068
0.943431 0.884271 0.745862
0.939940 0.871726 0.740921
0.937300 0.861350 0.736141
0.934856 0.851391 0.732300
0.933228 0.844603 0.730048
0.931712 0.838181 0.728146
0.872190 0.982934 0.908381
0.872190 0.982934 0.908381
0.872190 0.982934 0.908381
0.871831 0.982949 0.908397
0.872221 0.982953 0.908608
0.872996 0.982963 0.908958
0.874071 0.982949 0.909416
0.875596 0.982936 0.910109
0.877186 0.982942 0.911005
0.879190 0.982936 0.912140
0.882145 0.982868 0.913358
0.886572 0.982578 0.913830
0.896055 0.981374 0.912299
0.909525 0.978690 0.908366
0.923407 0.974121 0.904045
0.934781 0.971263 0.902168
0.945978 0.972167 0.899676
0.957255 0.975361 0.892834
0.967063 0.978629 0.879650
0.975534 0.980975 0.860813
0.979225 0.980916 0.843419
0.979391 0.978466 0.832353
0.977186 0.973658 0.827367
0.973439 0.966690 0.825211
0.968700 0.957825 0.823641
0.963738 0.948147 0.821034
0.958643 0.937249 0.817686
0.953913 0.926096 0.813281
0.949696 0.915078 0.808561
0.946133 0.904735 0.803635
0.942758 0.894219 0.799226
0.940443 0.886407 0.795768
0.938252 0.878692 0.792691
0.893833 0.981063 0.912658
0.893833 0.981063 0.912658
0.893833 0.981063 0.912658
0.893522 0.981113 0.912683
0.894014 0.981026 0.912837
0.894596 0.980952 0.913045
0.895463 0.980821 0.913338
0.896660 0.980644 0.913773
0.897992 0.980434 0.914355
0.899809 0.980103 0.915120
0.902068 0.979658 0.915949
0.904718 0.979053 0.916481
0.909339 0.977834 0.916282
0.916459 0.975522 0.915043
0.924823 0.972045 0.913828
0.932278 0.968828 0.913277
0.939776 0.967796 0.912462
0.948488 0.969666 0.909704
0.958209 0.973365 0.902708
0.968319 0.977227 0.890862
0.974530 0.979103 0.877341
0.977099 0.978813 0.866216
0.977022 0.976626 0.859269
0.975197 0.972788 0.855850
0.972142 0.967403 0.854447
0.968464 0.961167 0.853209
0.964668 0.954351 0.851535
0.960920 0.947330 0.849493
0.957356 0.940177 0.847157
0.954122 0.933248 0.844597
0.951038 0.926238 0.842150
0.948695 0.920436 0.839586
0.946483 0.914693 0.837235
0.908480 0.977897 0.915978
0.908480 0.977897 0.915978
0.908480 0.977897 0.915978
0.908260 0.977964 0.915978
0.908633 0.977846 0.916116
0.909055 0.977713 0.916285
0.909728 0.977501 0.916566
0.910514 0.977227 0.916921
0.911450 0.976902 0.917407
0.912739 0.976427 0.918062
0.914258 0.975816 0.918819
0.915824 0.975119 0.919599
0.918108 0.974130 0.920110
0.921975 0.972390 0.920325
0.926885 0.969847 0.920635
0.931789 0.967019 0.921067
0.936664 0.964966 0.921050
0.942398 0.964887 0.920080
0.949981 0.967446 0.916798
0.960001 0.971730 0.910142
0.967643 0.974958 0.901155
0.972245 0.976391 0.891936
0.974169 0.976042 0.884584
0.974120 0.974235 0.879734
0.972686 0.971168 0.877074
0.970137 0.966970 0.875772
0.967413 0.962390 0.874397
0.964527 0.957545 0.873043
0.961746 0.952691 0.871573
0.959133 0.948001 0.870064
0.956568 0.943181 0.868616
0.954417 0.938946 0.867078
0.952341 0.934715 0.865675
0.917756 0.974384 0.919402
0.917756 0.974384 0.919402
0.917756 0.974384 0.919402
0.917635 0.974434 0.919395
0.917809 0.974345 0.919511
0.918095 0.974200 0.919689
0.918587 0.973951 0.919974
0.919159 0.973650 0.920348
0.919831 0.973282 0.920838
0.920618 0.972832 0.921454
0.921597 0.972254 0.922229
0.922622 0.971609 0.923153
0.923891 0.970848 0.923903
0.926058 0.969563 0.924686
0.928925 0.967741 0.925587
0.932126 0.965521 0.926555
0.935412 0.963333 0.927065
0.939057 0.961930 0.926918
0.944753 0.962677 0.925411
0.952553 0.965964 0.921960
0.960111 0.969680 0.916504
0.965866 0.972299 0.910014
0.969407 0.973418 0.903683
0.970992 0.973135 0.898523
0.971070 0.971699 0.894889
0.969661 0.969008 0.892990
0.968008 0.966037 0.891253
0.965977 0.962652 0.889818
0.963897 0.959193 0.888519
0.961789 0.955733 0.887400
0.959740 0.952240 0.886300
0.957961 0.949210 0.885331
0.956250 0.946204 0.884418
0.923675 0.971123 0.922962
0.923675 0.971123 0.922962
0.923675 0.971123 0.922962
0.923668 0.971122 0.922991
0.923800 0.971035 0.923110
0.923996 0.970903 0.923293
0.924276 0.970714 0.923552
0.924646 0.970460 0.923906
0.925199 0.970070 0.924450
0.925762 0.969658 0.925042
0.926348 0.969198 0.925768
0.926995 0.968672 0.926599
0.927739 0.968094 0.927336
0.929010 0.967134 0.928285
0.930713 0.965818 0.929356
0.932744 0.964167 0.930516
0.935017 0.962303 0.931377
0.937562 0.960486 0.931605
0.941802 0.959507 0.930932
0.947027 0.961085 0.929315
0.953103 0.964162 0.926245
0.958988 0.967336 0.922109
0.963455 0.969485 0.917554
0.966251 0.970373 0.913192
0.967744 0.970266 0.909334
0.967668 0.968923 0.906588
0.967131 0.967243 0.904263
0.965966 0.965024 0.902574
0.964607 0.962639 0.901164
0.963045 0.960081 0.900063
0.961526 0.957521 0.898993
0.960002 0.955111 0.898141
0.958547 0.952742 0.897322
0.927088 0.968661 0.926387
0.927088 0.968661 0.926387
0.927088 0.968661 0.926387
0.927035 0.968698 0.926352
0.927133 0.968621 0.926459
0.927329 0.968465 0.926681
0.927538 0.968297 0.926916
0.927810 0.968075 0.927227
0.928185 0.967763 0.927667
0.928606 0.967402 0.928185
0.929021 0.967016 0.928806
0.929490 0.966573 0.929503
0.929978 0.966123 0.930113
0.930762 0.965434 0.930871
0.931933 0.964412 0.931830
0.933364 0.963127 0.932899
0.935020 0.961650 0.933768
0.937592 0.959573 0.934008
0.940618 0.958102 0.933743
0.944243 0.958447 0.932953
0.948731 0.960410 0.931289
0.953618 0.963054 0.928700
0.957965 0.965368 0.925631
0.961229 0.966861 0.922468
0.963457 0.967556 0.919358
0.964295 0.967108 0.916741
0.964617 0.966309 0.914410
0.964306 0.965015 0.912470
0.963683 0.963514 0.910843
0.962745 0.961775 0.909555
0.961817 0.960040 0.908343
0.960637 0.958169 0.907530
0.959519 0.956347 0.906750
0.929631 0.966544 0.929226
0.929631 0.966544 0.929226
0.929631 0.966544 0.929226
0.929560 0.966604 0.929158
0.929631 0.966539 0.929250
0.929799 0.966385 0.929463
0.929957 0.966238 0.929673
0.930166 0.966041 0.929956
0.930416 0.965798 0.930311
0.930711 0.965507 0.930735
0.930991 0.965204 0.931232
0.931316 0.964851 0.931791
0.931627 0.964508 0.932291
0.932085 0.964034 0.932886
0.932859 0.963271 0.933705
0.933841 0.962305 0.934642
