luts/P4P_06_Bleach_size65.cube
# POCKET 4P D-Log2 LUT pack v1.0 - Bleach
# Bleach bypass. High contrast, most of the colour pulled out.
# Input:  DJI Osmo Pocket 4P D-Log2 / D-Gamut2, full range
# Output: Rec.709 / gamma 2.4 display
# Built on DJI's official D-Log2 to Rec.709 colorimetry with a
# scene-linear highlight shoulder so nothing clips at +7 stops.
TITLE "POCKET 4P Bleach v1.0"
LUT_3D_SIZE 65
DOMAIN_MIN 0.0 0.0 0.0
DOMAIN_MAX 1.0 1.0 1.0
0.000000 0.000243 0.008218
0.000000 0.000243 0.008218
0.000000 0.000243 0.008218
0.000000 0.000243 0.008218
0.000000 0.000243 0.008218
0.000000 0.000000 0.006902
0.002449 0.000000 0.007682
0.005384 0.000000 0.008392
0.008476 0.000292 0.009184
0.011668 0.000760 0.010019
0.015805 0.001496 0.011156
0.021449 0.002536 0.012715
0.028437 0.003908 0.014644
0.038271 0.005936 0.017333
0.050113 0.008390 0.020549
0.064765 0.011566 0.024571
0.082001 0.015360 0.029284
0.101598 0.019720 0.034579
0.125036 0.024992 0.040880
0.151548 0.031003 0.047927
0.182006 0.038021 0.055945
0.216262 0.046029 0.065026
0.253295 0.054801 0.074847
0.294308 0.064688 0.085861
0.337509 0.075230 0.097552
0.383094 0.086430 0.110023
0.430536 0.098015 0.123109
0.478084 0.109299 0.136192
0.526323 0.120223 0.149414
0.572599 0.130175 0.161979
0.629406 0.142235 0.176615
0.681609 0.153569 0.190596
0.724732 0.163987 0.203222
0.755193 0.174564 0.215439
0.778432 0.186855 0.228324
0.795795 0.204975 0.244564
0.810798 0.229898 0.264194
0.825358 0.265837 0.289299
0.836319 0.302209 0.314793
0.845940 0.337577 0.339670
0.853270 0.367435 0.361768
0.859971 0.395795 0.383149
0.865349 0.419268 0.401837
0.870324 0.441788 0.419811
0.874449 0.461027 0.435982
0.878309 0.479596 0.451568
0.881719 0.496445 0.466123
0.884830 0.512226 0.479931
0.887743 0.527385 0.493185
0.890418 0.541682 0.506023
0.892922 0.555383 0.518331
0.895268 0.568510 0.530120
0.897546 0.581473 0.541953
0.899701 0.593989 0.553426
0.901720 0.605961 0.564401
0.903613 0.617408 0.574894
0.905436 0.628603 0.585336
0.907148 0.639312 0.595334
0.908754 0.649538 0.604882
0.910262 0.659301 0.613998
0.911692 0.668712 0.622813
0.913109 0.678174 0.631814
0.914439 0.687201 0.640402
0.915689 0.695810 0.648594
0.916864 0.704018 0.656404
0.000000 0.000243 0.008218
0.000000 0.000243 0.008218
0.000000 0.000243 0.008218
0.000000 0.000243 0.008218
0.000000 0.000243 0.008218
0.000000 0.000000 0.006902
0.002449 0.000000 0.007682
0.005384 0.000000 0.008392
0.008476 0.000292 0.009184
0.011668 0.000760 0.010019
0.015805 0.001496 0.011156
0.021449 0.002536 0.012715
0.028437 0.003908 0.014644
0.038271 0.005936 0.017333
0.050113 0.008390 0.020549
0.064765 0.011566 0.024571
0.082001 0.015360 0.029284
0.101598 0.019720 0.034579
0.125036 0.024992 0.040880
0.151548 0.031003 0.047927
0.182006 0.038021 0.055945
0.216262 0.046029 0.065026
0.253295 0.054801 0.074847
0.294308 0.064688 0.085861
0.337509 0.075230 0.097552
0.383094 0.086430 0.110023
0.430536 0.098015 0.123109
0.478084 0.109299 0.136192
0.526323 0.120223 0.149414
0.572599 0.130175 0.161979
0.629406 0.142235 0.176615
0.681609 0.153569 0.190596
0.724732 0.163987 0.203222
0.755193 0.174564 0.215439
0.778432 0.186855 0.228324
0.795795 0.204975 0.244564
0.810798 0.229898 0.264194
0.825358 0.265837 0.289299
0.836319 0.302209 0.314793
0.845940 0.337577 0.339670
0.853270 0.367435 0.361768
0.859971 0.395795 0.383149
0.865349 0.419268 0.401837
0.870324 0.441788 0.419811
0.874449 0.461027 0.435982
0.878309 0.479596 0.451568
0.881719 0.496445 0.466123
0.884830 0.512226 0.479931
0.887743 0.527385 0.493185
0.890418 0.541682 0.506023
0.892922 0.555383 0.518331
0.895268 0.568510 0.530120
0.897546 0.581473 0.541953
0.899701 0.593989 0.553426
0.901720 0.605961 0.564401
0.903613 0.617408 0.574894
0.905436 0.628603 0.585336
0.907148 0.639312 0.595334
0.908754 0.649538 0.604882
0.910262 0.659301 0.613998
0.911692 0.668712 0.622813
0.913109 0.678174 0.631814
0.914439 0.687201 0.640402
0.915689 0.695810 0.648594
0.916864 0.704018 0.656404
0.000000 0.000243 0.008218
0.000000 0.000243 0.008218
0.000000 0.000243 0.008218
0.000000 0.000243 0.008218
0.000000 0.000243 0.008218
0.000000 0.000000 0.006902
0.002449 0.000000 0.007682
0.005384 0.000000 0.008392
0.008476 0.000292 0.009184
0.011668 0.000760 0.010019
0.015805 0.001496 0.011156
0.021449 0.002536 0.012715
0.028437 0.003908 0.014644
0.038271 0.005936 0.017333
0.050113 0.008390 0.020549
0.064765 0.011566 0.024571
0.082001 0.015360 0.029284
0.101598 0.019720 0.034579
0.125036 0.024992 0.040880
0.151548 0.031003 0.047927
0.182006 0.038021 0.055945
0.216262 0.046029 0.065026
0.253295 0.054801 0.074847
0.294308 0.064688 0.085861
0.337509 0.075230 0.097552
0.383094 0.086430 0.110023
0.430536 0.098015 0.123109
0.478084 0.109299 0.136192
0.526323 0.120223 0.149414
0.572599 0.130175 0.161979
0.629406 0.142235 0.176615
0.681609 0.153569 0.190596
0.724732 0.163987 0.203222
0.755193 0.174564 0.215439
0.778432 0.186855 0.228324
0.795795 0.204975 0.244564
0.810798 0.229898 0.264194
0.825358 0.265837 0.289299
0.836319 0.302209 0.314793
0.845940 0.337577 0.339670
0.853270 0.367435 0.361768
0.859971 0.395795 0.383149
0.865349 0.419268 0.401837
0.870324 0.441788 0.419811
0.874449 0.461027 0.435982
0.878309 0.479596 0.451568
0.881719 0.496445 0.466123
0.884830 0.512226 0.479931
0.887743 0.527385 0.493185
0.890418 0.541682 0.506023
0.892922 0.555383 0.518331
0.895268 0.568510 0.530120
0.897546 0.581473 0.541953
0.899701 0.593989 0.553426
0.901720 0.605961 0.564401
0.903613 0.617408 0.574894
0.905436 0.628603 0.585336
0.907148 0.639312 0.595334
0.908754 0.649538 0.604882
0.910262 0.659301 0.613998
0.911692 0.668712 0.622813
0.913109 0.678174 0.631814
0.914439 0.687201 0.640402
0.915689 0.695810 0.648594
0.916864 0.704018 0.656404
0.000000 0.000243 0.008218
0.000000 0.000243 0.008218
0.000000 0.000243 0.008218
0.000000 0.000243 0.008218
0.000000 0.000243 0.008218
0.000000 0.000000 0.006902
0.002449 0.000000 0.007682
0.005384 0.000000 0.008392
0.008476 0.000292 0.009184
0.011668 0.000760 0.010019
0.015805 0.001496 0.011156
0.021449 0.002536 0.012715
0.028437 0.003908 0.014644
0.038271 0.005936 0.017333
0.050113 0.008390 0.020549
0.064765 0.011566 0.024571
0.082001 0.015360 0.029284
0.101598 0.019720 0.034579
0.125036 0.024992 0.040880
0.151548 0.031003 0.047927
0.182006 0.038021 0.055945
0.216262 0.046029 0.065026
0.253295 0.054801 0.074847
0.294308 0.064688 0.085861
0.337509 0.075230 0.097552
0.383094 0.086430 0.110023
0.430536 0.098015 0.123109
0.478084 0.109299 0.136192
0.526323 0.120223 0.149414
0.572599 0.130175 0.161979
0.629406 0.142235 0.176615
0.681609 0.153569 0.190596
0.724732 0.163987 0.203222
0.755193 0.174564 0.215439
0.778432 0.186855 0.228324
0.795795 0.204975 0.244564
0.810798 0.229898 0.264194
0.825358 0.265837 0.289299
0.836319 0.302209 0.314793
0.845940 0.337577 0.339670
0.853270 0.367435 0.361768
0.859971 0.395795 0.383149
0.865349 0.419268 0.401837
0.870324 0.441788 0.419811
0.874449 0.461027 0.435982
0.878309 0.479596 0.451568
0.881719 0.496445 0.466123
0.884830 0.512226 0.479931
0.887743 0.527385 0.493185
0.890418 0.541682 0.506023
0.892922 0.555383 0.518331
0.895268 0.568510 0.530120
0.897546 0.581473 0.541953
0.899701 0.593989 0.553426
0.901720 0.605961 0.564401
0.903613 0.617408 0.574894
0.905436 0.628603 0.585336
0.907148 0.639312 0.595334
0.908754 0.649538 0.604882
0.910262 0.659301 0.613998
0.911692 0.668712 0.622813
0.913109 0.678174 0.631814
0.914439 0.687201 0.640402
0.915689 0.695810 0.648594
0.916864 0.704018 0.656404
0.000000 0.000243 0.008218
0.000000 0.000243 0.008218
0.000000 0.000243 0.008218
0.000000 0.000243 0.008218
0.000000 0.000243 0.008218
0.000000 0.000000 0.006902
0.002449 0.000000 0.007682
0.005384 0.000000 0.008392
0.008476 0.000292 0.009184
0.011668 0.000760 0.010019
0.015805 0.001496 0.011156
0.021449 0.002536 0.012715
0.028437 0.003908 0.014644
0.038271 0.005936 0.017333
0.050113 0.008390 0.020549
0.064765 0.011566 0.024571
0.082001 0.015360 0.029284
0.101598 0.019720 0.034579
0.125036 0.024992 0.040880
0.151548 0.031003 0.047927
0.182006 0.038021 0.055945
0.216262 0.046029 0.065026
0.253295 0.054801 0.074847
0.294308 0.064688 0.085861
0.337509 0.075230 0.097552
0.383094 0.086430 0.110023
0.430536 0.098015 0.123109
0.478084 0.109299 0.136192
0.526323 0.120223 0.149414
0.572599 0.130175 0.161979
0.629406 0.142235 0.176615
0.681609 0.153569 0.190596
0.724732 0.163987 0.203222
0.755193 0.174564 0.215439
0.778432 0.186855 0.228324
0.795795 0.204975 0.244564
0.810798 0.229898 0.264194
0.825358 0.265837 0.289299
0.836319 0.302209 0.314793
0.845940 0.337577 0.339670
0.853270 0.367435 0.361768
0.859971 0.395795 0.383149
0.865349 0.419268 0.401837
0.870324 0.441788 0.419811
0.874449 0.461027 0.435982
0.878309 0.479596 0.451568
0.881719 0.496445 0.466123
0.884830 0.512226 0.479931
0.887743 0.527385 0.493185
0.890418 0.541682 0.506023
0.892922 0.555383 0.518331
0.895268 0.568510 0.530120
0.897546 0.581473 0.541953
0.899701 0.593989 0.553426
0.901720 0.605961 0.564401
0.903613 0.617408 0.574894
0.905436 0.628603 0.585336
0.907148 0.639312 0.595334
0.908754 0.649538 0.604882
0.910262 0.659301 0.613998
0.911692 0.668712 0.622813
0.913109 0.678174 0.631814
0.914439 0.687201 0.640402
0.915689 0.695810 0.648594
0.916864 0.704018 0.656404
0.000000 0.002539 0.008782
0.000000 0.002539 0.008782
0.000000 0.002539 0.008782
0.000000 0.002539 0.008782
0.000000 0.002539 0.008782
0.001643 0.003902 0.009332
0.006011 0.004848 0.009839
0.009795 0.005357 0.010609
0.013136 0.005643 0.011281
0.017645 0.006076 0.012204
0.022704 0.006781 0.013317
0.029460 0.007682 0.014793
0.038037 0.009076 0.016861
0.048359 0.010815 0.019336
0.060604 0.012886 0.022348
0.074995 0.015571 0.026050
0.091223 0.018736 0.030254
0.110756 0.022740 0.035386
0.132906 0.027403 0.041220
0.158798 0.033016 0.048084
0.188357 0.039626 0.055965
0.220709 0.047038 0.064513
0.257329 0.055621 0.074313
0.297141 0.065151 0.085079
0.338889 0.075310 0.096464
0.383753 0.086339 0.108868
0.429400 0.097529 0.121553
0.476966 0.108912 0.134808
0.524543 0.119797 0.147968
0.569631 0.129584 0.160305
0.625716 0.141556 0.174904
0.677557 0.152825 0.188800
0.721238 0.163207 0.201431
0.752426 0.173681 0.213643
0.776025 0.185544 0.226288
0.793296 0.202256 0.241594
0.808170 0.225097 0.260079
0.822873 0.259281 0.284321
0.834263 0.295491 0.309716
0.844221 0.330795 0.334519
0.851601 0.360533 0.356407
0.858343 0.388858 0.377599
0.863946 0.413077 0.396764
0.869118 0.436276 0.415162
0.873268 0.455464 0.431217
0.877153 0.473989 0.446693
0.880582 0.490784 0.461140
0.883712 0.506512 0.474844
0.886642 0.521620 0.487999
0.889348 0.535944 0.500824
0.891882 0.549674 0.513123
0.894257 0.562831 0.524905
0.896504 0.575506 0.536441
0.898617 0.587658 0.547550
0.900597 0.599281 0.558175
0.902455 0.610393 0.568332
0.904295 0.621565 0.578722
0.906026 0.632268 0.588684
0.907650 0.642489 0.598198
0.909175 0.652248 0.607282
0.910618 0.661629 0.616042
0.912026 0.670925 0.624861
0.913349 0.679792 0.633274
0.914592 0.688249 0.641299
0.915761 0.696312 0.648951
0.000118 0.007230 0.011495
0.000118 0.007230 0.011495
0.000118 0.007230 0.011495
0.000118 0.007230 0.011495
0.000118 0.007230 0.011495
0.003919 0.009801 0.011994
0.008967 0.011523 0.013225
0.013722 0.012668 0.013870
0.018512 0.014045 0.014457
0.023920 0.014809 0.015538
0.030111 0.015318 0.016694
0.038505 0.016041 0.018354
0.048628 0.017008 0.020363
0.059656 0.018540 0.022736
0.072474 0.020230 0.025512
0.086385 0.022015 0.028594
0.102957 0.024619 0.032548
0.121651 0.027746 0.037085
0.143773 0.031791 0.042649
0.169133 0.036738 0.049188
0.197129 0.042512 0.056543
0.229295 0.049546 0.065141
0.264828 0.057609 0.074660
0.302754 0.066485 0.084979
0.344309 0.076477 0.096480
0.387363 0.086991 0.108506
0.433046 0.098184 0.121396
0.479867 0.109421 0.134602
0.526008 0.120035 0.147497
0.571205 0.129920 0.159998
0.627113 0.141917 0.174604
0.678511 0.153131 0.188347
0.721862 0.163511 0.201110
0.752668 0.173905 0.213258
0.775765 0.185508 0.225663
0.793230 0.202327 0.241142
0.808160 0.225175 0.259689
0.822748 0.259082 0.283780
0.833989 0.294610 0.308730
0.843838 0.329314 0.333150
0.851327 0.359426 0.355328
0.858119 0.387926 0.376644
0.863624 0.411678 0.395439
0.868719 0.434474 0.413519
0.872905 0.453773 0.429654
0.876823 0.472408 0.445209
0.880274 0.489268 0.459704
0.883420 0.505039 0.473443
0.886366 0.520192 0.486633
0.889021 0.534212 0.499179
0.891507 0.547639 0.511200
0.893837 0.560503 0.522714
0.896095 0.573191 0.534257
0.898232 0.585435 0.545446
0.900235 0.597148 0.556149
0.902114 0.608347 0.566381
0.903949 0.619458 0.576709
0.905675 0.630094 0.586605
0.907295 0.640253 0.596056
0.908815 0.649951 0.605080
0.910249 0.659247 0.613755
0.911631 0.668321 0.622354
0.912929 0.676977 0.630558
0.914149 0.685231 0.638381
0.915296 0.693100 0.645840
0.002320 0.012176 0.014420
0.002320 0.012176 0.014420
0.002320 0.012176 0.014420
0.002320 0.012176 0.014420
0.002320 0.012176 0.014420
0.006294 0.015476 0.014951
0.011280 0.018172 0.016269
0.016992 0.020061 0.017758
0.022152 0.021708 0.018492
0.029383 0.023994 0.019578
0.036678 0.025772 0.021003
0.045795 0.026998 0.022723
0.058046 0.028394 0.025060
0.070437 0.029150 0.027310
0.083491 0.029985 0.029743
0.098562 0.031407 0.032726
0.114971 0.033145 0.036072
0.133505 0.035207 0.039971
0.155197 0.038200 0.044933
0.179319 0.041965 0.050703
0.207350 0.046933 0.057771
0.238465 0.053045 0.065900
0.272685 0.060285 0.075063
0.310497 0.068748 0.085321
0.350271 0.078013 0.096371
0.393212 0.088319 0.108537
0.437926 0.099158 0.121336
0.483029 0.109941 0.134242
0.529267 0.120610 0.147381
0.573054 0.130240 0.159645
0.628999 0.142304 0.174357
0.680383 0.153572 0.188203
0.722902 0.163831 0.200843
0.753060 0.174124 0.212874
0.776306 0.185897 0.225487
0.793495 0.202577 0.240870
0.808242 0.225291 0.259335
0.822709 0.259013 0.283335
0.834050 0.294893 0.308582
0.843979 0.329900 0.333253
0.851322 0.359434 0.355037
0.858018 0.387521 0.376080
0.863575 0.411486 0.395066
0.868712 0.434460 0.413309
0.872873 0.453641 0.429362
0.876768 0.472160 0.444838
0.880167 0.488753 0.459111
0.883253 0.504205 0.472574
0.886143 0.519047 0.485496
0.888832 0.533215 0.498181
0.891351 0.546798 0.510347
0.893711 0.559813 0.522001
0.895965 0.572460 0.533508
0.898089 0.584614 0.544615
0.900080 0.596240 0.555238
0.901947 0.607356 0.565394
0.903756 0.618281 0.575549
0.905455 0.628734 0.585273
0.907051 0.638716 0.594560
0.908549 0.648246 0.603425
0.909969 0.657423 0.611989
0.911371 0.666603 0.620686
0.912687 0.675361 0.628982
0.913925 0.683713 0.636896
0.915089 0.691675 0.644441
0.004651 0.017252 0.017471
0.004651 0.017252 0.017471
0.004651 0.017252 0.017471
0.004651 0.017252 0.017471
0.004651 0.017252 0.017471
0.008496 0.020742 0.018013
0.013860 0.024406 0.019295
0.019832 0.027362 0.021100
0.026124 0.029718 0.022804
0.033690 0.032242 0.024113
0.043045 0.035772 0.025934
0.053268 0.038935 0.028237
0.065708 0.040660 0.030542
0.079240 0.041711 0.032827
0.093762 0.042679 0.035258
0.109030 0.043181 0.037698
0.126395 0.044120 0.040794
0.145587 0.045250 0.044397
0.166259 0.047017 0.048425
0.190725 0.049539 0.053553
0.217462 0.052828 0.059625
0.247919 0.057719 0.067151
0.281830 0.064057 0.076006
0.318009 0.071497 0.085763
0.357691 0.080286 0.096721
0.399700 0.090039 0.108693
0.442696 0.100235 0.121117
0.487820 0.110910 0.134233
0.532523 0.121178 0.147108
0.576170 0.130797 0.159524
0.632768 0.143047 0.174499
0.682877 0.154089 0.188138
0.724807 0.164374 0.200862
0.754727 0.174813 0.213093
0.777463 0.186685 0.225782
0.794251 0.203455 0.241220
0.808828 0.226522 0.259893
0.823244 0.260696 0.284177
0.834341 0.295927 0.309008
0.844070 0.330281 0.333272
0.851467 0.360052 0.355271
0.858199 0.388311 0.376484
0.863726 0.412165 0.395420
0.868827 0.434999 0.413584
0.872904 0.453802 0.429334
0.876722 0.471949 0.444513
0.880130 0.488581 0.458835
0.883256 0.504232 0.472483
0.886184 0.519267 0.485586
0.888826 0.533187 0.498052
0.891300 0.546519 0.509996
0.893620 0.559290 0.521436
0.895866 0.571886 0.532900
0.897990 0.584041 0.544009
0.899982 0.595668 0.554636
0.901851 0.606784 0.564795
0.903676 0.617799 0.575035
0.905391 0.628341 0.584846
0.907001 0.638410 0.594216
0.908513 0.648022 0.603161
0.909940 0.657237 0.611763
0.911316 0.666248 0.620299
0.912609 0.674842 0.628443
0.913825 0.683037 0.636209
0.914969 0.690850 0.643613
0.007057 0.022482 0.020695
0.007057 0.022482 0.020695
0.007057 0.022482 0.020695
0.007057 0.022482 0.020695
0.007057 0.022482 0.020695
0.011271 0.027368 0.021890
0.016931 0.031982 0.023039
0.023413 0.036258 0.025043
0.029973 0.039820 0.027501
0.038085 0.042696 0.029424
0.047860 0.046704 0.031483
0.061416 0.051306 0.034463
0.075206 0.055136 0.037613
0.088690 0.057532 0.040265
0.103309 0.058441 0.042519
0.119802 0.058829 0.044897
0.137528 0.058809 0.047346
0.156331 0.058537 0.049973
0.177992 0.058806 0.053404
0.202276 0.059915 0.057802
0.228747 0.061701 0.063052
0.258747 0.064863 0.069619
0.290982 0.069321 0.077378
0.327027 0.075559 0.086756
0.365700 0.083274 0.097279
0.405973 0.092033 0.108683
0.448877 0.101851 0.121198
0.492296 0.111891 0.133976
0.537026 0.122065 0.147081
0.580028 0.131502 0.159498
0.636272 0.143693 0.174469
0.685689 0.154637 0.188097
0.726588 0.164806 0.200751
0.755672 0.175130 0.212886
0.778029 0.186992 0.225594
0.794874 0.204167 0.241407
0.809407 0.227601 0.260322
0.823559 0.261627 0.284474
0.834707 0.297250 0.309631
0.844497 0.331992 0.334215
0.851790 0.361412 0.356005
0.858432 0.389325 0.377015
0.863867 0.412807 0.395687
0.868894 0.435326 0.413636
0.873011 0.454320 0.429575
0.876865 0.472656 0.444940
0.880241 0.489145 0.459158
0.883311 0.504526 0.472590
0.886187 0.519298 0.485483
0.888849 0.533328 0.498058
0.891343 0.546775 0.510116
0.893680 0.559658 0.521665
0.895924 0.572246 0.533128
0.898042 0.584361 0.544208
0.900028 0.595949 0.554806
0.901890 0.607028 0.564937
0.903683 0.617849 0.575000
0.905367 0.628197 0.584632
0.906948 0.638079 0.593831
0.908432 0.647511 0.602612
0.909841 0.656600 0.611098
0.911235 0.665715 0.619736
0.912544 0.674410 0.627976
0.913775 0.682701 0.635835
0.914933 0.690606 0.643329
0.010363 0.029472 0.024928
0.010363 0.029472 0.024928
0.010363 0.029472 0.024928
0.010363 0.029472 0.024928
0.010363 0.029472 0.024928
0.014802 0.035387 0.026546
0.020688 0.040999 0.027839
0.027858 0.047025 0.030287
0.034954 0.051970 0.032777
0.043392 0.055936 0.035602
0.054289 0.060467 0.038372
0.068835 0.066256 0.041836
0.085624 0.071869 0.045911
0.101247 0.076089 0.049482
0.116468 0.078689 0.052441
0.133090 0.079627 0.054917
0.150565 0.078900 0.056866
0.169968 0.077744 0.058961
0.190771 0.075774 0.061083
0.214380 0.074309 0.063958
0.240832 0.073751 0.067901
0.269850 0.074433 0.073130
0.302238 0.076908 0.080095
0.337101 0.081283 0.088460
0.374449 0.087461 0.098267
0.414545 0.095286 0.109351
0.455585 0.104018 0.121236
0.498852 0.113618 0.134073
0.542640 0.123319 0.147085
0.585715 0.132644 0.159601
0.641818 0.144761 0.174751
0.689443 0.155323 0.188084
0.729021 0.165345 0.200673
0.757626 0.175765 0.212999
0.779670 0.187896 0.225991
0.795844 0.205015 0.241717
0.810136 0.228902 0.260911
0.824415 0.264023 0.285788
0.835417 0.299651 0.311002
0.845052 0.334214 0.335523
0.852199 0.363131 0.357009
0.858746 0.390681 0.377826
0.864180 0.414205 0.396584
0.869194 0.436712 0.414571
0.873208 0.455263 0.430173
0.876967 0.473162 0.445207
0.880330 0.489604 0.459411
0.883417 0.505092 0.472955
0.886309 0.519968 0.485955
0.888970 0.533996 0.498541
0.891462 0.547439 0.510607
0.893797 0.560318 0.522164
0.896008 0.572729 0.533474
0.898087 0.584627 0.544364
0.900036 0.596006 0.554777
0.901865 0.606884 0.564731
0.903680 0.617842 0.574923
0.905388 0.628338 0.584695
0.906992 0.638363 0.594027
0.908497 0.647933 0.602937
0.909918 0.657107 0.611503
0.911289 0.666075 0.620004
0.912577 0.674630 0.628113
0.913788 0.682786 0.635846
0.914928 0.690562 0.643218
0.014774 0.038550 0.030412
0.014774 0.038550 0.030412
0.014774 0.038550 0.030412
0.014774 0.038550 0.030412
0.014774 0.038550 0.030412
0.019463 0.045663 0.032475
0.025702 0.052914 0.034326
0.033060 0.059581 0.036594
0.041494 0.067272 0.040092
0.050219 0.072751 0.043104
0.061306 0.078879 0.047017
0.077719 0.085081 0.051058
0.095151 0.091531 0.055399
0.113676 0.097918 0.060125
0.131750 0.102401 0.064144
0.149637 0.105060 0.067468
0.167629 0.106081 0.070136
0.186906 0.104435 0.071888
0.208142 0.101445 0.073401
0.231112 0.097779 0.074986
0.255728 0.093595 0.076837
0.284073 0.090742 0.080059
0.315473 0.089505 0.084890
0.349009 0.090567 0.091534
0.385636 0.094204 0.100308
0.423705 0.099882 0.110402
0.464489 0.107452 0.121832
0.506583 0.116020 0.134224
0.548417 0.124784 0.146744
0.593765 0.134354 0.159934
0.647181 0.145772 0.174619
0.693833 0.156137 0.187980
0.732125 0.166079 0.200546
0.759693 0.176476 0.213069
0.780881 0.188625 0.226113
0.796981 0.206417 0.242431
0.811237 0.231199 0.262212
0.825284 0.266723 0.287312
0.836043 0.301887 0.312259
0.845498 0.336007 0.336540
0.852682 0.365156 0.358269
0.859233 0.392782 0.379220
0.864515 0.415706 0.397552
0.869404 0.437690 0.415175
0.873448 0.456406 0.430950
0.877233 0.474466 0.446151
0.880581 0.490872 0.460347
0.883639 0.506247 0.473812
0.886502 0.521013 0.486736
0.889120 0.534828 0.499143
0.891572 0.548061 0.511032
0.893870 0.560737 0.522419
0.896095 0.573234 0.533819
0.898200 0.585292 0.544864
0.900174 0.596826 0.555428
0.902025 0.607852 0.565527
0.903819 0.618694 0.575619
0.905504 0.629066 0.585282
0.907087 0.638971 0.594510
0.908573 0.648427 0.603320
0.909980 0.657520 0.611817
0.911361 0.666557 0.620386
0.912658 0.675176 0.628561
0.913877 0.683396 0.636358
0.915024 0.691231 0.643791
0.020527 0.050347 0.037435
0.020527 0.050347 0.037435
0.020527 0.050347 0.037435
0.020527 0.050347 0.037435
0.020527 0.050347 0.037435
0.025954 0.059470 0.040410
0.032315 0.068124 0.042714
0.040044 0.076318 0.045090
0.048385 0.084424 0.048584
0.057738 0.091610 0.051946
0.069097 0.099015 0.056143
0.084695 0.105558 0.060642
0.104651 0.113489 0.065897
0.124644 0.120553 0.070962
0.145494 0.127319 0.076214
0.166493 0.132322 0.080841
0.186151 0.134546 0.084205
0.206757 0.135172 0.087032
0.228776 0.133641 0.089143
0.251352 0.129563 0.090337
0.276390 0.123708 0.091271
0.302984 0.116256 0.092015
0.331399 0.110010 0.093876
0.364063 0.106083 0.097838
0.398711 0.105401 0.104117
0.436498 0.108157 0.112948
0.475790 0.113202 0.123303
0.515694 0.119760 0.134652
0.557102 0.127471 0.146912
0.603837 0.136785 0.160372
0.655670 0.147578 0.174904
0.700648 0.157502 0.188145
0.736392 0.167075 0.200541
0.762475 0.177329 0.213088
0.783093 0.189756 0.226521
0.798524 0.207799 0.243040
0.812475 0.233311 0.263290
0.826405 0.269724 0.288981
0.837032 0.305216 0.314236
0.846361 0.339478 0.338700
0.853328 0.367879 0.359966
0.859740 0.394980 0.380629
0.865031 0.418019 0.399121
0.869921 0.440080 0.416869
0.873907 0.458594 0.432531
0.877640 0.476455 0.447620
0.880919 0.492574 0.461605
0.883907 0.507632 0.474825
0.886706 0.522088 0.487510
0.889338 0.536009 0.500036
0.891804 0.549355 0.512049
0.894116 0.562140 0.523555
0.896310 0.574490 0.534830
0.898374 0.586336 0.545689
0.900310 0.597665 0.556073
0.902126 0.608494 0.565998
0.903929 0.619399 0.576158
0.905625 0.629843 0.585898
0.907218 0.639817 0.595200
0.908713 0.649338 0.604080
0.910128 0.658492 0.612642
0.911514 0.667576 0.621260
0.912815 0.676241 0.629482
0.914039 0.684504 0.637324
0.915190 0.692381 0.644800
0.028462 0.066424 0.046823
0.028462 0.066424 0.046823
0.028462 0.066424 0.046823
0.028462 0.066424 0.046823
0.028462 0.066424 0.046823
0.033943 0.076271 0.050043
0.040214 0.085656 0.052568
0.047577 0.094426 0.054853
0.055681 0.102640 0.057757
0.065110 0.110970 0.061432
0.076746 0.119276 0.065565
0.092569 0.128063 0.070877
0.112814 0.136440 0.076695
0.135283 0.145110 0.082646
0.158530 0.153304 0.088670
0.181153 0.159715 0.094050
0.204266 0.164977 0.099057
0.226833 0.167167 0.102778
0.249657 0.166860 0.105485
0.274386 0.164302 0.107516
0.299402 0.159112 0.108568
0.326042 0.151740 0.109063
0.354140 0.142630 0.109326
0.382892 0.131487 0.109327
0.415533 0.123869 0.111951
0.451375 0.120787 0.117623
0.488360 0.121850 0.125751
0.527512 0.125673 0.135795
