luts/P4P_04_PrintFilm_size33.cube
# POCKET 4P D-Log2 LUT pack v1.0 - PrintFilm
# Photochemical print feel: dense blacks, warm highlights.
# Input:  DJI Osmo Pocket 4P D-Log2 / D-Gamut2, full range
# Output: Rec.709 / gamma 2.4 display
# Built on DJI's official D-Log2 to Rec.709 colorimetry with a
# scene-linear highlight shoulder so nothing clips at +7 stops.
TITLE "POCKET 4P PrintFilm v1.0"
LUT_3D_SIZE 33
DOMAIN_MIN 0.0 0.0 0.0
DOMAIN_MAX 1.0 1.0 1.0
0.006595 0.012723 0.045164
0.006595 0.012723 0.045164
0.006595 0.012723 0.045164
0.018134 0.006213 0.040216
0.030882 0.002778 0.038878
0.045232 0.000000 0.037720
0.068407 0.000000 0.036072
0.100409 0.000000 0.034076
0.145159 0.000000 0.031448
0.204240 0.000000 0.027548
0.291824 0.000000 0.020256
0.397812 0.000000 0.011318
0.518805 0.000000 0.001708
0.648098 0.000000 0.000000
0.753178 0.000000 0.000000
0.823356 0.000000 0.000000
0.876123 0.000000 0.000000
0.902820 0.000000 0.000000
0.917284 0.000000 0.001840
0.925780 0.027121 0.046970
0.930189 0.113972 0.090841
0.933359 0.186424 0.130126
0.935537 0.242871 0.166226
0.937177 0.288982 0.198321
0.938486 0.328155 0.227219
0.939556 0.362729 0.254201
0.940516 0.394510 0.279426
0.941379 0.423873 0.303346
0.942147 0.450694 0.325591
0.942832 0.475189 0.346324
0.943446 0.497488 0.365260
0.944004 0.518648 0.383889
0.944504 0.537812 0.400766
0.006595 0.012723 0.045164
0.006595 0.012723 0.045164
0.006595 0.012723 0.045164
0.018134 0.006213 0.040216
0.030882 0.002778 0.038878
0.045232 0.000000 0.037720
0.068407 0.000000 0.036072
0.100409 0.000000 0.034076
0.145159 0.000000 0.031448
0.204240 0.000000 0.027548
0.291824 0.000000 0.020256
0.397812 0.000000 0.011318
0.518805 0.000000 0.001708
0.648098 0.000000 0.000000
0.753178 0.000000 0.000000
0.823356 0.000000 0.000000
0.876123 0.000000 0.000000
0.902820 0.000000 0.000000
0.917284 0.000000 0.001840
0.925780 0.027121 0.046970
0.930189 0.113972 0.090841
0.933359 0.186424 0.130126
0.935537 0.242871 0.166226
0.937177 0.288982 0.198321
0.938486 0.328155 0.227219
0.939556 0.362729 0.254201
0.940516 0.394510 0.279426
0.941379 0.423873 0.303346
0.942147 0.450694 0.325591
0.942832 0.475189 0.346324
0.943446 0.497488 0.365260
0.944004 0.518648 0.383889
0.944504 0.537812 0.400766
0.006595 0.012723 0.045164
0.006595 0.012723 0.045164
0.006595 0.012723 0.045164
0.018134 0.006213 0.040216
0.030882 0.002778 0.038878
0.045232 0.000000 0.037720
0.068407 0.000000 0.036072
0.100409 0.000000 0.034076
0.145159 0.000000 0.031448
0.204240 0.000000 0.027548
0.291824 0.000000 0.020256
0.397812 0.000000 0.011318
0.518805 0.000000 0.001708
0.648098 0.000000 0.000000
0.753178 0.000000 0.000000
0.823356 0.000000 0.000000
0.876123 0.000000 0.000000
0.902820 0.000000 0.000000
0.917284 0.000000 0.001840
0.925780 0.027121 0.046970
0.930189 0.113972 0.090841
0.933359 0.186424 0.130126
0.935537 0.242871 0.166226
0.937177 0.288982 0.198321
0.938486 0.328155 0.227219
0.939556 0.362729 0.254201
0.940516 0.394510 0.279426
0.941379 0.423873 0.303346
0.942147 0.450694 0.325591
0.942832 0.475189 0.346324
0.943446 0.497488 0.365260
0.944004 0.518648 0.383889
0.944504 0.537812 0.400766
0.007699 0.031124 0.050765
0.007699 0.031124 0.050765
0.007699 0.031124 0.050765
0.028289 0.035958 0.046838
0.049459 0.035450 0.041503
0.072456 0.028522 0.037934
0.101956 0.017123 0.033512
0.136365 0.005660 0.028917
0.178603 0.000000 0.024081
0.237537 0.000000 0.018257
0.318186 0.000000 0.011115
0.417500 0.000000 0.003128
0.530660 0.000000 0.000000
0.653296 0.000000 0.000000
0.754130 0.000000 0.000000
0.822409 0.000000 0.000000
0.875006 0.000000 0.000000
0.901764 0.000000 0.000000
0.916284 0.000000 0.000000
0.925177 0.017433 0.041083
0.929777 0.103915 0.084436
0.932960 0.176134 0.123384
0.935210 0.233486 0.159348
0.936882 0.279958 0.191348
0.938212 0.319310 0.220111
0.939277 0.353353 0.246489
0.940231 0.384617 0.271132
0.941086 0.413475 0.294487
0.941854 0.440025 0.316359
0.942543 0.464473 0.336903
0.943161 0.486668 0.355612
0.943706 0.507058 0.373421
0.944195 0.525522 0.389552
0.012851 0.052307 0.059632
0.012851 0.052307 0.059632
0.012851 0.052307 0.059632
0.032669 0.064877 0.055086
0.057809 0.067950 0.052740
0.090399 0.072640 0.044688
0.125986 0.068932 0.037560
0.167622 0.052527 0.029648
0.213726 0.030321 0.021596
0.275401 0.004512 0.012239
0.352759 0.000000 0.002340
0.445972 0.000000 0.000000
0.552585 0.000000 0.000000
0.668745 0.000000 0.000000
0.761652 0.000000 0.000000
0.826703 0.000000 0.000000
0.876829 0.000000 0.000000
0.902775 0.000000 0.000000
0.916690 0.000000 0.000000
0.925357 0.019751 0.040969
0.929871 0.105143 0.084101
0.933031 0.177148 0.123170
0.935248 0.233826 0.158813
0.936881 0.279316 0.190268
0.938197 0.318347 0.218869
0.939255 0.352138 0.245096
0.940202 0.383175 0.269592
0.941049 0.411833 0.292798
0.941810 0.438179 0.314513
0.942494 0.462417 0.334893
0.943106 0.484425 0.353453
0.943648 0.504682 0.371141
0.944135 0.523026 0.387162
0.018540 0.076176 0.070121
0.018540 0.076176 0.070121
0.018540 0.076176 0.070121
0.038003 0.098425 0.066483
0.066097 0.113603 0.064074
0.102265 0.117561 0.060482
0.148307 0.124224 0.051960
0.192726 0.120973 0.042927
0.243673 0.100358 0.030421
0.310869 0.063105 0.014514
0.389285 0.018428 0.000000
0.479119 0.000000 0.000000
0.579764 0.000000 0.000000
0.687412 0.000000 0.000000
0.770713 0.000000 0.000000
0.833188 0.000000 0.000000
0.879332 0.000000 0.000000
0.904040 0.000000 0.000000
0.917393 0.000000 0.000000
0.925746 0.025306 0.042420
0.930110 0.109594 0.085465
0.933200 0.180395 0.124098
0.935361 0.236101 0.159491
0.936957 0.280901 0.190720
0.938247 0.319450 0.219140
0.939308 0.353463 0.245646
0.940248 0.384366 0.270116
0.941076 0.412383 0.292867
0.941825 0.438357 0.314321
0.942505 0.462483 0.334624
0.943114 0.484388 0.353114
0.943654 0.504544 0.370730
0.944139 0.522795 0.386685
0.027731 0.114206 0.086286
0.027731 0.114206 0.086286
0.027731 0.114206 0.086286
0.044443 0.143831 0.084582
0.074216 0.165737 0.080285
0.110722 0.179724 0.077459
0.165844 0.184742 0.071079
0.220725 0.190332 0.062553
0.279301 0.183656 0.049795
0.351162 0.157811 0.031549
0.432364 0.109435 0.009564
0.520802 0.042299 0.000000
0.617597 0.000000 0.000000
0.713467 0.000000 0.000000
0.783496 0.000000 0.000000
0.842787 0.000000 0.000000
0.883606 0.000000 0.000000
0.905948 0.000000 0.000000
0.918508 0.000000 0.000000
0.926300 0.033372 0.044950
0.930448 0.116230 0.087971
0.933477 0.186169 0.126356
0.935571 0.240894 0.161757
0.937126 0.285043 0.192865
0.938362 0.322392 0.220645
0.939406 0.356068 0.247053
0.940332 0.386716 0.271447
0.941151 0.414568 0.294143
0.941893 0.440379 0.315540
0.942567 0.464343 0.335784
0.943172 0.486131 0.354245
0.943716 0.506526 0.372107
0.944205 0.524995 0.388287
0.040137 0.165505 0.108061
0.040137 0.165505 0.108061
0.040137 0.165505 0.108061
0.053118 0.198401 0.108082
0.080710 0.224201 0.101336
0.116888 0.245209 0.097520
0.174715 0.258742 0.092376
0.243219 0.263962 0.084843
0.311137 0.268284 0.074481
0.390669 0.256622 0.056358
0.477642 0.219251 0.032062
0.571465 0.155968 0.004405
0.668738 0.070318 0.000000
0.750433 0.000000 0.000000
0.802199 0.000000 0.000000
0.856870 0.000000 0.000000
0.890114 0.000000 0.000000
0.908922 0.000000 0.000000
0.920179 0.000000 0.001786
0.927089 0.045868 0.049226
0.930956 0.126580 0.092316
0.933886 0.195106 0.130370
0.935854 0.247599 0.165144
0.937346 0.290625 0.195898
0.938538 0.327285 0.223472
0.939566 0.360594 0.249775
0.940485 0.391128 0.274246
0.941305 0.419203 0.297270
0.942039 0.444871 0.318666
0.942694 0.468340 0.338594
0.943283 0.489702 0.356786
0.943822 0.509988 0.374629
0.944305 0.528357 0.390792
0.055958 0.232235 0.137743
0.055958 0.232235 0.137743
0.055958 0.232235 0.137743
0.066739 0.263789 0.137615
0.086952 0.291883 0.131450
0.118876 0.317270 0.124869
0.175907 0.343587 0.118957
0.252160 0.360783 0.113001
0.338000 0.364672 0.103850
0.423355 0.367108 0.090831
0.515762 0.345680 0.067224
0.616326 0.289692 0.035007
0.724527 0.202666 0.000000
0.789475 0.094558 0.000000
0.831289 0.000000 0.000000
0.875400 0.000000 0.000000
0.899738 0.000000 0.000000
0.913755 0.000000 0.000000
0.922877 0.000000 0.006517
0.928326 0.065502 0.055573
0.931732 0.142278 0.098518
0.934435 0.207421 0.136177
0.936248 0.257074 0.170082
0.937661 0.298764 0.200525
0.938817 0.335110 0.228258
0.939800 0.367415 0.254042
0.940689 0.397263 0.278198
0.941498 0.425079 0.301186
0.942220 0.450529 0.322555
0.942866 0.473821 0.342462
0.943447 0.495023 0.360637
0.943978 0.515197 0.378491
0.944455 0.533464 0.394662
0.075308 0.315439 0.176370
0.075308 0.315439 0.176370
0.075308 0.315439 0.176370
0.085682 0.346312 0.176990
0.099646 0.377555 0.171463
0.124263 0.407716 0.163974
0.169789 0.442250 0.156399
0.249549 0.468390 0.147132
0.343418 0.480880 0.138322
0.451208 0.481081 0.126424
0.548502 0.477293 0.110048
0.653948 0.446616 0.081640
0.764909 0.374343 0.042467
0.822867 0.247997 0.000000
0.865131 0.096893 0.000000
0.895381 0.000000 0.000000
0.911380 0.000000 0.000000
0.920470 0.000000 0.000000
0.926217 0.013421 0.016398
0.930001 0.096041 0.065721
0.932861 0.165342 0.107429
0.935144 0.223612 0.143962
0.936753 0.269824 0.176950
0.938042 0.309346 0.206659
0.939145 0.344539 0.234032
0.940106 0.376363 0.259732
0.940975 0.405824 0.283837
0.941767 0.433360 0.306815
0.942481 0.458770 0.328361
0.943125 0.482250 0.348628
0.943702 0.503571 0.367085
0.944214 0.523286 0.384699
0.944674 0.541134 0.400651
0.101878 0.427329 0.225955
0.101878 0.427329 0.225955
0.101878 0.427329 0.225955
0.110055 0.452500 0.227672
0.120133 0.479553 0.223976
0.136915 0.510624 0.215558
0.168886 0.546659 0.204528
0.230676 0.582503 0.191715
0.331969 0.605389 0.178802
0.451240 0.611732 0.166171
0.574514 0.606228 0.151656
0.681865 0.594721 0.132058
0.786056 0.551182 0.098275
0.843399 0.460047 0.053488
0.888885 0.296700 0.000000
0.916189 0.116804 0.000000
0.925428 0.029950 0.000000
0.928894 0.032593 0.000000
0.930412 0.085381 0.037276
0.932320 0.142382 0.082749
0.934444 0.198886 0.121016
0.936110 0.246275 0.155000
0.937433 0.287159 0.186218
0.938572 0.323777 0.214909
0.939607 0.357532 0.241895
0.940556 0.389451 0.268183
0.941402 0.418574 0.292447
0.942151 0.445145 0.314989
0.942834 0.469903 0.336311
0.943456 0.493033 0.356556
0.944015 0.514043 0.374999
0.944514 0.533594 0.392682
0.944962 0.551292 0.408696
0.132890 0.556621 0.281930
0.132890 0.556621 0.281930
0.132890 0.556621 0.281930
0.138573 0.575428 0.285042
0.145876 0.596449 0.284439
0.155669 0.621822 0.279513
0.176069 0.656649 0.267919
0.217231 0.698346 0.249520
0.300308 0.733185 0.231093
0.420483 0.753987 0.214676
0.566350 0.751145 0.197170
0.701439 0.737273 0.179454
0.800561 0.715356 0.155288
0.857440 0.657877 0.117049
0.899405 0.541795 0.060166
0.929787 0.373493 0.000952
0.937395 0.237899 0.000000
0.936408 0.181739 0.031270
0.935323 0.186716 0.073897
0.935564 0.211142 0.109617
0.936435 0.243831 0.140855
0.937370 0.277635 0.171341
0.938359 0.311733 0.200210
0.939334 0.344807 0.227751
0.940257 0.375901 0.253641
0.941136 0.406253 0.279277
0.941929 0.434299 0.303196
0.942648 0.460408 0.325797
0.943303 0.484788 0.347194
0.943901 0.507619 0.367532
0.944439 0.528371 0.386069
0.944924 0.547866 0.403944
0.945360 0.565511 0.420132
0.167969 0.699731 0.344067
0.167969 0.699731 0.344067
0.167969 0.699731 0.344067
0.170967 0.711986 0.346655
0.175638 0.727183 0.347884
0.182310 0.746129 0.346954
0.194177 0.770682 0.341316
0.218464 0.797183 0.326456
0.267424 0.824875 0.301021
0.369665 0.842972 0.275432
0.517901 0.849275 0.251668
0.683468 0.843242 0.229166
0.808422 0.830987 0.207202
0.868686 0.811652 0.177988
0.902895 0.762334 0.134477
0.936728 0.634864 0.073384
0.947080 0.499541 0.053979
0.945561 0.391430 0.090411
0.941668 0.331081 0.126084
0.939737 0.308038 0.150552
0.939178 0.310473 0.173195
0.939285 0.325949 0.196589
0.939766 0.348741 0.220857
0.940433 0.374959 0.245681
0.941170 0.402089 0.270224
0.941918 0.429461 0.294589
0.942616 0.455423 0.317748
0.943282 0.480581 0.340260
0.943887 0.503899 0.361305
0.944437 0.525562 0.381038
0.944932 0.545294 0.399061
0.945393 0.564379 0.416908
0.945807 0.581651 0.433069
0.205416 0.819462 0.410847
0.205416 0.819462 0.410847
0.205416 0.819462 0.410847
0.207043 0.823649 0.412912
0.209694 0.829495 0.415083
0.213705 0.836728 0.416403
0.221362 0.847800 0.416208
0.234492 0.862172 0.409740
0.260551 0.879337 0.390826
0.317627 0.896792 0.355439
0.437566 0.906117 0.318654
0.614612 0.906307 0.286612
0.789044 0.899185 0.258997
0.873047 0.887906 0.232201
0.909019 0.869955 0.199963
0.938320 0.830169 0.149857
0.952976 0.754066 0.116794
0.954513 0.632541 0.144169
0.949780 0.535316 0.186279
0.946005 0.464867 0.210078
0.943600 0.423268 0.224699
0.942454 0.409021 0.239490
0.942123 0.412402 0.256318
0.942231 0.425141 0.275010
0.942571 0.442993 0.295443
0.943098 0.465234 0.317718
0.943616 0.486878 0.339012
0.944144 0.508586 0.359864
0.944652 0.529652 0.380022
0.945143 0.550198 0.399607
0.945585 0.568894 0.417456
0.946003 0.586854 0.434748
0.946378 0.603101 0.450402
0.244109 0.889341 0.480264
0.244109 0.889341 0.480264
0.244109 0.889341 0.480264
0.244855 0.890646 0.481450
0.246178 0.892714 0.483191
0.248366 0.895711 0.485432
0.252210 0.899764 0.486717
0.259563 0.905785 0.485042
0.272469 0.913994 0.474572
0.298715 0.924157 0.448291
0.361559 0.934524 0.401870
0.502244 0.939908 0.354448
0.707836 0.938216 0.316526
0.850669 0.930816 0.283973
0.908922 0.920357 0.252806
0.935578 0.905505 0.216942
0.955234 0.881240 0.182396
0.961062 0.835697 0.186330
0.958076 0.766681 0.238551
0.953488 0.673432 0.279492
0.949965 0.600415 0.299234
0.947555 0.550683 0.307080
0.946037 0.521653 0.313228
0.945194 0.509574 0.322526
0.944825 0.509757 0.335690
0.944935 0.521802 0.353794
0.945125 0.535232 0.371474
0.945426 0.550932 0.389262
0.945761 0.567402 0.407102
0.946130 0.584682 0.425074
0.946466 0.600506 0.441511
0.946822 0.616943 0.458175
0.947142 0.631805 0.473255
0.274131 0.924732 0.537050
0.274131 0.924732 0.537050
0.274131 0.924732 0.537050
0.274563 0.925302 0.538210
0.275516 0.926361 0.540081
0.276781 0.927653 0.542071
0.279334 0.929700 0.544292
0.284104 0.932771 0.545579
0.292540 0.937200 0.542449
0.306866 0.943026 0.528597
0.338716 0.950673 0.495941
0.417603 0.959263 0.445151
0.584557 0.963169 0.392151
0.796615 0.961199 0.349474
0.895549 0.953105 0.310701
0.930771 0.941764 0.274827
0.953013 0.928919 0.234487
0.963530 0.910817 0.218251
0.964458 0.881360 0.260369
0.961035 0.840092 0.321934
0.956688 0.788066 0.365758
0.953466 0.729957 0.385766
0.951170 0.678671 0.392851
0.949539 0.642615 0.395843
0.948385 0.618392 0.398697
0.947797 0.610297 0.406621
0.947426 0.607966 0.416590
0.947328 0.612963 0.429617
0.947360 0.621209 0.443738
0.947513 0.632571 0.458958
0.947661 0.643196 0.472972
0.947913 0.656777 0.488319
0.948138 0.669045 0.502200
0.306713 0.948741 0.582862
0.306713 0.948741 0.582862
0.306713 0.948741 0.582862
0.306902 0.948955 0.583932
0.307939 0.949640 0.585810
0.309512 0.950609 0.588223
0.312330 0.952177 0.591924
0.316361 0.954220 0.596043
0.323580 0.957371 0.599880
0.335123 0.961353 0.597915
0.354363 0.966302 0.582312
0.394356 0.971961 0.546217
0.491907 0.976482 0.483681
0.688230 0.977475 0.423909
0.860048 0.974705 0.379477
0.924543 0.968624 0.339679
0.946890 0.959999 0.303784
0.963064 0.947358 0.259765
0.967479 0.929867 0.264540
0.966658 0.907642 0.320668
0.963000 0.878059 0.387509
0.959174 0.845540 0.436681
0.956356 0.814974 0.462907
0.954235 0.785801 0.474507
0.952587 0.758197 0.478440
0.951503 0.733298 0.480300
0.950652 0.715174 0.483468
0.950087 0.705052 0.488402
0.949714 0.700472 0.495363
0.949525 0.701093 0.504244
0.949370 0.702243 0.512683
0.949423 0.709818 0.524754
0.949469 0.716649 0.535664
0.349814 0.968150 0.629914
0.349814 0.968150 0.629914
0.349814 0.968150 0.629914
0.349602 0.968132 0.630572
0.350618 0.968536 0.632469
0.351969 0.969052 0.634790
0.353743 0.969724 0.637949
0.356422 0.970684 0.642263
0.360437 0.971985 0.647290
0.366939 0.973758 0.651322
0.377323 0.975889 0.647851
0.397746 0.978883 0.624144
0.446010 0.982085 0.576084
0.584443 0.984142 0.499190
0.804147 0.983468 0.436916
0.904655 0.980608 0.393471
0.941486 0.976166 0.358526
0.959646 0.970045 0.323230
0.969140 0.961137 0.297476
0.970637 0.946413 0.320215
0.968401 0.925612 0.375791
0.964754 0.903627 0.445514
0.961090 0.879930 0.497157
0.958271 0.857218 0.528571
0.956233 0.836917 0.545680
0.954925 0.821159 0.551625
0.953860 0.807337 0.556193
0.953082 0.796586 0.559049
0.952475 0.788295 0.562364
0.952033 0.782592 0.566074
0.951642 0.777643 0.569736
0.951435 0.776716 0.576140
0.951246 0.775871 0.581930
0.383022 0.977795 0.668771
0.383022 0.977795 0.668771
0.383022 0.977795 0.668771
0.382791 0.977775 0.669263
0.383315 0.977924 0.670647
0.384106 0.978144 0.672506
0.385505 0.978520 0.675512
0.387136 0.978974 0.679586
0.389391 0.979576 0.684818
0.392832 0.980396 0.690709
0.398340 0.981377 0.692648
0.410250 0.982799 0.683846
0.446009 0.984687 0.649828
0.546902 0.986194 0.590550
0.760896 0.986188 0.518585
0.881740 0.984796 0.463706
0.932411 0.982541 0.416058
0.952424 0.979538 0.378369
0.966461 0.974738 0.350020
0.971976 0.967914 0.348526
0.972293 0.957267 0.386913
0.969999 0.942418 0.443168
0.966416 0.923637 0.501297
0.962821 0.903759 0.548029
0.960056 0.886718 0.583537
0.958209 0.872593 0.601145
0.956720 0.859666 0.613984
0.955660 0.849175 0.620776
0.954823 0.840336 0.625773
0.954202 0.833374 0.628991
0.953648 0.827028 0.632044
0.953295 0.823407 0.635692
0.952974 0.820072 0.639006
0.417790 0.982421 0.704300
0.417790 0.982421 0.704300
0.417790 0.982421 0.704300
0.417391 0.982401 0.704557
0.418123 0.982487 0.705894
0.419464 0.982599 0.707795
0.421221 0.982762 0.710492
0.423295 0.982964 0.714253
0.425819 0.983240 0.719403
0.429217 0.983618 0.725974
0.434404 0.984058 0.731779
0.446319 0.984623 0.731703
0.488130 0.985362 0.714746
0.586393 0.985981 0.675418
0.763584 0.985632 0.624947
0.866982 0.984692 0.581882
0.919921 0.983650 0.531139
0.944354 0.982445 0.475353
0.959585 0.980198 0.428800
0.969947 0.976563 0.403142
0.973244 0.971186 0.413275
0.973061 0.963285 0.453422
0.970875 0.952588 0.511564
0.967903 0.939830 0.565016
0.964726 0.925445 0.607735
0.962096 0.911444 0.633788
0.959895 0.897602 0.653606
0.958347 0.886849 0.667106
0.957221 0.878365 0.677266
0.956400 0.871503 0.683299
0.955667 0.865100 0.688743
0.955194 0.860828 0.692302
0.954763 0.856848 0.695558
0.483914 0.984154 0.739418
0.483914 0.984154 0.739418
0.483914 0.984154 0.739418
0.482732 0.984140 0.739498
0.484328 0.984155 0.740594
0.487285 0.984192 0.742337
0.491780 0.984221 0.744883
0.498259 0.984263 0.748729
0.505267 0.984313 0.753638
0.514475 0.984363 0.760055
0.527977 0.984424 0.765480
0.547766 0.984476 0.768461
0.593544 0.984424 0.765856
0.683170 0.984119 0.751730
0.797522 0.983294 0.729869
0.867016 0.982426 0.705767
0.910975 0.981832 0.668265
0.934808 0.981666 0.614453
0.950878 0.981190 0.549619
0.964897 0.979472 0.497602
0.971405 0.976733 0.475736
0.973401 0.972401 0.489650
0.972819 0.966073 0.532846
0.970987 0.958174 0.583414
0.968589 0.949150 0.630673
0.966112 0.940086 0.665179
0.963857 0.930690 0.692025
0.961927 0.921491 0.709862
0.960320 0.912594 0.722523
0.959064 0.904561 0.730591
0.957991 0.897146 0.738226
0.957291 0.891747 0.742110
0.956650 0.886547 0.745675
0.591745 0.983889 0.771007
0.591745 0.983889 0.771007
0.591745 0.983889 0.771007
0.589977 0.983900 0.770925
0.593811 0.983854 0.772003
0.598223 0.983820 0.773169
0.605139 0.983754 0.774949
0.614739 0.983664 0.777507
0.625926 0.983538 0.780890
0.641980 0.983334 0.785549
0.662194 0.983074 0.790804
0.685789 0.982766 0.795181
0.725499 0.982305 0.797866
0.781852 0.981603 0.797598
0.835839 0.980592 0.796610
0.878139 0.979570 0.793270
0.907459 0.978943 0.781427
0.926703 0.978958 0.754179
0.942481 0.979302 0.695414
0.957784 0.979040 0.629760
0.967036 0.977874 0.583536
0.971233 0.975604 0.568756
0.972435 0.971989 0.583733
0.971949 0.967092 0.616974
0.970521 0.961121 0.657548
0.968590 0.954783 0.693023
0.966714 0.948302 0.722382
0.964924 0.942027 0.744770
0.963361 0.935994 0.761295
0.962035 0.930390 0.770016
0.960834 0.924847 0.777379
0.959957 0.920258 0.781381
0.959181 0.915848 0.784558
0.719455 0.982289 0.796730
0.719455 0.982289 0.796730
0.719455 0.982289 0.796730
0.717394 0.982318 0.796532
0.721507 0.982245 0.797525
0.726211 0.982161 0.798698
0.733748 0.982027 0.800594
0.743090 0.981845 0.803027
0.754447 0.981621 0.806140
0.767702 0.981297 0.810376
0.781484 0.980878 0.815363
0.795451 0.980397 0.820574
0.812459 0.979851 0.824990
0.837186 0.979082 0.829020
0.866069 0.978018 0.833602
0.891833 0.976867 0.837229
0.908105 0.976165 0.836471
0.922549 0.975928 0.827114
0.935853 0.976337 0.803367
0.950895 0.976711 0.764090
0.961327 0.976580 0.712011
0.967280 0.975706 0.676587
0.970169 0.973838 0.665056
0.971081 0.970966 0.674461
0.970765 0.967146 0.698174
0.969528 0.962589 0.727726
0.968205 0.957915 0.753684
0.966767 0.953261 0.771583
0.965432 0.948825 0.783955
0.964206 0.944726 0.793083
0.963083 0.940711 0.800784
0.962210 0.937350 0.805158
0.961431 0.934142 0.808693
0.807550 0.980133 0.821208
0.807550 0.980133 0.821208
0.807550 0.980133 0.821208
0.806729 0.980156 0.821072
0.808304 0.980090 0.821791
0.810830 0.979985 0.822906
0.815034 0.979810 0.824706
0.819992 0.979590 0.826996
0.825863 0.979310 0.829904
0.832708 0.978959 0.833475
0.840970 0.978507 0.837893
0.849635 0.977977 0.842963
0.858743 0.977440 0.847314
0.872081 0.976673 0.852316
0.887560 0.975670 0.858117
0.899849 0.974621 0.864546
0.911200 0.973769 0.867568
0.921584 0.973268 0.865871
0.933138 0.973290 0.855327
0.945920 0.973707 0.834367
0.955776 0.974205 0.807052
0.962565 0.974228 0.780216
0.966689 0.973538 0.760655
0.968846 0.972041 0.750319
0.969645 0.969765 0.755014
0.969203 0.966594 0.769685
0.968537 0.963283 0.782064
0.967585 0.959796 0.793767
0.966593 0.956417 0.803519
0.965563 0.953199 0.811669
0.964637 0.950112 0.818232
0.963852 0.947583 0.822357
0.963133 0.945160 0.825976
0.854860 0.977833 0.842824
0.854860 0.977833 0.842824
0.854860 0.977833 0.842824
0.854901 0.977824 0.842951
0.855967 0.977753 0.843598
0.857556 0.977645 0.844583
0.859790 0.977491 0.845971
0.862739 0.977280 0.847848
0.867101 0.976953 0.850694
0.871531 0.976598 0.853729
0.876311 0.976174 0.857333
0.881507 0.975680 0.861380
0.886025 0.975208 0.865135
0.891792 0.974555 0.870108
0.899134 0.973772 0.875110
0.907323 0.972838 0.880446
0.915453 0.971940 0.884508
0.923158 0.971287 0.885684
0.933615 0.970923 0.881278
0.943240 0.970978 0.871790
0.951234 0.971405 0.857533
0.957843 0.971967 0.839497
0.962597 0.972082 0.822624
0.965630 0.971515 0.810667
0.967432 0.970369 0.804112
0.967934 0.968388 0.805698
0.968011 0.966212 0.809315
0.967594 0.963689 0.815607
0.967018 0.961155 0.821803
0.966300 0.958629 0.827774
0.965677 0.956259 0.832193
0.964976 0.954129 0.835846
0.964332 0.952095 0.839048
0.881415 0.975747 0.860516
0.881415 0.975747 0.860516
0.881415 0.975747 0.860516
0.881079 0.975774 0.860328
0.881808 0.975706 0.860857
0.883269 0.975567 0.861942
0.884687 0.975420 0.863108
0.886102 0.975238 0.864709
0.888049 0.974979 0.866946
0.890259 0.974676 0.869483
0.892679 0.974349 0.872076
0.895360 0.973973 0.874955
0.897935 0.973617 0.877497
0.901630 0.973123 0.880716
0.906716 0.972440 0.884810
0.912548 0.971616 0.889323
0.918524 0.970797 0.893111
0.926068 0.970049 0.894692
0.934734 0.969528 0.892910
0.942323 0.969386 0.887851
0.948969 0.969577 0.879551
0.954640 0.969948 0.868848
0.959149 0.970173 0.858035
0.962402 0.970045 0.848933
0.964681 0.969550 0.841497
0.965822 0.968334 0.838572
0.966475 0.966946 0.837464
0.966636 0.965249 0.838517
0.966552 0.963495 0.840221
0.966229 0.961648 0.842773
0.965909 0.959877 0.845072
0.965392 0.958129 0.847871
0.964920 0.956472 0.850328
0.895382 0.974054 0.874012
0.895382 0.974054 0.874012
0.895382 0.974054 0.874012
0.895038 0.974097 0.873716
0.895420 0.974045 0.874100
0.896312 0.973923 0.874991
0.897159 0.973804 0.875860
0.898284 0.973643 0.877027
0.899645 0.973442 0.878471
0.901242 0.973198 0.880182
0.902888 0.972922 0.882134
0.904752 0.972603 0.884318
0.906482 0.972301 0.886275
0.908767 0.971916 0.888624
0.912250 0.971344 0.891878
