luts/P4P_03_Natural_size33.cube
# POCKET 4P D-Log2 LUT pack v1.0 - Natural
# Everyday. True-to-life with warmer skin and calmer greens.
# Input:  DJI Osmo Pocket 4P D-Log2 / D-Gamut2, full range
# Output: Rec.709 / gamma 2.4 display
# Built on DJI's official D-Log2 to Rec.709 colorimetry with a
# scene-linear highlight shoulder so nothing clips at +7 stops.
TITLE "POCKET 4P Natural v1.0"
LUT_3D_SIZE 33
DOMAIN_MIN 0.0 0.0 0.0
DOMAIN_MAX 1.0 1.0 1.0
0.021334 0.021182 0.020811
0.021334 0.021182 0.020811
0.021334 0.021182 0.020811
0.034914 0.006855 0.008857
0.048527 0.000000 0.003577
0.063196 0.000000 0.000000
0.085318 0.000000 0.000000
0.113818 0.000000 0.000000
0.152831 0.000000 0.000000
0.202953 0.000000 0.000000
0.266055 0.000000 0.000000
0.340615 0.000000 0.000000
0.423488 0.000000 0.000000
0.510213 0.000000 0.000000
0.594227 0.000000 0.000000
0.680043 0.000000 0.000000
0.757570 0.000000 0.000000
0.807741 0.000000 0.000000
0.825785 0.000000 0.000000
0.847457 0.000000 0.000000
0.863893 0.063403 0.034113
0.873895 0.137275 0.083634
0.880378 0.191709 0.123434
0.885020 0.235023 0.157294
0.888576 0.271103 0.186871
0.891396 0.302388 0.213755
0.893857 0.330862 0.238579
0.895999 0.356886 0.261779
0.897859 0.380454 0.283118
0.899474 0.401796 0.302789
0.900902 0.421139 0.320666
0.902159 0.439295 0.337997
0.903275 0.455689 0.353647
0.021334 0.021182 0.020811
0.021334 0.021182 0.020811
0.021334 0.021182 0.020811
0.034914 0.006855 0.008857
0.048527 0.000000 0.003577
0.063196 0.000000 0.000000
0.085318 0.000000 0.000000
0.113818 0.000000 0.000000
0.152831 0.000000 0.000000
0.202953 0.000000 0.000000
0.266055 0.000000 0.000000
0.340615 0.000000 0.000000
0.423488 0.000000 0.000000
0.510213 0.000000 0.000000
0.594227 0.000000 0.000000
0.680043 0.000000 0.000000
0.757570 0.000000 0.000000
0.807741 0.000000 0.000000
0.825785 0.000000 0.000000
0.847457 0.000000 0.000000
0.863893 0.063403 0.034113
0.873895 0.137275 0.083634
0.880378 0.191709 0.123434
0.885020 0.235023 0.157294
0.888576 0.271103 0.186871
0.891396 0.302388 0.213755
0.893857 0.330862 0.238579
0.895999 0.356886 0.261779
0.897859 0.380454 0.283118
0.899474 0.401796 0.302789
0.900902 0.421139 0.320666
0.902159 0.439295 0.337997
0.903275 0.455689 0.353647
0.021334 0.021182 0.020811
0.021334 0.021182 0.020811
0.021334 0.021182 0.020811
0.034914 0.006855 0.008857
0.048527 0.000000 0.003577
0.063196 0.000000 0.000000
0.085318 0.000000 0.000000
0.113818 0.000000 0.000000
0.152831 0.000000 0.000000
0.202953 0.000000 0.000000
0.266055 0.000000 0.000000
0.340615 0.000000 0.000000
0.423488 0.000000 0.000000
0.510213 0.000000 0.000000
0.594227 0.000000 0.000000
0.680043 0.000000 0.000000
0.757570 0.000000 0.000000
0.807741 0.000000 0.000000
0.825785 0.000000 0.000000
0.847457 0.000000 0.000000
0.863893 0.063403 0.034113
0.873895 0.137275 0.083634
0.880378 0.191709 0.123434
0.885020 0.235023 0.157294
0.888576 0.271103 0.186871
0.891396 0.302388 0.213755
0.893857 0.330862 0.238579
0.895999 0.356886 0.261779
0.897859 0.380454 0.283118
0.899474 0.401796 0.302789
0.900902 0.421139 0.320666
0.902159 0.439295 0.337997
0.903275 0.455689 0.353647
0.029478 0.057266 0.037095
0.029478 0.057266 0.037095
0.029478 0.057266 0.037095
0.061955 0.064314 0.031488
0.090434 0.065705 0.021902
0.112482 0.051516 0.012055
0.133965 0.027559 0.000000
0.158898 0.003054 0.000000
0.188071 0.000000 0.000000
0.232914 0.000000 0.000000
0.288610 0.000000 0.000000
0.356515 0.000000 0.000000
0.432863 0.000000 0.000000
0.514206 0.000000 0.000000
0.595229 0.000000 0.000000
0.679314 0.000000 0.000000
0.756066 0.000000 0.000000
0.806434 0.000000 0.000000
0.824987 0.000000 0.000000
0.845525 0.000000 0.000000
0.862361 0.051887 0.025859
0.872735 0.127431 0.076093
0.879449 0.182906 0.116265
0.884220 0.226734 0.150233
0.887858 0.263110 0.179827
0.890685 0.294012 0.206223
0.893150 0.322113 0.230578
0.895291 0.347770 0.253323
0.897167 0.371175 0.274391
0.898809 0.392545 0.293965
0.900260 0.411862 0.311701
0.901500 0.429415 0.328340
0.902602 0.445264 0.343363
0.041175 0.093992 0.057352
0.041175 0.093992 0.057352
0.041175 0.093992 0.057352
0.081650 0.110805 0.054273
0.110971 0.116598 0.049422
0.151706 0.126433 0.038823
0.185515 0.120147 0.027373
0.216187 0.089946 0.009247
0.245080 0.046947 0.000000
0.276243 0.000000 0.000000
0.318400 0.000000 0.000000
0.379665 0.000000 0.000000
0.449612 0.000000 0.000000
0.525216 0.000000 0.000000
0.602149 0.000000 0.000000
0.684973 0.000000 0.000000
0.759583 0.000000 0.000000
0.807977 0.000000 0.000000
0.825718 0.000000 0.000000
0.846273 0.000000 0.000000
0.862750 0.053552 0.025999
0.872993 0.128639 0.076201
0.879588 0.183395 0.115997
0.884237 0.226271 0.149340
0.887837 0.262341 0.178749
0.890641 0.293010 0.204986
0.893086 0.320907 0.229191
0.895212 0.346391 0.251795
0.897074 0.369620 0.272717
0.898703 0.390811 0.292138
0.900143 0.409969 0.309738
0.901379 0.427416 0.326271
0.902476 0.443169 0.341199
0.053498 0.133101 0.079702
0.053498 0.133101 0.079702
0.053498 0.133101 0.079702
0.100403 0.160456 0.078265
0.138496 0.178503 0.078365
0.174979 0.185044 0.070700
0.224584 0.194384 0.058761
0.265762 0.186972 0.045684
0.304213 0.155472 0.023330
0.338881 0.098905 0.000000
0.370846 0.020248 0.000000
0.408513 0.000000 0.000000
0.471602 0.000000 0.000000
0.540747 0.000000 0.000000
0.612837 0.000000 0.000000
0.693641 0.000000 0.000000
0.764286 0.000000 0.000000
0.809817 0.000000 0.000000
0.826757 0.000000 0.000000
0.847730 0.000000 0.000000
0.863691 0.058992 0.028512
0.873542 0.132033 0.077744
0.879946 0.185744 0.117071
0.884475 0.227897 0.150066
0.887998 0.263474 0.179221
0.890803 0.294314 0.205696
0.893224 0.322066 0.229844
0.895293 0.346961 0.251982
0.897123 0.369851 0.272637
0.898742 0.390939 0.291980
0.900173 0.410003 0.309508
0.901402 0.427358 0.325969
0.902493 0.443028 0.340832
0.070469 0.183843 0.109162
0.070469 0.183843 0.109162
0.070469 0.183843 0.109162
0.115247 0.219592 0.109740
0.164297 0.243317 0.110024
0.206625 0.260564 0.108467
0.256485 0.270486 0.096990
0.311492 0.275989 0.084136
0.361122 0.262564 0.066737
0.407196 0.225897 0.039299
0.447703 0.156240 0.004432
0.479054 0.054744 0.000000
0.507658 0.000000 0.000000
0.566111 0.000000 0.000000
0.629438 0.000000 0.000000
0.707307 0.000000 0.000000
0.772487 0.000000 0.000000
0.812573 0.000000 0.000000
0.828325 0.000000 0.000000
0.849742 0.000000 0.000000
0.864994 0.066971 0.032619
0.874407 0.137884 0.080938
0.880586 0.190510 0.119894
0.884975 0.231931 0.152604
0.888338 0.266322 0.180996
0.891084 0.296803 0.207305
0.893462 0.324285 0.231327
0.895504 0.349006 0.253378
0.897309 0.371726 0.273947
0.898907 0.392649 0.293204
0.900321 0.411591 0.310678
0.901557 0.429138 0.327355
0.902655 0.444983 0.342412
0.093271 0.247909 0.146316
0.093271 0.247909 0.146316
0.093271 0.247909 0.146316
0.131864 0.288858 0.150166
0.185655 0.316551 0.146751
0.235829 0.339113 0.147349
0.290694 0.356769 0.142472
0.350866 0.366950 0.128041
0.412288 0.369221 0.113279
0.470185 0.349222 0.090946
0.522306 0.298148 0.055019
0.565676 0.210802 0.009627
0.593633 0.084972 0.000000
0.608870 0.000000 0.000000
0.657175 0.000000 0.000000
0.729651 0.000000 0.000000
0.785912 0.000000 0.000000
0.817014 0.000000 0.000000
0.830616 0.000000 0.000000
0.852666 0.000000 0.000000
0.866918 0.079269 0.039347
0.875671 0.146848 0.086192
0.881444 0.197121 0.123985
0.885625 0.237334 0.156117
0.888856 0.270988 0.184164
0.891538 0.301066 0.210282
0.893878 0.328383 0.234305
0.895910 0.353249 0.256611
0.897684 0.375800 0.277127
0.899230 0.396254 0.296039
0.900600 0.414794 0.313221
0.901816 0.432221 0.329850
0.902896 0.447957 0.344863
0.121661 0.328474 0.194687
0.121661 0.328474 0.194687
0.121661 0.328474 0.194687
0.153608 0.368500 0.199042
0.199346 0.401243 0.195024
0.255375 0.425997 0.192911
0.320913 0.450141 0.190762
0.387721 0.468966 0.182893
0.456724 0.475844 0.164453
0.523401 0.474025 0.147282
0.587342 0.443239 0.118739
0.644319 0.375754 0.074166
0.690089 0.263177 0.013550
0.706453 0.105928 0.000000
0.710582 0.000000 0.000000
0.765663 0.000000 0.000000
0.805150 0.000000 0.000000
0.824686 0.000000 0.000000
0.837649 0.000000 0.000000
0.857197 0.008278 0.000000
0.869552 0.096286 0.048557
0.877383 0.159218 0.093511
0.882623 0.206411 0.129857
0.886540 0.245155 0.161367
0.889652 0.278380 0.189396
0.892197 0.307447 0.214874
0.894440 0.334066 0.238484
0.896423 0.358635 0.260675
0.898154 0.380937 0.281097
0.899666 0.401189 0.299933
0.901006 0.419548 0.317050
0.902197 0.436844 0.333644
0.903255 0.452459 0.348626
0.157857 0.425108 0.251858
0.157857 0.425108 0.251858
0.157857 0.425108 0.251858
0.180183 0.459543 0.257694
0.215899 0.494010 0.254650
0.265180 0.523444 0.248516
0.337181 0.551269 0.245328
0.417104 0.574723 0.239719
0.494159 0.588635 0.226162
0.569607 0.592363 0.204751
0.641691 0.582573 0.182957
0.711039 0.540553 0.148693
0.770609 0.455348 0.095407
0.807221 0.306655 0.016971
0.813993 0.093099 0.000000
0.808843 0.000000 0.000000
0.824023 0.000000 0.000000
0.836455 0.000000 0.000000
0.849889 0.000000 0.000000
0.863646 0.045915 0.008605
0.873123 0.119907 0.061352
0.879569 0.175389 0.103202
0.884141 0.218841 0.137893
0.887675 0.255289 0.168266
0.890595 0.287273 0.195696
0.893045 0.315784 0.220947
0.895210 0.341955 0.244386
0.897130 0.366192 0.266466
0.898821 0.388381 0.286965
0.900310 0.408726 0.306057
0.901627 0.427124 0.323363
0.902763 0.443969 0.339667
0.903772 0.459176 0.354387
0.200592 0.537953 0.317492
0.200592 0.537953 0.317492
0.200592 0.537953 0.317492
0.215737 0.565775 0.323789
0.239444 0.595538 0.324353
0.276609 0.628113 0.319803
0.338880 0.661681 0.310656
0.427812 0.688237 0.302759
0.520836 0.707537 0.292504
0.607049 0.716324 0.273697
0.688840 0.714044 0.247611
0.764581 0.695046 0.221081
0.820413 0.638695 0.179958
0.850235 0.532230 0.114724
0.871168 0.343919 0.013455
0.868211 0.108903 0.000000
0.861384 0.000000 0.000000
0.862085 0.000000 0.000000
0.866118 0.038576 0.000000
0.872385 0.101069 0.036722
0.877993 0.153799 0.080293
0.882519 0.197888 0.116802
0.886172 0.235697 0.148738
0.889224 0.269092 0.177570
0.891898 0.299515 0.204292
0.894266 0.327922 0.229893
0.896329 0.353633 0.253293
0.898116 0.376888 0.274796
0.899707 0.398395 0.294946
0.901126 0.418340 0.313903
0.902381 0.436387 0.331094
0.903473 0.453019 0.347376
0.904442 0.468035 0.362076
0.249446 0.665495 0.390356
0.249446 0.665495 0.390356
0.249446 0.665495 0.390356
0.258565 0.685590 0.396805
0.272882 0.708544 0.399901
0.296020 0.736020 0.398955
0.338829 0.771978 0.392066
0.416629 0.805229 0.377337
0.524185 0.817711 0.364212
0.629793 0.826689 0.349400
0.723746 0.827249 0.323818
0.805254 0.821538 0.291939
0.846203 0.804342 0.259189
0.876667 0.735906 0.208995
0.900860 0.601973 0.125680
0.910673 0.411636 0.031936
0.902351 0.244217 0.000000
0.889196 0.162392 0.007772
0.883249 0.154401 0.041737
0.882355 0.171054 0.074980
0.883910 0.198327 0.106589
0.886296 0.228598 0.136227
0.888870 0.259297 0.164608
0.891363 0.288944 0.191613
0.893658 0.316622 0.216814
0.895793 0.343401 0.241499
0.897683 0.367965 0.264332
0.899360 0.390657 0.285699
0.900857 0.411696 0.305754
0.902195 0.431264 0.324653
0.903381 0.448982 0.341803
0.904425 0.465482 0.358162
0.905352 0.480378 0.372933
0.302322 0.802041 0.469306
0.302322 0.802041 0.469306
0.302322 0.802041 0.469306
0.307468 0.809457 0.473918
0.315704 0.818458 0.477778
0.328776 0.829183 0.480073
0.354389 0.844022 0.478932
0.404506 0.861577 0.469238
0.494495 0.877192 0.449666
0.620821 0.884099 0.429791
0.739708 0.887311 0.407169
0.822906 0.884728 0.374611
0.864536 0.877429 0.335976
0.894211 0.860249 0.294853
0.915525 0.817419 0.233977
0.931928 0.682505 0.149476
0.929590 0.518948 0.103839
0.915294 0.379617 0.105636
0.901652 0.300157 0.117657
0.894374 0.266758 0.130056
0.891984 0.263925 0.146186
0.891837 0.275472 0.165930
0.892856 0.294692 0.188063
0.894399 0.317366 0.211319
0.896113 0.340950 0.234484
0.897844 0.364714 0.257467
0.899440 0.387143 0.279189
0.900941 0.408772 0.300187
0.902281 0.428708 0.319685
0.903479 0.447127 0.337849
0.904545 0.463847 0.354371
0.905512 0.479890 0.370572
0.906371 0.494371 0.385200
0.357108 0.870891 0.551335
0.357108 0.870891 0.551335
0.357108 0.870891 0.551335
0.359684 0.873784 0.554531
0.364105 0.877877 0.558382
0.371219 0.883023 0.561940
0.385618 0.890939 0.565318
0.412705 0.901358 0.564076
0.466820 0.913346 0.551306
0.570704 0.923432 0.523213
0.717238 0.927165 0.495183
0.827879 0.927380 0.465223
0.875777 0.923589 0.425428
0.906039 0.915878 0.378185
0.926755 0.898848 0.325918
0.943164 0.862397 0.259033
0.947009 0.783882 0.207304
0.938222 0.627894 0.201562
0.923523 0.505388 0.210822
0.911891 0.421904 0.210597
0.904419 0.373820 0.209796
0.900641 0.355177 0.215966
0.899311 0.355018 0.227959
0.899264 0.364443 0.243525
0.899852 0.378890 0.261470
0.900930 0.397523 0.281648
0.902001 0.415682 0.300956
0.903105 0.433945 0.319918
0.904162 0.451632 0.338203
0.905178 0.468853 0.355930
0.906083 0.484476 0.372030
0.906924 0.499418 0.387546
0.907671 0.512904 0.401555
0.410985 0.916388 0.635251
0.410985 0.916388 0.635251
0.410985 0.916388 0.635251
0.412374 0.917502 0.637297
0.414840 0.919262 0.640406
0.418926 0.921805 0.644665
0.426487 0.925261 0.648811
0.442006 0.930406 0.651673
0.471206 0.937501 0.648612
0.530202 0.945796 0.631747
0.648472 0.952496 0.595689
0.809269 0.954198 0.559455
0.876021 0.952900 0.523002
0.911762 0.948605 0.474505
0.933808 0.941305 0.416759
0.948719 0.926800 0.357832
0.957039 0.899518 0.306291
0.954858 0.846803 0.286304
0.943492 0.742674 0.300632
0.930941 0.627007 0.307322
0.921086 0.544610 0.302818
0.914137 0.490141 0.295861
0.909634 0.458063 0.292747
0.907004 0.443227 0.295841
0.905687 0.440498 0.304487
0.905614 0.449154 0.319251
0.905786 0.459348 0.334043
0.906272 0.471877 0.349423
0.906856 0.485174 0.364984
0.907532 0.499258 0.380785
0.908144 0.512135 0.395206
0.908808 0.525575 0.409888
0.909398 0.537703 0.423141
0.463501 0.944585 0.710602
0.463501 0.944585 0.710602
0.463501 0.944585 0.710602
0.464200 0.945043 0.712196
0.465810 0.945892 0.714913
0.467963 0.946935 0.718027
0.472540 0.948579 0.722130
0.481709 0.951034 0.726537
0.498655 0.954625 0.729214
0.530030 0.959460 0.724568
0.600473 0.965456 0.702854
0.743525 0.970771 0.665984
0.864504 0.971894 0.626401
0.913391 0.970479 0.584028
0.938179 0.965931 0.522538
0.951391 0.957875 0.451938
0.961642 0.945271 0.392426
0.964534 0.924440 0.359669
0.958793 0.885421 0.367471
0.947986 0.826096 0.385524
0.937161 0.738542 0.393040
0.928644 0.660004 0.389823
0.922367 0.604532 0.382379
0.917805 0.566124 0.375771
0.914509 0.540177 0.371834
0.912713 0.529970 0.375030
0.911469 0.525337 0.380921
0.910919 0.527666 0.390534
0.910703 0.533135 0.401615
0.910805 0.541593 0.414130
0.910919 0.549543 0.425673
0.911297 0.560249 0.438755
0.911633 0.569906 0.450563
0.521065 0.963145 0.776232
0.521065 0.963145 0.776232
0.521065 0.963145 0.776232
0.521270 0.963303 0.777421
0.522990 0.963822 0.779967
0.525638 0.964560 0.783400
0.530575 0.965742 0.788743
0.537809 0.967286 0.795248
0.550444 0.969525 0.801715
0.571486 0.972326 0.804303
0.609770 0.975927 0.801832
0.693099 0.979908 0.778301
0.830537 0.982176 0.729376
0.904805 0.981869 0.681197
0.939284 0.980094 0.628398
0.955400 0.976471 0.563937
0.963788 0.970627 0.497109
0.969633 0.959759 0.435914
0.968001 0.939729 0.417615
0.961621 0.910231 0.435072
0.951932 0.868613 0.456173
0.942343 0.821630 0.466519
0.934667 0.762959 0.466799
0.928830 0.708067 0.462249
0.924401 0.667403 0.456013
0.921430 0.641133 0.451461
0.919036 0.621640 0.449296
0.917386 0.610070 0.450115
0.916214 0.603801 0.453524
0.915508 0.602492 0.459374
0.914904 0.601836 0.465061
0.914788 0.607004 0.474565
0.914681 0.611661 0.483144
0.591508 0.976728 0.824355
0.591508 0.976728 0.824355
0.591508 0.976728 0.824355
0.591004 0.976709 0.824603
0.592443 0.976975 0.825760
0.594394 0.977317 0.827195
0.596935 0.977761 0.829110
0.600855 0.978401 0.831757
0.607001 0.979280 0.835019
0.617733 0.980509 0.838423
0.636828 0.982057 0.839582
0.678495 0.984349 0.834519
0.777173 0.986588 0.814637
0.881364 0.987113 0.763636
0.932992 0.986033 0.709745
0.954520 0.984186 0.653729
0.965123 0.981399 0.591839
0.971861 0.977142 0.527916
0.974098 0.969043 0.486380
0.970986 0.953211 0.481986
0.963717 0.927022 0.495048
0.955080 0.896663 0.517558
0.946474 0.862637 0.530974
0.939296 0.829198 0.535398
0.933719 0.798290 0.534191
0.929989 0.761664 0.529423
0.926848 0.732190 0.525424
0.924504 0.710795 0.522190
0.922641 0.694894 0.520622
0.921263 0.684111 0.520588
0.920037 0.674918 0.520910
0.919369 0.672412 0.524814
0.918760 0.670148 0.528341
0.643212 0.983229 0.848946
0.643212 0.983229 0.848946
0.643212 0.983229 0.848946
0.642705 0.983212 0.849095
0.643366 0.983308 0.849732
0.644405 0.983451 0.850611
0.646294 0.983699 0.852057
0.648376 0.983997 0.853945
0.651327 0.984396 0.856378
0.656228 0.984952 0.859281
0.665532 0.985657 0.861142
0.688272 0.986730 0.860147
0.754938 0.988032 0.849498
0.854216 0.988534 0.822381
0.920733 0.987371 0.783449
0.947982 0.986065 0.735915
0.961788 0.984781 0.679572
0.969754 0.982924 0.620151
0.974863 0.979333 0.565206
0.975421 0.972701 0.540274
0.972006 0.960578 0.546085
0.965798 0.942469 0.562714
0.957961 0.918431 0.576762
0.949926 0.890704 0.585674
0.943286 0.865634 0.593708
0.938559 0.844775 0.594297
0.934537 0.825403 0.593742
0.931573 0.809681 0.591506
0.929170 0.793930 0.589506
0.927354 0.777090 0.587661
0.925709 0.762328 0.586204
0.924642 0.753873 0.586703
0.923665 0.746244 0.587168
0.693323 0.986074 0.863632
0.693323 0.986074 0.863632
0.693323 0.986074 0.863632
0.692656 0.986061 0.863713
0.693486 0.986110 0.864174
0.695041 0.986167 0.864762
0.697053 0.986254 0.865628
0.699270 0.986361 0.866823
0.701876 0.986515 0.868498
0.705499 0.986733 0.870656
0.711844 0.986992 0.872526
0.728849 0.987323 0.872402
0.785316 0.987595 0.865372
0.850915 0.987379 0.848177
0.907855 0.985698 0.827709
0.936372 0.984228 0.809503
0.952885 0.983616 0.772771
0.963955 0.983292 0.715651
0.971292 0.982046 0.656262
0.975325 0.979212 0.610384
0.975153 0.973657 0.594843
0.971852 0.964109 0.604137
0.966530 0.950710 0.621571
0.960212 0.934267 0.636974
0.953543 0.915376 0.647540
0.947692 0.896237 0.649825
0.942290 0.876093 0.649363
0.938368 0.860178 0.648953
0.935371 0.847384 0.648949
0.933125 0.837041 0.647857
0.931071 0.827300 0.646969
0.929720 0.820754 0.646451
0.928474 0.814625 0.646012
0.764790 0.986413 0.869836
0.764790 0.986413 0.869836
0.764790 0.986413 0.869836
0.763541 0.986413 0.869922
0.764752 0.986401 0.870121
0.767157 0.986391 0.870434
0.770683 0.986351 0.870825
0.775683 0.986295 0.871439
0.780798 0.986231 0.872308
0.787393 0.986136 0.873412
0.797699 0.985999 0.874453
0.808757 0.985812 0.874217
0.831986 0.985295 0.870097
0.866037 0.984263 0.861018
0.901789 0.982195 0.850795
0.925160 0.980373 0.841775
0.941266 0.979658 0.828639
0.953854 0.979999 0.805936
0.963481 0.980479 0.755278
0.971099 0.979810 0.696987
0.974069 0.977519 0.661208
0.973444 0.972633 0.652280
0.970383 0.964825 0.661709
0.965927 0.954523 0.676926
0.960739 0.942403 0.691419
0.955703 0.930163 0.700613
0.950936 0.917352 0.706410
0.946750 0.904876 0.708218
0.943089 0.892815 0.708096
0.940041 0.881715 0.706244
0.937177 0.870641 0.704455
0.935239 0.862560 0.702376
0.933418 0.854710 0.700482
0.828114 0.984757 0.871005
0.828114 0.984757 0.871005
0.828114 0.984757 0.871005
0.827353 0.984788 0.871109
0.828529 0.984696 0.871205
0.829839 0.984614 0.871356
0.831834 0.984473 0.871557
0.834549 0.984276 0.871879
0.837544 0.984025 0.872370
0.841678 0.983638 0.873000
0.846822 0.983144 0.873621
0.852998 0.982569 0.873738
0.864047 0.981674 0.872324
0.881620 0.980212 0.868992
0.901886 0.978010 0.865281
0.918119 0.975852 0.861730
0.931154 0.974617 0.855792
0.942747 0.974732 0.844342
0.953487 0.975961 0.823659
0.963395 0.976827 0.788181
0.969121 0.976459 0.743546
0.971173 0.974326 0.718036
0.970475 0.970092 0.711333
0.967958 0.963803 0.717523
0.964306 0.955688 0.729348
0.960216 0.946952 0.739819
0.956232 0.937900 0.747867
0.952519 0.929113 0.753213
0.949197 0.920647 0.756388
0.946337 0.912821 0.757581
0.943648 0.905033 0.758405
0.941635 0.898673 0.757640
0.939742 0.892450 0.756898
0.862379 0.981731 0.872100
0.862379 0.981731 0.872100
0.862379 0.981731 0.872100
0.861850 0.981784 0.872155
0.862712 0.981657 0.872258
0.863677 0.981511 0.872391
0.865203 0.981275 0.872622
0.867000 0.980963 0.872930
0.869098 0.980577 0.873390
0.871986 0.980016 0.874006
0.875420 0.979294 0.874738
0.879028 0.978464 0.875564
0.884351 0.977465 0.875897
0.893362 0.975951 0.875523
0.904510 0.973790 0.875030
0.915032 0.971439 0.874474
0.924501 0.969716 0.872360
0.933682 0.969121 0.867036
0.943399 0.970094 0.855744
0.954123 0.971629 0.836212
0.961646 0.972589 0.814021
0.965953 0.972318 0.791221
0.967495 0.970429 0.772055
0.966976 0.966911 0.765568
0.965001 0.961818 0.768796
0.961969 0.955475 0.776576
0.958908 0.948845 0.783434
0.955819 0.942198 0.789159
0.952972 0.935830 0.793373
0.950406 0.929948 0.796228
0.947993 0.924146 0.798578
0.946058 0.919250 0.799382
0.944245 0.914489 0.800026
0.883673 0.977919 0.874953
0.883673 0.977919 0.874953
0.883673 0.977919 0.874953
0.883388 0.977964 0.874963
0.883775 0.977851 0.875098
0.884415 0.977670 0.875301
0.885513 0.977364 0.875620
0.886775 0.976981 0.876054
0.888238 0.976495 0.876638
0.889933 0.975886 0.877386
0.892023 0.975096 0.878334
0.894164 0.974168 0.879497
0.896880 0.973193 0.880379
0.901566 0.971731 0.881182
0.907658 0.969739 0.882061
0.914224 0.967385 0.882968
0.920748 0.965340 0.882915
0.927425 0.964103 0.880973
0.936022 0.964202 0.874606
0.945361 0.965574 0.863069
0.953313 0.967317 0.848128
0.959028 0.968288 0.832720
0.962375 0.968060 0.819791
0.963678 0.966489 0.811246
0.963401 0.963612 0.807488
0.961558 0.959259 0.808651
0.959546 0.954580 0.810296
0.957247 0.949550 0.812418
0.954989 0.944637 0.814293
0.952779 0.939936 0.815969
0.950703 0.935341 0.817383
0.948951 0.931502 0.818308
0.947314 0.927799 0.819108
0.896612 0.973835 0.879051
0.896612 0.973835 0.879051
0.896612 0.973835 0.879051
0.896588 0.973822 0.879093
0.896860 0.973697 0.879245
0.897262 0.973506 0.879479
0.897833 0.973232 0.879810
0.898585 0.972858 0.880266
0.899701 0.972276 0.880971
0.900819 0.971644 0.881748
0.901954 0.970893 0.882721
0.903194 0.970013 0.883844
0.904658 0.969115 0.884822
0.907196 0.967737 0.886055
0.910575 0.965937 0.887435
0.914522 0.963743 0.888934
0.918892 0.961563 0.889926
0.923743 0.959924 0.889630
0.931078 0.959169 0.886207
0.938267 0.959812 0.879800
0.945278 0.961446 0.870364
0.951474 0.963208 0.859319
0.955949 0.964127 0.848679
0.958611 0.963906 0.839883
0.959900 0.962715 0.833308
0.959538 0.960150 0.830293
0.958724 0.957200 0.828755
0.957281 0.953614 0.828915
0.955709 0.949924 0.829557
0.953987 0.946174 0.830576
0.952364 0.942528 0.831445
0.950778 0.939258 0.832238
0.949300 0.936116 0.832921
0.903445 0.970112 0.883521
0.903445 0.970112 0.883521
0.903445 0.970112 0.883521
0.903338 0.970162 0.883476
0.903530 0.970039 0.883619
0.903908 0.969788 0.883917
0.904313 0.969517 0.884233
0.904837 0.969156 0.884653
0.905553 0.968641 0.885250
0.906349 0.968033 0.885958
0.907108 0.967332 0.886821
0.907960 0.966521 0.887793
0.908872 0.965738 0.888639
0.910366 0.964626 0.889680
0.912594 0.963047 0.890995
0.915278 0.961110 0.892471
0.918369 0.959123 0.893638
0.923235 0.957213 0.893584
0.928694 0.956141 0.891830
0.934249 0.956186 0.888053
0.939945 0.957168 0.882082
0.945410 0.958623 0.874456
0.949947 0.959792 0.866526
0.953200 0.960275 0.859350
0.955330 0.960043 0.853160
0.955979 0.958612 0.848998
0.956111 0.956840 0.845889
0.955596 0.954505 0.844156
0.954786 0.951959 0.843273
0.953678 0.949182 0.843131
0.952630 0.946478 0.843063
0.951352 0.943767 0.843529
0.950168 0.941181 0.843923
0.908318 0.966661 0.887369
0.908318 0.966661 0.887369
0.908318 0.966661 0.887369
0.908181 0.966755 0.887277
0.908314 0.966642 0.887404
0.908625 0.966376 0.887700
0.908914 0.966115 0.887992
0.909296 0.965762 0.888388
0.909750 0.965319 0.888886
0.910282 0.964784 0.889483
0.910767 0.964181 0.890191
0.911333 0.963479 0.890990
0.911887 0.962812 0.891704
0.912718 0.961943 0.892550
0.914137 0.960620 0.893714
