luts/P4P_01_Neutral_size65.cube
# POCKET 4P D-Log2 LUT pack v1.0 - Neutral
# Reference. DJI colour science with the clipped highlights recovered.
# Input:  DJI Osmo Pocket 4P D-Log2 / D-Gamut2, full range
# Output: Rec.709 / gamma 2.4 display
# Built on DJI's official D-Log2 to Rec.709 colorimetry with a
# scene-linear highlight shoulder so nothing clips at +7 stops.
TITLE "POCKET 4P Neutral v1.0"
LUT_3D_SIZE 5
DOMAIN_MIN 0.0 0.0 0.0
DOMAIN_MAX 1.0 1.0 1.0
0.029380 0.029377 0.029384
0.224083 0.009341 0.056742
0.934189 0.026078 0.160724
1.000000 0.400937 0.345019
1.000000 0.529196 0.460539
0.002040 0.226111 0.103408
0.299338 0.318915 0.006101
0.976150 0.040571 0.126525
1.000000 0.404361 0.344596
1.000000 0.526132 0.456015
0.001424 0.812999 0.318010
0.000000 0.844707 0.319551
0.805313 0.872132 0.007641
1.000000 0.637584 0.484487
1.000000 0.630792 0.542950
0.582829 1.000000 0.604402
0.610167 1.000000 0.625107
0.773031 1.000000 0.733457
0.990703 1.000000 0.609034
1.000000 0.956820 0.714402
0.807348 1.000000 0.790840
0.813314 1.000000 0.794731
0.849885 1.000000 0.823813
0.956779 1.000000 0.864658
1.000000 1.000000 0.830911
0.018007 0.029753 0.172036
0.290049 0.016843 0.249261
0.952715 0.036192 0.283565
1.000000 0.404017 0.358424
1.000000 0.528340 0.463654
0.000000 0.272986 0.258948
0.298741 0.298741 0.298741
0.990551 0.085040 0.266759
1.000000 0.408667 0.358017
1.000000 0.527687 0.461448
0.003200 0.825829 0.364931
0.000159 0.851499 0.365519
0.809181 0.871836 0.086013
1.000000 0.634579 0.493844
1.000000 0.632890 0.548662
0.591367 1.000000 0.613852
0.606735 1.000000 0.626068
0.776561 1.000000 0.738763
0.990834 1.000000 0.612112
1.000000 0.956992 0.716933
0.809478 1.000000 0.792768
0.812807 1.000000 0.794980
0.850613 1.000000 0.825367
0.956906 1.000000 0.866280
1.000000 1.000000 0.832119
0.007228 0.324358 0.692656
0.046583 0.276694 0.842646
0.937673 0.027761 0.783626
1.000000 0.459745 0.606454
1.000000 0.569804 0.615053
0.006476 0.332506 0.700464
0.039643 0.288572 0.835477
0.933998 0.034227 0.780137
1.000000 0.453790 0.602705
1.000000 0.562211 0.608838
0.316067 0.811339 0.774252
0.348634 0.815360 0.778318
0.797313 0.793771 0.793416
1.000000 0.673238 0.698485
1.000000 0.661877 0.663112
0.565362 1.000000 0.733478
0.581475 1.000000 0.739017
0.725562 1.000000 0.771408
0.987258 1.000000 0.749994
1.000000 0.954815 0.796675
0.832751 1.000000 0.851546
0.838227 1.000000 0.855753
0.875627 1.000000 0.879499
0.962354 1.000000 0.884928
1.000000 1.000000 0.849763
0.112205 0.506356 1.000000
0.111838 0.502745 1.000000
0.600914 0.541475 1.000000
1.000000 0.495125 0.901986
1.000000 0.601430 0.787901
0.113963 0.507224 1.000000
0.106745 0.500577 1.000000
0.595474 0.531631 1.000000
1.000000 0.482979 0.900677
1.000000 0.591167 0.783610
0.276691 0.638451 1.000000
0.279531 0.628253 1.000000
0.627331 0.669062 1.000000
1.000000 0.587067 0.917030
1.000000 0.643063 0.807011
0.740049 0.985392 0.962522
0.744209 0.985966 0.963556
0.809594 0.984924 0.968696
0.970284 0.970276 0.970233
1.000000 0.954857 0.961342
0.799942 1.000000 0.942397
0.805027 1.000000 0.943812
0.846319 1.000000 0.952543
0.955313 1.000000 0.965892
1.000000 1.000000 0.965378
0.377195 0.644500 1.000000
0.368188 0.639055 1.000000
0.509650 0.664528 1.000000
0.978820 0.647058 1.000000
1.000000 0.663365 0.926561
0.376282 0.643939 1.000000
0.363352 0.636245 1.000000
0.497958 0.654302 1.000000
0.977286 0.634288 1.000000
1.000000 0.652150 0.924150
0.431868 0.682278 1.000000
0.421664 0.675906 1.000000
0.528926 0.689404 1.000000
0.980237 0.670343 1.000000
1.000000 0.680209 0.930726
0.764230 0.961907 1.000000
0.766151 0.961873 1.000000
0.790864 0.958368 1.000000
0.969852 0.964048 1.000000
1.000000 0.949437 0.996034
0.867103 1.000000 0.994393
0.870125 1.000000 0.994909
0.891536 1.000000 0.997289
0.967620 1.000000 0.999098
1.000000 0.999710 0.999309
