luts/P4P_04_PrintFilm_size33.cube
# POCKET 4P D-Log2 LUT pack v1.0 - PrintFilm
# Photochemical print feel: dense blacks, warm highlights.
# Input:  DJI Osmo Pocket 4P D-Log2 / D-Gamut2, full range
# Output: Rec.709 / gamma 2.4 display
# Built on DJI's official D-Log2 to Rec.709 colorimetry with a
# scene-linear highlight shoulder so nothing clips at +7 stops.
TITLE "POCKET 4P PrintFilm v1.0"
LUT_3D_SIZE 5
DOMAIN_MIN 0.0 0.0 0.0
DOMAIN_MAX 1.0 1.0 1.0
0.006595 0.012723 0.045164
0.145159 0.000000 0.031448
0.876123 0.000000 0.000000
0.938486 0.328155 0.227219
0.944504 0.537812 0.400766
0.055958 0.232235 0.137743
0.338000 0.364672 0.103850
0.899738 0.000000 0.000000
0.938817 0.335110 0.228258
0.944455 0.533464 0.394662
0.306713 0.948741 0.582862
0.323580 0.957371 0.599880
0.946890 0.959999 0.303784
0.952587 0.758197 0.478440
0.949469 0.716649 0.535664
0.854860 0.977833 0.842824
0.867101 0.976953 0.850694
0.915453 0.971940 0.884508
0.967432 0.970369 0.804112
0.964332 0.952095 0.839048
0.919924 0.969698 0.901196
0.921190 0.969484 0.902078
0.929200 0.967892 0.908622
0.952289 0.964314 0.914827
0.962175 0.963794 0.901394
0.000000 0.000000 0.124544
0.166229 0.000000 0.148164
0.873817 0.000000 0.062324
0.938015 0.328445 0.241874
0.944265 0.534584 0.403630
0.036391 0.262556 0.266060
0.263820 0.263445 0.277883
0.897886 0.000000 0.050109
0.938481 0.337821 0.243426
0.944316 0.534231 0.401033
0.299113 0.950052 0.631511
0.313106 0.957282 0.645321
0.946206 0.958810 0.326408
0.951964 0.747503 0.486381
0.949384 0.718518 0.542778
0.858305 0.977486 0.846798
0.865069 0.976972 0.851445
0.915977 0.971737 0.886131
0.967334 0.970245 0.805997
0.964257 0.952014 0.840294
0.920332 0.969605 0.901672
0.921034 0.969483 0.902174
0.929291 0.967825 0.909017
0.952220 0.964242 0.915294
0.962138 0.963733 0.901743
0.000000 0.204369 0.703533
0.000000 0.068355 0.803465
0.770627 0.000000 0.544845
0.926911 0.334452 0.524748
0.939530 0.551380 0.586882
0.000000 0.216249 0.714643
0.000000 0.091657 0.802194
0.768874 0.000000 0.543364
0.926462 0.324390 0.517883
0.939103 0.538326 0.576513
0.403249 0.906582 0.882828
0.442062 0.906852 0.883012
0.873448 0.867262 0.853391
0.945277 0.731525 0.724798
0.946204 0.726449 0.683042
0.820423 0.974687 0.895852
0.830790 0.974313 0.896633
0.896808 0.971226 0.898907
0.960785 0.962613 0.870875
0.961226 0.946850 0.873389
0.921796 0.967251 0.916943
0.923120 0.966984 0.917880
0.932050 0.965302 0.922706
0.952226 0.963307 0.920306
0.961672 0.962265 0.906211
0.000000 0.414873 0.923647
0.000000 0.407218 0.923643
0.511075 0.409080 0.910688
0.905164 0.298762 0.812337
0.931402 0.552217 0.772221
0.000000 0.416202 0.923836
0.000000 0.403893 0.923227
0.498159 0.390511 0.909517
0.903240 0.275655 0.807768
0.930389 0.532820 0.765239
0.169788 0.657856 0.936243
0.166817 0.636457 0.935036
0.624068 0.664174 0.925527
0.918272 0.475740 0.846842
0.935298 0.631119 0.799676
0.867735 0.952773 0.941606
0.869511 0.952803 0.941769
0.894257 0.950714 0.940958
0.942892 0.940832 0.933986
0.953565 0.933599 0.927265
0.901177 0.962813 0.939751
0.902706 0.962689 0.939920
0.915394 0.961276 0.940411
0.944045 0.955164 0.938372
0.953513 0.953066 0.936138
0.290179 0.654998 0.933596
0.276124 0.645173 0.933290
0.466262 0.674795 0.931016
0.899152 0.568103 0.904816
0.928428 0.628351 0.869733
0.288747 0.653982 0.933564
0.268671 0.640138 0.933138
0.445189 0.655789 0.930272
0.895972 0.541929 0.902869
0.927110 0.606382 0.866138
0.377951 0.718465 0.935581
0.362102 0.709012 0.935350
0.503866 0.714815 0.932722
0.903918 0.613502 0.908202
0.930016 0.656029 0.874637
0.863993 0.940489 0.948780
0.864803 0.940402 0.948786
0.874201 0.938054 0.948492
0.939434 0.934951 0.941996
0.949799 0.927672 0.935796
0.916130 0.955024 0.946733
0.917139 0.954986 0.946762
0.923912 0.954391 0.946597
0.943804 0.950433 0.944009
0.950470 0.948625 0.942572
