luts/P4P_07_NightNeon_size65.cube
# POCKET 4P D-Log2 LUT pack v1.0 - NightNeon
# Interiors and night. Open shadows, magenta/cyan separation.
# Input:  DJI Osmo Pocket 4P D-Log2 / D-Gamut2, full range
# Output: Rec.709 / gamma 2.4 display
# Built on DJI's official D-Log2 to Rec.709 colorimetry with a
# scene-linear highlight shoulder so nothing clips at +7 stops.
TITLE "POCKET 4P NightNeon v1.0"
LUT_3D_SIZE 65
DOMAIN_MIN 0.0 0.0 0.0
DOMAIN_MAX 1.0 1.0 1.0
0.036484 0.012580 0.062778
0.036484 0.012580 0.062778
0.036484 0.012580 0.062778
0.036484 0.012580 0.062778
0.036484 0.012580 0.062778
0.044126 0.002335 0.058247
0.055827 0.000000 0.057115
0.065229 0.000000 0.055379
0.073947 0.000000 0.053772
0.082207 0.000000 0.052454
0.092158 0.000000 0.051163
0.104615 0.000000 0.049790
0.117556 0.000000 0.048687
0.132870 0.000000 0.047671
0.150022 0.000000 0.046631
0.170690 0.000000 0.045593
0.194359 0.000000 0.044429
0.220585 0.000000 0.043036
0.251121 0.000000 0.041417
0.284764 0.000000 0.039517
0.322446 0.000000 0.037326
0.363687 0.000000 0.035200
0.407137 0.000000 0.033062
0.454018 0.000000 0.031160
0.502146 0.000000 0.029601
0.551761 0.000000 0.027938
0.602234 0.000000 0.026148
0.651723 0.000000 0.023942
0.700825 0.000000 0.021214
0.743473 0.000000 0.017997
0.787130 0.000000 0.012557
0.820084 0.000000 0.008260
0.843425 0.000000 0.006766
0.860480 0.000000 0.008962
0.873473 0.000000 0.015587
0.883091 0.000000 0.030883
0.891121 0.000000 0.051009
0.897666 0.026450 0.073914
0.901944 0.078032 0.097700
0.905716 0.125461 0.120945
0.908368 0.163066 0.142467
0.910702 0.197337 0.162558
0.912360 0.224215 0.180216
0.913883 0.249510 0.196990
0.915000 0.270237 0.212391
0.916055 0.290010 0.227069
0.916919 0.307470 0.240887
0.917683 0.323549 0.253982
0.918406 0.338865 0.266452
0.919013 0.352982 0.278640
0.919585 0.366408 0.290251
0.920126 0.379187 0.301302
0.920630 0.391592 0.312418
0.921105 0.403460 0.323157
0.921555 0.414751 0.333375
0.921980 0.425491 0.343094
0.922369 0.435819 0.352807
0.922736 0.445645 0.362067
0.923084 0.454989 0.370874
0.923413 0.463872 0.379248
0.923724 0.472385 0.387328
0.924015 0.480824 0.395616
0.924290 0.488845 0.403495
0.924550 0.496469 0.410985
0.924797 0.503714 0.418105
0.036484 0.012580 0.062778
0.036484 0.012580 0.062778
0.036484 0.012580 0.062778
0.036484 0.012580 0.062778
0.036484 0.012580 0.062778
0.044126 0.002335 0.058247
0.055827 0.000000 0.057115
0.065229 0.000000 0.055379
0.073947 0.000000 0.053772
0.082207 0.000000 0.052454
0.092158 0.000000 0.051163
0.104615 0.000000 0.049790
0.117556 0.000000 0.048687
0.132870 0.000000 0.047671
0.150022 0.000000 0.046631
0.170690 0.000000 0.045593
0.194359 0.000000 0.044429
0.220585 0.000000 0.043036
0.251121 0.000000 0.041417
0.284764 0.000000 0.039517
0.322446 0.000000 0.037326
0.363687 0.000000 0.035200
0.407137 0.000000 0.033062
0.454018 0.000000 0.031160
0.502146 0.000000 0.029601
0.551761 0.000000 0.027938
0.602234 0.000000 0.026148
0.651723 0.000000 0.023942
0.700825 0.000000 0.021214
0.743473 0.000000 0.017997
0.787130 0.000000 0.012557
0.820084 0.000000 0.008260
0.843425 0.000000 0.006766
0.860480 0.000000 0.008962
0.873473 0.000000 0.015587
0.883091 0.000000 0.030883
0.891121 0.000000 0.051009
0.897666 0.026450 0.073914
0.901944 0.078032 0.097700
0.905716 0.125461 0.120945
0.908368 0.163066 0.142467
0.910702 0.197337 0.162558
0.912360 0.224215 0.180216
0.913883 0.249510 0.196990
0.915000 0.270237 0.212391
0.916055 0.290010 0.227069
0.916919 0.307470 0.240887
0.917683 0.323549 0.253982
0.918406 0.338865 0.266452
0.919013 0.352982 0.278640
0.919585 0.366408 0.290251
0.920126 0.379187 0.301302
0.920630 0.391592 0.312418
0.921105 0.403460 0.323157
0.921555 0.414751 0.333375
0.921980 0.425491 0.343094
0.922369 0.435819 0.352807
0.922736 0.445645 0.362067
0.923084 0.454989 0.370874
0.923413 0.463872 0.379248
0.923724 0.472385 0.387328
0.924015 0.480824 0.395616
0.924290 0.488845 0.403495
0.924550 0.496469 0.410985
0.924797 0.503714 0.418105
0.036484 0.012580 0.062778
0.036484 0.012580 0.062778
0.036484 0.012580 0.062778
0.036484 0.012580 0.062778
0.036484 0.012580 0.062778
0.044126 0.002335 0.058247
0.055827 0.000000 0.057115
0.065229 0.000000 0.055379
0.073947 0.000000 0.053772
0.082207 0.000000 0.052454
0.092158 0.000000 0.051163
0.104615 0.000000 0.049790
0.117556 0.000000 0.048687
0.132870 0.000000 0.047671
0.150022 0.000000 0.046631
0.170690 0.000000 0.045593
0.194359 0.000000 0.044429
0.220585 0.000000 0.043036
0.251121 0.000000 0.041417
0.284764 0.000000 0.039517
0.322446 0.000000 0.037326
0.363687 0.000000 0.035200
0.407137 0.000000 0.033062
0.454018 0.000000 0.031160
0.502146 0.000000 0.029601
0.551761 0.000000 0.027938
0.602234 0.000000 0.026148
0.651723 0.000000 0.023942
0.700825 0.000000 0.021214
0.743473 0.000000 0.017997
0.787130 0.000000 0.012557
0.820084 0.000000 0.008260
0.843425 0.000000 0.006766
0.860480 0.000000 0.008962
0.873473 0.000000 0.015587
0.883091 0.000000 0.030883
0.891121 0.000000 0.051009
0.897666 0.026450 0.073914
0.901944 0.078032 0.097700
0.905716 0.125461 0.120945
0.908368 0.163066 0.142467
0.910702 0.197337 0.162558
0.912360 0.224215 0.180216
0.913883 0.249510 0.196990
0.915000 0.270237 0.212391
0.916055 0.290010 0.227069
0.916919 0.307470 0.240887
0.917683 0.323549 0.253982
0.918406 0.338865 0.266452
0.919013 0.352982 0.278640
0.919585 0.366408 0.290251
0.920126 0.379187 0.301302
0.920630 0.391592 0.312418
0.921105 0.403460 0.323157
0.921555 0.414751 0.333375
0.921980 0.425491 0.343094
0.922369 0.435819 0.352807
0.922736 0.445645 0.362067
0.923084 0.454989 0.370874
0.923413 0.463872 0.379248
0.923724 0.472385 0.387328
0.924015 0.480824 0.395616
0.924290 0.488845 0.403495
0.924550 0.496469 0.410985
0.924797 0.503714 0.418105
0.036484 0.012580 0.062778
0.036484 0.012580 0.062778
0.036484 0.012580 0.062778
0.036484 0.012580 0.062778
0.036484 0.012580 0.062778
0.044126 0.002335 0.058247
0.055827 0.000000 0.057115
0.065229 0.000000 0.055379
0.073947 0.000000 0.053772
0.082207 0.000000 0.052454
0.092158 0.000000 0.051163
0.104615 0.000000 0.049790
0.117556 0.000000 0.048687
0.132870 0.000000 0.047671
0.150022 0.000000 0.046631
0.170690 0.000000 0.045593
0.194359 0.000000 0.044429
0.220585 0.000000 0.043036
0.251121 0.000000 0.041417
0.284764 0.000000 0.039517
0.322446 0.000000 0.037326
0.363687 0.000000 0.035200
0.407137 0.000000 0.033062
0.454018 0.000000 0.031160
0.502146 0.000000 0.029601
0.551761 0.000000 0.027938
0.602234 0.000000 0.026148
0.651723 0.000000 0.023942
0.700825 0.000000 0.021214
0.743473 0.000000 0.017997
0.787130 0.000000 0.012557
0.820084 0.000000 0.008260
0.843425 0.000000 0.006766
0.860480 0.000000 0.008962
0.873473 0.000000 0.015587
0.883091 0.000000 0.030883
0.891121 0.000000 0.051009
0.897666 0.026450 0.073914
0.901944 0.078032 0.097700
0.905716 0.125461 0.120945
0.908368 0.163066 0.142467
0.910702 0.197337 0.162558
0.912360 0.224215 0.180216
0.913883 0.249510 0.196990
0.915000 0.270237 0.212391
0.916055 0.290010 0.227069
0.916919 0.307470 0.240887
0.917683 0.323549 0.253982
0.918406 0.338865 0.266452
0.919013 0.352982 0.278640
0.919585 0.366408 0.290251
0.920126 0.379187 0.301302
0.920630 0.391592 0.312418
0.921105 0.403460 0.323157
0.921555 0.414751 0.333375
0.921980 0.425491 0.343094
0.922369 0.435819 0.352807
0.922736 0.445645 0.362067
0.923084 0.454989 0.370874
0.923413 0.463872 0.379248
0.923724 0.472385 0.387328
0.924015 0.480824 0.395616
0.924290 0.488845 0.403495
0.924550 0.496469 0.410985
0.924797 0.503714 0.418105
0.036484 0.012580 0.062778
0.036484 0.012580 0.062778
0.036484 0.012580 0.062778
0.036484 0.012580 0.062778
0.036484 0.012580 0.062778
0.044126 0.002335 0.058247
0.055827 0.000000 0.057115
0.065229 0.000000 0.055379
0.073947 0.000000 0.053772
0.082207 0.000000 0.052454
0.092158 0.000000 0.051163
0.104615 0.000000 0.049790
0.117556 0.000000 0.048687
0.132870 0.000000 0.047671
0.150022 0.000000 0.046631
0.170690 0.000000 0.045593
0.194359 0.000000 0.044429
0.220585 0.000000 0.043036
0.251121 0.000000 0.041417
0.284764 0.000000 0.039517
0.322446 0.000000 0.037326
0.363687 0.000000 0.035200
0.407137 0.000000 0.033062
0.454018 0.000000 0.031160
0.502146 0.000000 0.029601
0.551761 0.000000 0.027938
0.602234 0.000000 0.026148
0.651723 0.000000 0.023942
0.700825 0.000000 0.021214
0.743473 0.000000 0.017997
0.787130 0.000000 0.012557
0.820084 0.000000 0.008260
0.843425 0.000000 0.006766
0.860480 0.000000 0.008962
0.873473 0.000000 0.015587
0.883091 0.000000 0.030883
0.891121 0.000000 0.051009
0.897666 0.026450 0.073914
0.901944 0.078032 0.097700
0.905716 0.125461 0.120945
0.908368 0.163066 0.142467
0.910702 0.197337 0.162558
0.912360 0.224215 0.180216
0.913883 0.249510 0.196990
0.915000 0.270237 0.212391
0.916055 0.290010 0.227069
0.916919 0.307470 0.240887
0.917683 0.323549 0.253982
0.918406 0.338865 0.266452
0.919013 0.352982 0.278640
0.919585 0.366408 0.290251
0.920126 0.379187 0.301302
0.920630 0.391592 0.312418
0.921105 0.403460 0.323157
0.921555 0.414751 0.333375
0.921980 0.425491 0.343094
0.922369 0.435819 0.352807
0.922736 0.445645 0.362067
0.923084 0.454989 0.370874
0.923413 0.463872 0.379248
0.923724 0.472385 0.387328
0.924015 0.480824 0.395616
0.924290 0.488845 0.403495
0.924550 0.496469 0.410985
0.924797 0.503714 0.418105
0.034050 0.025418 0.062542
0.034050 0.025418 0.062542
0.034050 0.025418 0.062542
0.034050 0.025418 0.062542
0.034050 0.025418 0.062542
0.047555 0.024604 0.061299
0.064185 0.021696 0.056807
0.075188 0.019383 0.054161
0.083993 0.016472 0.052412
0.095066 0.012681 0.050422
0.106548 0.009403 0.048646
0.119529 0.004864 0.046748
0.133507 0.000137 0.045375
0.148502 0.000000 0.043908
0.166036 0.000000 0.042378
0.186067 0.000000 0.041048
0.208093 0.000000 0.039599
0.233923 0.000000 0.038072
0.262471 0.000000 0.036396
0.294989 0.000000 0.034618
0.331187 0.000000 0.032823
0.369912 0.000000 0.030804
0.412658 0.000000 0.028980
0.457999 0.000000 0.027387
0.504428 0.000000 0.026009
0.553118 0.000000 0.025023
0.601642 0.000000 0.023675
0.651105 0.000000 0.021968
0.699527 0.000000 0.019654
0.741352 0.000000 0.016819
0.784870 0.000000 0.011799
0.817999 0.000000 0.007609
0.841687 0.000000 0.006020
0.859115 0.000000 0.007901
0.872278 0.000000 0.013960
0.881841 0.000000 0.027880
0.889881 0.000000 0.046811
0.896683 0.017479 0.069264
0.901189 0.069046 0.092873
0.905130 0.116852 0.115762
0.907816 0.154643 0.137149
0.910204 0.189305 0.157243
0.911956 0.217278 0.175362
0.913561 0.243531 0.192522
0.914696 0.264334 0.207818
0.915768 0.284181 0.222397
0.916646 0.301688 0.236119
0.917423 0.317803 0.249122
0.918157 0.333154 0.261505
0.918775 0.347364 0.273694
0.919358 0.360881 0.285309
0.919910 0.373746 0.296363
0.920410 0.385933 0.307213
0.920878 0.397511 0.317626
0.921320 0.408526 0.327533
0.921739 0.419003 0.336957
0.922134 0.429362 0.346634
0.922507 0.439233 0.355874
0.922861 0.448618 0.364661
0.923196 0.457541 0.373016
0.923511 0.466068 0.381056
0.923801 0.474397 0.389188
0.924076 0.482313 0.396919
0.924336 0.489837 0.404268
0.924583 0.496988 0.411254
0.035867 0.040817 0.068274
0.035867 0.040817 0.068274
0.035867 0.040817 0.068274
0.035867 0.040817 0.068274
0.035867 0.040817 0.068274
0.049994 0.047307 0.063700
0.066890 0.045655 0.062041
0.080159 0.046444 0.057511
0.092443 0.047820 0.053484
0.105666 0.044488 0.051450
0.118798 0.039375 0.049376
0.133690 0.032650 0.047288
0.148979 0.025180 0.045031
0.165177 0.018913 0.042977
0.183505 0.011121 0.040662
0.202825 0.002194 0.038345
0.225154 0.000000 0.036311
0.249683 0.000000 0.034136
0.277909 0.000000 0.032037
0.309397 0.000000 0.030020
0.343284 0.000000 0.028142
0.381313 0.000000 0.026445
0.422413 0.000000 0.024720
0.465281 0.000000 0.023377
0.511196 0.000000 0.022437
0.557706 0.000000 0.021874
0.606054 0.000000 0.021103
0.654581 0.000000 0.019874
0.701434 0.000000 0.017992
0.743019 0.000000 0.015492
0.786111 0.000000 0.010667
0.818775 0.000000 0.006708
0.842214 0.000000 0.005300
0.859397 0.000000 0.007260
0.872257 0.000000 0.013215
0.881906 0.000000 0.027268
0.889963 0.000000 0.046227
0.896702 0.017535 0.068558
0.901155 0.068091 0.091739
0.905051 0.115138 0.114242
0.907771 0.153443 0.135947
0.910177 0.188368 0.156201
0.911897 0.215831 0.173986
0.913477 0.241658 0.190869
0.914624 0.262615 0.206250
0.915706 0.282610 0.220911
0.916590 0.300204 0.234688
0.917370 0.316382 0.247734
0.918108 0.331792 0.260157
0.918715 0.345717 0.272087
0.919287 0.358953 0.283447
0.919829 0.371551 0.294258
0.920331 0.383765 0.305125
0.920803 0.395447 0.315622
0.921251 0.406561 0.325609
0.921674 0.417132 0.335109
0.922067 0.427447 0.344737
0.922439 0.437270 0.353923
0.922791 0.446610 0.362659
0.923124 0.455489 0.370966
0.923437 0.463951 0.378934
0.923723 0.472094 0.386866
0.923994 0.479835 0.394407
0.924250 0.487191 0.401575
0.924493 0.494183 0.408388
0.035816 0.055484 0.075946
0.035816 0.055484 0.075946
0.035816 0.055484 0.075946
0.035816 0.055484 0.075946
0.035816 0.055484 0.075946
0.050665 0.064544 0.070327
0.067482 0.068223 0.066536
0.083219 0.068565 0.064246
0.097378 0.069908 0.059680
0.116199 0.071882 0.053273
0.131768 0.071172 0.049593
0.147608 0.066340 0.047062
0.165690 0.059073 0.044692
0.183151 0.049268 0.042575
0.200974 0.039022 0.040345
0.221355 0.028697 0.037681
0.243138 0.017952 0.034770
0.267133 0.005823 0.031648
0.294445 0.000000 0.028862
0.324048 0.000000 0.026214
0.357559 0.000000 0.023918
0.393889 0.000000 0.021985
0.432981 0.000000 0.020392
0.475330 0.000000 0.018996
0.518916 0.000000 0.018207
0.564989 0.000000 0.017919
0.611942 0.000000 0.017922
0.658447 0.000000 0.017273
0.705162 0.000000 0.015936
0.744935 0.000000 0.013892
0.787684 0.000000 0.009317
0.820064 0.000000 0.005610
0.842965 0.000000 0.004386
0.859761 0.000000 0.006507
0.872679 0.000000 0.012672
0.882154 0.000000 0.026703
0.890098 0.000000 0.045627
0.896765 0.017741 0.067910
0.901247 0.068755 0.091396
0.905171 0.116130 0.114153
0.907831 0.153663 0.135487
0.910194 0.188067 0.155516
0.911925 0.215765 0.173503
0.913512 0.241782 0.190553
0.914648 0.262598 0.205870
0.915720 0.282458 0.220470
0.916589 0.299775 0.234042
0.917353 0.315627 0.246833
0.918076 0.330727 0.259014
0.918689 0.344803 0.271087
0.919267 0.358194 0.282592
0.919814 0.370940 0.293542
0.920315 0.383119 0.304379
0.920784 0.394720 0.314803
0.921228 0.405756 0.324720
0.921649 0.416253 0.334154
0.922036 0.426401 0.343625
0.922401 0.436060 0.352656
0.922748 0.445243 0.361245
0.923076 0.453975 0.369412
0.923385 0.462334 0.377283
0.923675 0.470581 0.385309
0.923950 0.478419 0.392940
0.924210 0.485869 0.400193
0.924456 0.492949 0.407088
0.035797 0.070530 0.082506
0.035797 0.070530 0.082506
0.035797 0.070530 0.082506
0.035797 0.070530 0.082506
0.035797 0.070530 0.082506
0.051607 0.079596 0.075861
0.070206 0.085440 0.071328
0.086097 0.088755 0.069635
0.101806 0.090903 0.066710
0.121095 0.093141 0.060648
0.141288 0.097426 0.054010
0.159530 0.099377 0.049629
0.178649 0.093317 0.046013
0.198704 0.084170 0.042726
0.219307 0.073845 0.039428
0.239963 0.061196 0.036133
0.262400 0.047680 0.033261
0.286223 0.032757 0.030442
0.311642 0.018472 0.026990
0.341059 0.002377 0.023436
0.372369 0.000000 0.020380
0.407343 0.000000 0.017973
0.445495 0.000000 0.016191
0.485439 0.000000 0.014886
0.528493 0.000000 0.014021
0.573134 0.000000 0.013968
0.617908 0.000000 0.014395
0.664099 0.000000 0.014370
0.708935 0.000000 0.013554
0.747933 0.000000 0.011977
0.790553 0.000000 0.007601
0.821705 0.000000 0.004287
0.844194 0.000000 0.003433
0.860819 0.000000 0.005937
0.873427 0.000000 0.012491
0.882655 0.000000 0.026802
0.890467 0.000000 0.046029
0.897041 0.020464 0.068515
0.901423 0.070420 0.091605
0.905259 0.116810 0.114019
0.907930 0.154593 0.135577
0.910295 0.189146 0.155768
0.912007 0.216672 0.173723
0.913576 0.242494 0.190715
0.914686 0.262885 0.205749
0.915734 0.282337 0.220078
0.916602 0.299684 0.233709
0.917374 0.315732 0.246685
0.918103 0.331020 0.259042
0.918706 0.344844 0.270908
0.919273 0.357985 0.282205
0.919811 0.370491 0.292957
0.920308 0.382622 0.303759
0.920776 0.394227 0.314192
0.921220 0.405266 0.324118
0.921639 0.415766 0.333560
0.922028 0.425997 0.343114
0.922397 0.435738 0.352230
0.922746 0.445000 0.360898
0.923076 0.453806 0.369141
0.923387 0.462200 0.377050
0.923671 0.470294 0.384930
0.923940 0.477986 0.392421
0.924196 0.485298 0.399542
0.924437 0.492246 0.406311
0.036575 0.085126 0.088270
0.036575 0.085126 0.088270
0.036575 0.085126 0.088270
0.036575 0.085126 0.088270
0.036575 0.085126 0.088270
0.053395 0.096646 0.082666
0.072944 0.105566 0.077307
0.090090 0.112406 0.074685
0.105372 0.115849 0.074512
0.124663 0.117811 0.070378
0.145340 0.122884 0.063582
0.169059 0.126528 0.056329
0.190863 0.126879 0.051341
0.211633 0.123159 0.047038
0.233541 0.114251 0.042492
0.257067 0.101892 0.038016
0.281064 0.086744 0.033475
0.304989 0.068750 0.029075
0.331398 0.049766 0.024948
0.359796 0.030475 0.021341
0.389761 0.010627 0.018020
0.423383 0.000000 0.014742
0.458838 0.000000 0.012290
0.497857 0.000000 0.010703
0.539137 0.000000 0.009763
0.581400 0.000000 0.009686
0.625633 0.000000 0.010339
0.669611 0.000000 0.011087
0.713945 0.000000 0.010895
0.751552 0.000000 0.009798
0.793231 0.000000 0.005700
0.823519 0.000000 0.002813
0.845353 0.000000 0.002300
0.861478 0.000000 0.005082
0.873850 0.000000 0.011874
0.883086 0.000000 0.026724
0.890841 0.000000 0.046226
0.897242 0.022077 0.068569
0.901626 0.072500 0.091997
0.905480 0.119245 0.114767
0.908103 0.156485 0.136122
0.910422 0.190523 0.156109
0.912097 0.217575 0.173827
0.913636 0.243006 0.190637
0.914751 0.263578 0.205868
0.915803 0.283202 0.220385
0.916658 0.300381 0.233925
0.917413 0.316135 0.246705
0.918126 0.331140 0.258875
0.918730 0.345066 0.270852
0.919300 0.358314 0.282263
0.919839 0.370922 0.293124
0.920335 0.383038 0.303927
0.920801 0.394596 0.314333
0.921243 0.405591 0.324233
0.921660 0.416049 0.333651
0.922042 0.426097 0.343041
0.922404 0.435657 0.351993
0.922746 0.444747 0.360506
0.923069 0.453388 0.368600
0.923376 0.461665 0.376405
0.923663 0.469854 0.384382
0.923935 0.477637 0.391965
0.924193 0.485034 0.399174
0.924437 0.492064 0.406026
0.039442 0.102887 0.094719
0.039442 0.102887 0.094719
0.039442 0.102887 0.094719
0.039442 0.102887 0.094719
0.039442 0.102887 0.094719
0.055942 0.115931 0.090486
0.075191 0.126052 0.084899
0.093323 0.136037 0.081624
0.109926 0.142408 0.079456
0.128896 0.144410 0.078339
0.150906 0.147904 0.073670
0.175378 0.153561 0.066185
0.201405 0.156659 0.059385
0.225172 0.156679 0.053784
0.248054 0.152910 0.048743
0.272803 0.144257 0.043090
0.298111 0.130721 0.037196
0.324778 0.113943 0.031333
0.351576 0.092601 0.025745
0.379885 0.068069 0.020125
0.409870 0.042544 0.015223
0.441272 0.017429 0.011449
0.475488 0.000000 0.008825
0.512249 0.000000 0.006695
0.551208 0.000000 0.005629
0.592625 0.000000 0.005274
0.634339 0.000000 0.005910
0.677600 0.000000 0.007184
0.720151 0.000000 0.007621
0.756784 0.000000 0.006827
0.797299 0.000000 0.003227
0.825885 0.000000 0.000865
0.846899 0.000000 0.000819
0.862708 0.000000 0.004100
0.874875 0.000000 0.011497
0.883714 0.000000 0.026577
0.891294 0.000000 0.046537
0.897674 0.025769 0.069522
0.901975 0.076048 0.093043
0.905751 0.122338 0.115865
0.908306 0.158822 0.136929
0.910572 0.192289 0.156724
0.912235 0.219319 0.174542
0.913760 0.244676 0.191404
0.914839 0.264725 0.206326
0.915858 0.283850 0.220547
0.916705 0.300956 0.234088
0.917460 0.316805 0.246983
0.918173 0.331900 0.259263
0.918775 0.345809 0.271253
0.919343 0.359038 0.282674
0.919881 0.371628 0.293544
0.920369 0.383564 0.304205
0.920825 0.394908 0.314434
0.921257 0.405699 0.324166
0.921666 0.415962 0.333423
0.922053 0.426137 0.342935
0.922419 0.435833 0.352017
0.922765 0.445052 0.360654
0.923093 0.453817 0.368866
0.923402 0.462171 0.376745
0.923685 0.470224 0.384593
0.923953 0.477879 0.392055
0.924207 0.485153 0.399147
0.924448 0.492066 0.405889
0.043719 0.123441 0.102706
0.043719 0.123441 0.102706
0.043719 0.123441 0.102706
0.043719 0.123441 0.102706
0.043719 0.123441 0.102706
0.058584 0.136934 0.099397
0.077043 0.149112 0.094335
0.095744 0.159424 0.089506
0.113879 0.169397 0.086960
0.133003 0.174412 0.084519
0.154788 0.178680 0.083089
0.182312 0.182054 0.077160
0.208598 0.186903 0.070040
0.235890 0.190357 0.063545
0.262488 0.189763 0.057133
0.288704 0.185044 0.050896
0.314911 0.176539 0.044488
0.342809 0.161485 0.037188
0.372494 0.142411 0.029862
0.402710 0.119193 0.022764
0.432640 0.091000 0.016223
0.464341 0.059819 0.010184
0.496946 0.027249 0.005401
0.530600 0.000000 0.002554
0.567183 0.000000 0.001279
0.605247 0.000000 0.000894
0.645953 0.000000 0.001096
0.687376 0.000000 0.002265
0.726746 0.000000 0.003461
0.763977 0.000000 0.002906
0.801307 0.000000 0.000094
0.828648 0.000000 0.000000
0.848867 0.000000 0.000000
0.864029 0.000000 0.002989
0.875678 0.000000 0.010967
0.884437 0.000000 0.026991
0.891920 0.000000 0.047600
0.898094 0.029951 0.070726
0.902284 0.079384 0.094007
0.905977 0.124856 0.116687
0.908529 0.161511 0.137999
0.910777 0.194927 0.157887
0.912381 0.221187 0.175315
0.913857 0.245892 0.191859
0.914937 0.266081 0.206958
0.915958 0.285339 0.221349
0.916796 0.302381 0.234888
0.917538 0.318089 0.247716
0.918240 0.333051 0.259932
0.918832 0.346731 0.271751
0.919389 0.359739 0.283007
0.919917 0.372118 0.293719
0.920407 0.384126 0.304469
0.920867 0.395613 0.314848
0.921303 0.406539 0.324723
0.921716 0.416932 0.334116
0.922097 0.426990 0.343535
0.922457 0.436564 0.352517
0.922798 0.445666 0.361059
0.923121 0.454319 0.369181
0.923426 0.462594 0.376998
0.923711 0.470704 0.384911
0.923980 0.478412 0.392434
0.924235 0.485738 0.399586
0.924477 0.492700 0.406383
0.048074 0.145768 0.112117
0.048074 0.145768 0.112117
0.048074 0.145768 0.112117
0.048074 0.145768 0.112117
0.048074 0.145768 0.112117
0.061950 0.160949 0.109918
0.078729 0.173916 0.105219
0.097895 0.186705 0.099294
0.115945 0.197641 0.096544
0.136265 0.205978 0.093056
0.159064 0.212696 0.090880
0.185921 0.215322 0.087731
0.215545 0.219813 0.082136
0.244419 0.224231 0.075107
0.273992 0.227229 0.068293
0.303824 0.226344 0.061082
0.332007 0.220344 0.053705
0.361408 0.210175 0.045855
0.392480 0.194457 0.037305
0.423584 0.172802 0.028697
0.456483 0.145437 0.020252
0.489463 0.113011 0.012453
0.521322 0.077422 0.005755
0.554384 0.038405 0.000104
0.587560 0.004083 0.000000
0.623536 0.000000 0.000000
0.661226 0.000000 0.000000
0.699391 0.000000 0.000000
0.736334 0.000000 0.000000
0.772846 0.000000 0.000000
0.807407 0.000000 0.000000
0.832793 0.000000 0.000000
0.851549 0.000000 0.000000
0.865796 0.000000 0.001311
0.877067 0.000000 0.010203
0.885416 0.000000 0.026907
0.892651 0.000000 0.048185
0.898667 0.034470 0.071888
0.902760 0.084202 0.095552
0.906375 0.129581 0.118575
0.908828 0.165123 0.139436
0.911000 0.197713 0.159028
0.912592 0.224007 0.176624
0.914054 0.248709 0.193304
0.915108 0.268609 0.208312
0.916104 0.287589 0.222615
0.916918 0.304286 0.235964
0.917638 0.319633 0.248568
0.918318 0.334250 0.260569
0.918908 0.348012 0.272511
0.919465 0.361108 0.283892
0.919992 0.373571 0.294724
0.920473 0.385423 0.305356
0.920923 0.396697 0.315559
0.921350 0.407420 0.325266
0.921753 0.417619 0.334500
0.922136 0.427724 0.343984
0.922497 0.437353 0.353039
0.922840 0.446507 0.361650
0.923165 0.455211 0.369838
0.923471 0.463531 0.377715
0.923756 0.471678 0.385673
0.924026 0.479421 0.393238
0.924281 0.486780 0.400430
0.924523 0.493774 0.407265
0.053317 0.171292 0.123228
0.053317 0.171292 0.123228
0.053317 0.171292 0.123228
0.053317 0.171292 0.123228
0.053317 0.171292 0.123228
0.065398 0.186673 0.121521
0.081038 0.201109 0.117500
0.099053 0.215079 0.111609
0.117533 0.226800 0.107044
0.137623 0.237178 0.103664
0.161959 0.245814 0.099813
0.189733 0.252374 0.096923
0.219740 0.255897 0.093544
0.252187 0.260041 0.087816
0.284448 0.264657 0.080677
0.315623 0.266239 0.073280
0.347451 0.265037 0.065418
0.378933 0.257960 0.056789
0.410957 0.245506 0.047368
0.445199 0.226944 0.037331
0.478994 0.202368 0.027522
0.513492 0.171842 0.017927
0.547827 0.136073 0.009259
0.580502 0.094045 0.001738
0.613198 0.049830 0.000000
0.645950 0.008010 0.000000
0.679464 0.000000 0.000000
0.715076 0.000000 0.000000
