luts/P4P_08_Golden_size65.cube
# POCKET 4P D-Log2 LUT pack v1.0 - Golden
# Warm golden-hour bias with amber highlights.
# Input:  DJI Osmo Pocket 4P D-Log2 / D-Gamut2, full range
# Output: Rec.709 / gamma 2.4 display
# Built on DJI's official D-Log2 to Rec.709 colorimetry with a
# scene-linear highlight shoulder so nothing clips at +7 stops.
TITLE "POCKET 4P Golden v1.0"
LUT_3D_SIZE 65
DOMAIN_MIN 0.0 0.0 0.0
DOMAIN_MAX 1.0 1.0 1.0
0.021606 0.016167 0.027096
0.021606 0.016167 0.027096
0.021606 0.016167 0.027096
0.021606 0.016167 0.027096
0.021606 0.016167 0.027096
0.029507 0.011131 0.023041
0.040841 0.010703 0.023655
0.050660 0.010022 0.024379
0.060382 0.009411 0.025274
0.070066 0.008557 0.026393
0.081908 0.007866 0.027815
0.097079 0.007024 0.029678
0.113010 0.006259 0.031782
0.131941 0.005524 0.034393
0.153243 0.004659 0.037331
0.178835 0.004101 0.040787
0.208122 0.003673 0.044560
0.240527 0.003390 0.048409
0.278205 0.003298 0.052672
0.319643 0.003422 0.057008
0.365886 0.004056 0.061422
0.416423 0.005171 0.066307
0.469570 0.006744 0.071305
0.526837 0.008950 0.076908
0.585635 0.011530 0.082772
0.646224 0.014309 0.089368
0.707995 0.016827 0.096007
0.767021 0.018317 0.102503
0.809892 0.018302 0.109116
0.843255 0.016761 0.115342
0.875904 0.014482 0.120917
0.899460 0.012982 0.126474
0.915327 0.014421 0.132357
0.926231 0.020717 0.139027
0.933874 0.033705 0.146862
0.938491 0.060435 0.157731
0.941592 0.096859 0.169737
0.943560 0.138264 0.182811
0.944278 0.177652 0.197238
0.944782 0.214756 0.211331
0.944962 0.245434 0.225486
0.945219 0.273720 0.238818
0.945432 0.296439 0.251370
0.945638 0.317898 0.263325
0.945809 0.335927 0.274973
0.945973 0.353145 0.286054
0.946119 0.368584 0.296795
0.946253 0.382910 0.307095
0.946382 0.396568 0.316895
0.946491 0.409341 0.326704
0.946596 0.421503 0.336050
0.946695 0.433087 0.344940
0.946796 0.444443 0.354008
0.946894 0.455343 0.362800
0.946986 0.465720 0.371163
0.947074 0.475595 0.379116
0.947161 0.485195 0.387178
0.947243 0.494338 0.394869
0.947321 0.503037 0.402183
0.947394 0.511311 0.409136
0.947464 0.519258 0.415862
0.947533 0.527213 0.422843
0.947598 0.534777 0.429480
0.947659 0.541969 0.435790
0.947717 0.548808 0.441787
0.021606 0.016167 0.027096
0.021606 0.016167 0.027096
0.021606 0.016167 0.027096
0.021606 0.016167 0.027096
0.021606 0.016167 0.027096
0.029507 0.011131 0.023041
0.040841 0.010703 0.023655
0.050660 0.010022 0.024379
0.060382 0.009411 0.025274
0.070066 0.008557 0.026393
0.081908 0.007866 0.027815
0.097079 0.007024 0.029678
0.113010 0.006259 0.031782
0.131941 0.005524 0.034393
0.153243 0.004659 0.037331
0.178835 0.004101 0.040787
0.208122 0.003673 0.044560
0.240527 0.003390 0.048409
0.278205 0.003298 0.052672
0.319643 0.003422 0.057008
0.365886 0.004056 0.061422
0.416423 0.005171 0.066307
0.469570 0.006744 0.071305
0.526837 0.008950 0.076908
0.585635 0.011530 0.082772
0.646224 0.014309 0.089368
0.707995 0.016827 0.096007
0.767021 0.018317 0.102503
0.809892 0.018302 0.109116
0.843255 0.016761 0.115342
0.875904 0.014482 0.120917
0.899460 0.012982 0.126474
0.915327 0.014421 0.132357
0.926231 0.020717 0.139027
0.933874 0.033705 0.146862
0.938491 0.060435 0.157731
0.941592 0.096859 0.169737
0.943560 0.138264 0.182811
0.944278 0.177652 0.197238
0.944782 0.214756 0.211331
0.944962 0.245434 0.225486
0.945219 0.273720 0.238818
0.945432 0.296439 0.251370
0.945638 0.317898 0.263325
0.945809 0.335927 0.274973
0.945973 0.353145 0.286054
0.946119 0.368584 0.296795
0.946253 0.382910 0.307095
0.946382 0.396568 0.316895
0.946491 0.409341 0.326704
0.946596 0.421503 0.336050
0.946695 0.433087 0.344940
0.946796 0.444443 0.354008
0.946894 0.455343 0.362800
0.946986 0.465720 0.371163
0.947074 0.475595 0.379116
0.947161 0.485195 0.387178
0.947243 0.494338 0.394869
0.947321 0.503037 0.402183
0.947394 0.511311 0.409136
0.947464 0.519258 0.415862
0.947533 0.527213 0.422843
0.947598 0.534777 0.429480
0.947659 0.541969 0.435790
0.947717 0.548808 0.441787
0.021606 0.016167 0.027096
0.021606 0.016167 0.027096
0.021606 0.016167 0.027096
0.021606 0.016167 0.027096
0.021606 0.016167 0.027096
0.029507 0.011131 0.023041
0.040841 0.010703 0.023655
0.050660 0.010022 0.024379
0.060382 0.009411 0.025274
0.070066 0.008557 0.026393
0.081908 0.007866 0.027815
0.097079 0.007024 0.029678
0.113010 0.006259 0.031782
0.131941 0.005524 0.034393
0.153243 0.004659 0.037331
0.178835 0.004101 0.040787
0.208122 0.003673 0.044560
0.240527 0.003390 0.048409
0.278205 0.003298 0.052672
0.319643 0.003422 0.057008
0.365886 0.004056 0.061422
0.416423 0.005171 0.066307
0.469570 0.006744 0.071305
0.526837 0.008950 0.076908
0.585635 0.011530 0.082772
0.646224 0.014309 0.089368
0.707995 0.016827 0.096007
0.767021 0.018317 0.102503
0.809892 0.018302 0.109116
0.843255 0.016761 0.115342
0.875904 0.014482 0.120917
0.899460 0.012982 0.126474
0.915327 0.014421 0.132357
0.926231 0.020717 0.139027
0.933874 0.033705 0.146862
0.938491 0.060435 0.157731
0.941592 0.096859 0.169737
0.943560 0.138264 0.182811
0.944278 0.177652 0.197238
0.944782 0.214756 0.211331
0.944962 0.245434 0.225486
0.945219 0.273720 0.238818
0.945432 0.296439 0.251370
0.945638 0.317898 0.263325
0.945809 0.335927 0.274973
0.945973 0.353145 0.286054
0.946119 0.368584 0.296795
0.946253 0.382910 0.307095
0.946382 0.396568 0.316895
0.946491 0.409341 0.326704
0.946596 0.421503 0.336050
0.946695 0.433087 0.344940
0.946796 0.444443 0.354008
0.946894 0.455343 0.362800
0.946986 0.465720 0.371163
0.947074 0.475595 0.379116
0.947161 0.485195 0.387178
0.947243 0.494338 0.394869
0.947321 0.503037 0.402183
0.947394 0.511311 0.409136
0.947464 0.519258 0.415862
0.947533 0.527213 0.422843
0.947598 0.534777 0.429480
0.947659 0.541969 0.435790
0.947717 0.548808 0.441787
0.021606 0.016167 0.027096
0.021606 0.016167 0.027096
0.021606 0.016167 0.027096
0.021606 0.016167 0.027096
0.021606 0.016167 0.027096
0.029507 0.011131 0.023041
0.040841 0.010703 0.023655
0.050660 0.010022 0.024379
0.060382 0.009411 0.025274
0.070066 0.008557 0.026393
0.081908 0.007866 0.027815
0.097079 0.007024 0.029678
0.113010 0.006259 0.031782
0.131941 0.005524 0.034393
0.153243 0.004659 0.037331
0.178835 0.004101 0.040787
0.208122 0.003673 0.044560
0.240527 0.003390 0.048409
0.278205 0.003298 0.052672
0.319643 0.003422 0.057008
0.365886 0.004056 0.061422
0.416423 0.005171 0.066307
0.469570 0.006744 0.071305
0.526837 0.008950 0.076908
0.585635 0.011530 0.082772
0.646224 0.014309 0.089368
0.707995 0.016827 0.096007
0.767021 0.018317 0.102503
0.809892 0.018302 0.109116
0.843255 0.016761 0.115342
0.875904 0.014482 0.120917
0.899460 0.012982 0.126474
0.915327 0.014421 0.132357
0.926231 0.020717 0.139027
0.933874 0.033705 0.146862
0.938491 0.060435 0.157731
0.941592 0.096859 0.169737
0.943560 0.138264 0.182811
0.944278 0.177652 0.197238
0.944782 0.214756 0.211331
0.944962 0.245434 0.225486
0.945219 0.273720 0.238818
0.945432 0.296439 0.251370
0.945638 0.317898 0.263325
0.945809 0.335927 0.274973
0.945973 0.353145 0.286054
0.946119 0.368584 0.296795
0.946253 0.382910 0.307095
0.946382 0.396568 0.316895
0.946491 0.409341 0.326704
0.946596 0.421503 0.336050
0.946695 0.433087 0.344940
0.946796 0.444443 0.354008
0.946894 0.455343 0.362800
0.946986 0.465720 0.371163
0.947074 0.475595 0.379116
0.947161 0.485195 0.387178
0.947243 0.494338 0.394869
0.947321 0.503037 0.402183
0.947394 0.511311 0.409136
0.947464 0.519258 0.415862
0.947533 0.527213 0.422843
0.947598 0.534777 0.429480
0.947659 0.541969 0.435790
0.947717 0.548808 0.441787
0.021606 0.016167 0.027096
0.021606 0.016167 0.027096
0.021606 0.016167 0.027096
0.021606 0.016167 0.027096
0.021606 0.016167 0.027096
0.029507 0.011131 0.023041
0.040841 0.010703 0.023655
0.050660 0.010022 0.024379
0.060382 0.009411 0.025274
0.070066 0.008557 0.026393
0.081908 0.007866 0.027815
0.097079 0.007024 0.029678
0.113010 0.006259 0.031782
0.131941 0.005524 0.034393
0.153243 0.004659 0.037331
0.178835 0.004101 0.040787
0.208122 0.003673 0.044560
0.240527 0.003390 0.048409
0.278205 0.003298 0.052672
0.319643 0.003422 0.057008
0.365886 0.004056 0.061422
0.416423 0.005171 0.066307
0.469570 0.006744 0.071305
0.526837 0.008950 0.076908
0.585635 0.011530 0.082772
0.646224 0.014309 0.089368
0.707995 0.016827 0.096007
0.767021 0.018317 0.102503
0.809892 0.018302 0.109116
0.843255 0.016761 0.115342
0.875904 0.014482 0.120917
0.899460 0.012982 0.126474
0.915327 0.014421 0.132357
0.926231 0.020717 0.139027
0.933874 0.033705 0.146862
0.938491 0.060435 0.157731
0.941592 0.096859 0.169737
0.943560 0.138264 0.182811
0.944278 0.177652 0.197238
0.944782 0.214756 0.211331
0.944962 0.245434 0.225486
0.945219 0.273720 0.238818
0.945432 0.296439 0.251370
0.945638 0.317898 0.263325
0.945809 0.335927 0.274973
0.945973 0.353145 0.286054
0.946119 0.368584 0.296795
0.946253 0.382910 0.307095
0.946382 0.396568 0.316895
0.946491 0.409341 0.326704
0.946596 0.421503 0.336050
0.946695 0.433087 0.344940
0.946796 0.444443 0.354008
0.946894 0.455343 0.362800
0.946986 0.465720 0.371163
0.947074 0.475595 0.379116
0.947161 0.485195 0.387178
0.947243 0.494338 0.394869
0.947321 0.503037 0.402183
0.947394 0.511311 0.409136
0.947464 0.519258 0.415862
0.947533 0.527213 0.422843
0.947598 0.534777 0.429480
0.947659 0.541969 0.435790
0.947717 0.548808 0.441787
0.015186 0.022828 0.025113
0.015186 0.022828 0.025113
0.015186 0.022828 0.025113
0.015186 0.022828 0.025113
0.015186 0.022828 0.025113
0.028731 0.024340 0.022508
0.044335 0.024272 0.020158
0.056888 0.023361 0.020657
0.067557 0.022117 0.021403
0.081130 0.020559 0.022351
0.095272 0.019386 0.023294
0.111466 0.017674 0.024566
0.128935 0.016141 0.026553
0.147728 0.014433 0.028685
0.169801 0.012344 0.031440
0.194932 0.010561 0.034788
0.222505 0.008921 0.038298
0.254736 0.007524 0.042333
0.290288 0.006316 0.046605
0.330673 0.005450 0.051338
0.375444 0.005205 0.056419
0.423101 0.005640 0.061283
0.475563 0.006812 0.066768
0.531078 0.008697 0.072648
0.587841 0.011093 0.078723
0.647425 0.013839 0.085463
0.706816 0.016391 0.092549
0.766076 0.018137 0.099611
0.808552 0.018422 0.106494
0.841355 0.017171 0.112842
0.874033 0.015107 0.118744
0.897815 0.013674 0.124353
0.914013 0.014907 0.130263
0.925252 0.020622 0.136928
0.933101 0.032526 0.144637
0.937840 0.056718 0.154978
0.941091 0.090544 0.166658
0.943255 0.131223 0.179578
0.944116 0.170565 0.193886
0.944749 0.207700 0.207820
0.944906 0.238407 0.221753
0.945157 0.266930 0.235015
0.945376 0.290496 0.247799
0.945589 0.312695 0.259933
0.945760 0.330743 0.271447
0.945925 0.347979 0.282399
0.946071 0.363420 0.293022
0.946205 0.377743 0.303212
0.946334 0.391397 0.312906
0.946446 0.404231 0.322692
0.946552 0.416452 0.332018
0.946653 0.428093 0.340890
0.946751 0.439227 0.349720
0.946846 0.449841 0.358226
0.946936 0.459944 0.366316
0.947021 0.469559 0.374010
0.947108 0.479167 0.382024
0.947191 0.488332 0.389680
0.947269 0.497052 0.396960
0.947343 0.505346 0.403882
0.947414 0.513289 0.410558
0.947482 0.521125 0.417394
0.947546 0.528576 0.423894
0.947607 0.535661 0.430072
0.947664 0.542397 0.435944
0.013336 0.033551 0.027198
0.013336 0.033551 0.027198
0.013336 0.033551 0.027198
0.013336 0.033551 0.027198
0.013336 0.033551 0.027198
0.025395 0.037897 0.021785
0.042526 0.039260 0.020345
0.058105 0.039364 0.017950
0.072090 0.040104 0.014616
0.088232 0.038993 0.015358
0.104743 0.036897 0.016599
0.123654 0.034117 0.018559
0.143147 0.030948 0.020563
0.163499 0.028610 0.022474
0.186718 0.025588 0.024857
0.211271 0.022094 0.027759
0.239498 0.019038 0.031363
0.270499 0.015968 0.035210
0.306079 0.013162 0.039745
0.345661 0.010732 0.044828
0.388092 0.008928 0.050214
0.435395 0.008132 0.056082
0.486215 0.008261 0.061971
0.539024 0.009285 0.068199
0.595413 0.011212 0.075067
0.652493 0.013601 0.082099
0.711809 0.016111 0.089933
0.769110 0.017897 0.097469
0.809824 0.018316 0.104561
0.842430 0.017253 0.111283
0.874764 0.015379 0.117306
0.898211 0.014102 0.123056
0.914241 0.015453 0.129095
0.925333 0.021142 0.135810
0.933016 0.032727 0.143433
0.937816 0.056977 0.153985
0.941089 0.090731 0.165777
0.943234 0.131062 0.178697
0.944102 0.169655 0.192794
0.944743 0.206177 0.206565
0.944899 0.237298 0.220715
0.945151 0.266033 0.234092
0.945365 0.289165 0.246642
0.945574 0.311001 0.258583
0.945746 0.329173 0.270153
0.945912 0.346529 0.281158
0.946058 0.362042 0.291819
0.946194 0.376417 0.302040
0.946323 0.390121 0.311764
0.946432 0.402692 0.321338
0.946536 0.414655 0.330455
0.946635 0.426049 0.339128
0.946734 0.437205 0.347970
0.946829 0.447910 0.356543
0.946920 0.458100 0.364696
0.947006 0.467799 0.372449
0.947092 0.477363 0.380420
0.947173 0.486480 0.388029
0.947251 0.495153 0.395264
0.947324 0.503403 0.402143
0.947394 0.511282 0.408756
0.947461 0.518938 0.415419
0.947524 0.526218 0.421754
0.947585 0.533140 0.427775
0.947641 0.539721 0.433498
0.011810 0.043893 0.029685
0.011810 0.043893 0.029685
0.011810 0.043893 0.029685
0.011810 0.043893 0.029685
0.011810 0.043893 0.029685
0.023201 0.049606 0.023067
0.038329 0.053076 0.020831
0.055858 0.054430 0.019616
0.071003 0.055469 0.015890
0.090913 0.056875 0.011081
0.108651 0.057114 0.009588
0.128429 0.055283 0.010460
0.151750 0.052324 0.012429
0.175363 0.047879 0.015228
0.199540 0.043199 0.018104
0.226407 0.038715 0.020992
0.254843 0.034135 0.023982
0.286174 0.028996 0.027501
0.321389 0.024206 0.032046
0.359349 0.019750 0.037074
0.402049 0.015920 0.043012
0.447961 0.013186 0.049375
0.496972 0.011645 0.056055
0.549635 0.011364 0.062913
0.603593 0.012177 0.070209
0.660447 0.013929 0.078147
0.718414 0.015988 0.086413
0.772399 0.017560 0.094743
0.812534 0.018034 0.102570
0.843708 0.017129 0.109526
0.875761 0.015412 0.115809
0.898988 0.014288 0.121812
0.914643 0.015737 0.127905
0.925476 0.021536 0.134647
0.933194 0.033333 0.142497
0.937904 0.057374 0.153078
0.941120 0.090926 0.164898
0.943236 0.131022 0.177858
0.944107 0.169994 0.192206
0.944750 0.206818 0.206181
0.944901 0.237333 0.220131
0.945149 0.265657 0.233399
0.945365 0.288999 0.246113
0.945576 0.311005 0.258191
0.945746 0.329065 0.269728
0.945911 0.346312 0.280701
0.946055 0.361584 0.291208
0.946188 0.375671 0.301233
0.946314 0.389101 0.310770
0.946425 0.401810 0.320463
0.946530 0.413916 0.329702
0.946630 0.425447 0.338490
0.946728 0.436571 0.347308
0.946823 0.447200 0.355821
0.946913 0.457319 0.363918
0.946998 0.466949 0.371617
0.947083 0.476357 0.379457
0.947164 0.485321 0.386938
0.947240 0.493848 0.394051
0.947312 0.501960 0.400814
0.947381 0.509743 0.407347
0.947449 0.517493 0.414087
0.947513 0.524863 0.420495
0.947574 0.531871 0.426587
0.947632 0.538534 0.432376
0.010581 0.053851 0.032350
0.010581 0.053851 0.032350
0.010581 0.053851 0.032350
0.010581 0.053851 0.032350
0.010581 0.053851 0.032350
0.021197 0.059766 0.025832
0.036187 0.065008 0.021271
0.052758 0.068359 0.020094
0.070165 0.070348 0.018490
0.090857 0.072003 0.013847
0.111736 0.074857 0.008300
0.131581 0.076508 0.005838
0.155258 0.074259 0.006623
0.181142 0.070195 0.008527
0.208146 0.065516 0.010625
0.236145 0.059480 0.013229
0.266802 0.053233 0.016744
0.299759 0.046312 0.020924
0.334057 0.039832 0.024608
0.373401 0.032810 0.029422
0.414844 0.026035 0.035367
0.460197 0.020825 0.042153
0.509015 0.017131 0.049598
0.559566 0.014954 0.057199
0.613473 0.014360 0.065116
0.669093 0.015012 0.073738
0.724809 0.016270 0.082493
0.777159 0.017470 0.091818
0.815215 0.017762 0.100127
0.845802 0.016880 0.107675
0.877706 0.015253 0.114304
0.900023 0.014293 0.120489
0.915370 0.016019 0.126860
0.926067 0.022185 0.133913
0.933563 0.034399 0.141967
0.938108 0.058698 0.152706
0.941224 0.092684 0.164690
0.943280 0.132921 0.177837
0.944130 0.171126 0.192009
0.944754 0.207241 0.205839
0.944908 0.237985 0.219980
0.945158 0.266453 0.233387
0.945373 0.289670 0.246111
0.945582 0.311531 0.258177
0.945749 0.329229 0.269511
0.945910 0.346130 0.280292
0.946055 0.361436 0.290858
0.946189 0.375705 0.301036
0.946317 0.389308 0.310720
0.946426 0.401793 0.320250
0.946530 0.413674 0.329325
0.946629 0.424990 0.337957
0.946727 0.436072 0.346749
0.946821 0.446706 0.355270
0.946910 0.456828 0.363375
0.946995 0.466461 0.371082
0.947080 0.475948 0.378994
0.947161 0.484990 0.386546
0.947238 0.493591 0.393727
0.947311 0.501774 0.400555
0.947380 0.509590 0.407120
0.947447 0.517197 0.413739
0.947510 0.524431 0.420031
0.947570 0.531309 0.426012
0.947626 0.537847 0.431697
0.009270 0.063622 0.035356
0.009270 0.063622 0.035356
0.009270 0.063622 0.035356
0.009270 0.063622 0.035356
0.009270 0.063622 0.035356
0.018662 0.071939 0.029244
0.033315 0.078808 0.022153
0.049764 0.084542 0.019183
0.065980 0.088431 0.019554
0.087512 0.090469 0.016525
0.109256 0.093705 0.010586
0.134836 0.096288 0.005518
0.159546 0.097366 0.003873
0.184319 0.096155 0.003923
0.211941 0.091968 0.005107
0.242619 0.085975 0.007183
0.274902 0.078120 0.009709
0.308350 0.069256 0.012871
0.345388 0.059910 0.016892
0.385250 0.050720 0.021892
0.427270 0.041473 0.027755
0.473016 0.033046 0.034377
0.520141 0.026074 0.042010
0.570970 0.021031 0.050565
0.623789 0.018136 0.059297
0.677279 0.017040 0.068398
0.732908 0.017208 0.078178
0.781508 0.017653 0.088157
0.818796 0.017614 0.097502
0.848343 0.016590 0.105640
0.879504 0.015000 0.112546
0.901183 0.014182 0.119089
0.916065 0.016074 0.125674
0.926421 0.022406 0.132852
0.933762 0.034775 0.141070
0.938280 0.059771 0.152195
0.941344 0.094166 0.164354
0.943317 0.133972 0.177468
0.944153 0.172572 0.191919
0.944764 0.209060 0.206013
0.944921 0.239400 0.220083
0.945169 0.267473 0.233394
0.945380 0.290311 0.245980
0.945587 0.311860 0.257947
0.945755 0.329731 0.269453
0.945918 0.346798 0.280398
0.946061 0.361967 0.290907
0.946192 0.375984 0.300946
0.946318 0.389347 0.310497
0.946427 0.401930 0.320123
0.946531 0.413913 0.329296
0.946630 0.425326 0.338022
0.946728 0.436398 0.346820
0.946822 0.446994 0.355324
0.946912 0.457080 0.363412
0.946997 0.466679 0.371104
0.947081 0.475997 0.378882
0.947161 0.484872 0.386300
0.947236 0.493315 0.393354
0.947308 0.501346 0.400060
0.947376 0.509056 0.406542
0.947443 0.516753 0.413243
0.947507 0.524072 0.419614
0.947568 0.531032 0.425669
0.947625 0.537648 0.431425
0.007983 0.076096 0.038883
0.007983 0.076096 0.038883
0.007983 0.076096 0.038883
0.007983 0.076096 0.038883
0.007983 0.076096 0.038883
0.016321 0.086088 0.032892
0.030164 0.094041 0.024707
0.046390 0.101434 0.020105
0.062536 0.106724 0.017754
0.083062 0.109948 0.017698
0.107392 0.113198 0.013420
0.133822 0.116862 0.007133
0.162999 0.119296 0.003487
0.190356 0.120081 0.001982
0.217693 0.118759 0.002036
0.248408 0.114664 0.002832
0.281191 0.107744 0.004351
0.316717 0.099100 0.006506
0.354217 0.087813 0.009807
0.394928 0.074807 0.013873
0.438525 0.061791 0.019152
0.484261 0.049441 0.025880
0.532971 0.038583 0.034272
0.582957 0.030231 0.043108
0.634476 0.024452 0.052647
0.688053 0.021060 0.062422
0.741465 0.019394 0.072673
0.787560 0.018659 0.083440
0.823106 0.017849 0.094061
0.851970 0.016436 0.102825
0.882268 0.014674 0.110465
0.902716 0.013884 0.117336
0.917018 0.015967 0.124254
0.927141 0.022694 0.131837
0.934312 0.035743 0.140466
0.938578 0.060873 0.151679
0.941501 0.095899 0.164086
0.943420 0.136607 0.177632
0.944212 0.175148 0.192224
0.944778 0.211409 0.206406
0.944937 0.241182 0.220360
0.945183 0.268827 0.233604
0.945395 0.291677 0.246305
0.945601 0.313190 0.258351
0.945765 0.330629 0.269651
0.945924 0.347281 0.280400
0.946065 0.362400 0.290930
0.946196 0.376511 0.301072
0.946321 0.389963 0.310721
0.946431 0.402538 0.320366
0.946536 0.414513 0.329556
0.946636 0.425917 0.338297
0.946733 0.436830 0.346985
0.946825 0.447233 0.355350
0.946913 0.457136 0.363306
0.946996 0.466560 0.370871
0.947081 0.475997 0.378751
0.947162 0.484999 0.386277
0.947239 0.493563 0.393434
0.947311 0.501709 0.400239
0.947380 0.509491 0.406781
0.947447 0.517062 0.413376
0.947510 0.524261 0.419646
0.947570 0.531107 0.425605
0.947627 0.537615 0.431269
0.006988 0.091376 0.043187
0.006988 0.091376 0.043187
0.006988 0.091376 0.043187
0.006988 0.091376 0.043187
0.006988 0.091376 0.043187
0.013887 0.101758 0.037154
0.026147 0.111077 0.028603
0.042434 0.118355 0.022078
0.058876 0.125969 0.018337
0.078396 0.130662 0.016396
0.101638 0.135586 0.015412
0.131961 0.139117 0.009916
0.161405 0.142461 0.004567
0.192472 0.145211 0.001468
0.223700 0.145527 0.000116
0.255364 0.143512 0.000223
0.287757 0.139363 0.000834
0.323810 0.131365 0.002115
0.363238 0.121262 0.004093
0.404899 0.108835 0.006957
0.448389 0.093524 0.011283
0.495592 0.076478 0.016979
0.545195 0.059838 0.024526
0.595372 0.045900 0.033616
0.647269 0.035224 0.044389
0.698898 0.027997 0.055308
0.752426 0.023611 0.066176
0.794329 0.020843 0.077681
0.827406 0.018651 0.089145
0.856913 0.016457 0.099111
0.884901 0.014370 0.107432
0.904478 0.013589 0.115031
0.918223 0.015951 0.122561
0.927898 0.023105 0.130611
0.934716 0.036621 0.139591
0.938874 0.062967 0.151433
0.941695 0.098971 0.164233
0.943495 0.139607 0.177945
0.944253 0.177559 0.192480
0.944789 0.213305 0.206646
0.944956 0.243270 0.220839
0.945204 0.270910 0.234193
0.945410 0.293142 0.246663
0.945611 0.314133 0.258529
0.945776 0.331713 0.269989
0.945936 0.348500 0.280891
0.946076 0.363575 0.291436
0.946205 0.377574 0.301539
0.946328 0.390918 0.311152
0.946437 0.403295 0.320669
0.946541 0.415076 0.329734
0.946640 0.426296 0.338356
0.946737 0.437282 0.347124
0.946831 0.447822 0.355618
0.946920 0.457855 0.363697
0.947005 0.467403 0.371379
0.947088 0.476737 0.379187
0.947168 0.485629 0.386635
0.947244 0.494089 0.393718
0.947315 0.502135 0.400451
0.947384 0.509846 0.406947
0.947451 0.517473 0.413599
0.947515 0.524726 0.419923
0.947575 0.531623 0.425934
0.947632 0.538179 0.431647
0.005812 0.108266 0.048227
0.005812 0.108266 0.048227
0.005812 0.108266 0.048227
0.005812 0.108266 0.048227
0.005812 0.108266 0.048227
0.011642 0.119820 0.042399
0.021904 0.129505 0.033800
0.037209 0.138204 0.024978
0.053122 0.146363 0.020659
0.072483 0.152986 0.016637
0.095800 0.159268 0.014875
0.125164 0.163373 0.012656
0.157580 0.168005 0.007128
0.190698 0.171307 0.002223
0.225124 0.173776 0.000000
0.260641 0.173863 0.000000
0.295218 0.170799 0.000000
0.331875 0.165458 0.000000
0.371718 0.156989 0.000000
0.413357 0.145094 0.001781
0.459150 0.130104 0.004952
0.507260 0.112267 0.009576
0.555922 0.092645 0.015706
0.608093 0.071435 0.023951
0.659865 0.053998 0.034081
0.712900 0.041193 0.045861
0.764340 0.032070 0.058012
0.801679 0.025709 0.070254
0.833473 0.021067 0.082577
0.862781 0.017332 0.093972
0.888879 0.014413 0.103511
0.907118 0.013374 0.112041
0.919873 0.015812 0.120238
0.928930 0.023364 0.128885
0.935472 0.037691 0.138575
0.939342 0.064736 0.150820
0.941972 0.101601 0.164024
0.943649 0.142854 0.178167
0.944339 0.181100 0.193050
0.944809 0.216949 0.207492
0.944982 0.246074 0.221480
0.945226 0.273088 0.234717
0.945434 0.295390 0.247364
0.945634 0.316416 0.259381
0.945798 0.333779 0.270816
0.945955 0.350356 0.281694
0.946093 0.365150 0.292119
0.946218 0.378846 0.302069
0.946338 0.391900 0.311536
0.946447 0.404364 0.321168
0.946551 0.416239 0.330348
0.946649 0.427547 0.339081
0.946745 0.438396 0.347759
0.946837 0.448746 0.356114
0.946924 0.458597 0.364060
0.947007 0.467971 0.371616
0.947092 0.477354 0.379484
0.947173 0.486304 0.387000
0.947250 0.494819 0.394146
0.947322 0.502917 0.400941
0.947391 0.510676 0.407491
0.947459 0.518340 0.414183
0.947523 0.525629 0.420544
0.947584 0.532558 0.426592
0.947641 0.539147 0.432339
0.004882 0.127751 0.054173
0.004882 0.127751 0.054173
0.004882 0.127751 0.054173
0.004882 0.127751 0.054173
0.004882 0.127751 0.054173
0.009260 0.139238 0.048386
0.017951 0.149862 0.039983
0.031078 0.159335 0.030339
0.046721 0.167550 0.023686
0.065053 0.175458 0.019080
0.088928 0.182663 0.015056
0.117989 0.189289 0.012983
0.150670 0.194311 0.010285
0.186613 0.199047 0.004752
0.224034 0.202749 0.000000
0.261276 0.204197 0.000000
0.299583 0.203984 0.000000
0.338619 0.200094 0.000000
0.379103 0.193061 0.000000
0.423438 0.182714 0.000000
0.468960 0.168983 0.000179
0.517372 0.151934 0.003453
0.567911 0.132003 0.008368
0.619478 0.108383 0.015419
0.672961 0.083792 0.024655
0.726843 0.061525 0.035818
0.774523 0.045861 0.047868
0.810424 0.034194 0.060679
