luts/P4P_08_Golden_size33.cube
# POCKET 4P D-Log2 LUT pack v1.0 - Golden
# Warm golden-hour bias with amber highlights.
# Input:  DJI Osmo Pocket 4P D-Log2 / D-Gamut2, full range
# Output: Rec.709 / gamma 2.4 display
# Built on DJI's official D-Log2 to Rec.709 colorimetry with a
# scene-linear highlight shoulder so nothing clips at +7 stops.
TITLE "POCKET 4P Golden v1.0"
LUT_3D_SIZE 9
DOMAIN_MIN 0.0 0.0 0.0
DOMAIN_MAX 1.0 1.0 1.0
0.021606 0.016167 0.027096
0.060382 0.009411 0.025274
0.208122 0.003673 0.044560
0.585635 0.011530 0.082772
0.915327 0.014421 0.132357
0.944962 0.245434 0.225486
0.946382 0.396568 0.316895
0.947161 0.485195 0.387178
0.947717 0.548808 0.441787
0.010581 0.053851 0.032350
0.070165 0.070348 0.018490
0.266802 0.053233 0.016744
0.613473 0.014360 0.065116
0.915370 0.016019 0.126860
0.944908 0.237985 0.219980
0.946317 0.389308 0.310720
0.947080 0.475948 0.378994
0.947626 0.537847 0.431697
0.003201 0.202335 0.078009
0.023555 0.242459 0.045671
0.289559 0.305427 0.000000
0.709735 0.219030 0.003762
0.929846 0.024121 0.097310
0.945159 0.264498 0.226714
0.946407 0.400531 0.316198
0.947156 0.484384 0.384092
0.947694 0.545092 0.436665
0.003022 0.520846 0.184423
0.000724 0.536893 0.179618
0.053981 0.605990 0.072784
0.621504 0.648328 0.000000
0.943036 0.443681 0.050750
0.946296 0.374103 0.265102
0.946833 0.446266 0.342539
0.947518 0.521699 0.410129
0.947999 0.579345 0.463367
0.008523 0.851156 0.289401
0.008397 0.853290 0.290936
0.009244 0.870136 0.290250
0.117728 0.904956 0.086591
0.860166 0.886792 0.000000
0.949492 0.783546 0.281509
0.949035 0.681774 0.459751
0.948679 0.655699 0.494813
0.948738 0.673460 0.531911
0.127611 0.937116 0.355199
0.128417 0.937183 0.356546
0.155232 0.938639 0.371841
0.259233 0.941549 0.394166
0.719444 0.942165 0.345018
0.925108 0.931825 0.167725
0.949157 0.901725 0.436693
0.950251 0.870603 0.603450
0.950161 0.849022 0.660436
0.637297 0.942766 0.596345
0.640281 0.942767 0.598657
0.671056 0.942767 0.620823
0.733000 0.942759 0.668122
0.838147 0.942652 0.751157
0.909841 0.942491 0.687328
0.939086 0.939022 0.582409
0.947352 0.929568 0.645664
0.949163 0.921407 0.710592
0.827161 0.942692 0.766091
0.827191 0.942692 0.766158
0.835262 0.942679 0.775589
0.845975 0.942642 0.789029
0.875476 0.942567 0.815720
0.911574 0.942427 0.836590
0.932088 0.942420 0.799468
0.942137 0.940413 0.773086
0.946310 0.936979 0.774660
0.860298 0.942620 0.805055
0.860365 0.942620 0.805083
0.863905 0.942606 0.808172
0.869599 0.942581 0.813722
0.884140 0.942515 0.830084
0.910001 0.942424 0.853791
0.928282 0.942368 0.855254
0.938307 0.942151 0.840546
0.943333 0.941062 0.828556
0.016164 0.008374 0.046848
0.068859 0.006856 0.062898
0.236029 0.004296 0.097689
0.595400 0.012684 0.137907
0.916673 0.014783 0.150976
0.944963 0.247220 0.231099
0.946377 0.396849 0.319311
0.947153 0.484916 0.388377
0.947711 0.548316 0.442405
0.007781 0.059462 0.066116
0.079037 0.072515 0.078831
0.305520 0.030322 0.088967
0.625429 0.015011 0.129282
0.916981 0.017952 0.145552
0.944911 0.240468 0.226213
0.946306 0.389699 0.313369
0.947074 0.476222 0.380763
0.947623 0.537739 0.432750
0.002629 0.225503 0.126863
0.010856 0.262338 0.112786
0.287948 0.302781 0.037342
0.739272 0.196443 0.031146
0.930504 0.033780 0.121586
0.945173 0.267623 0.232717
0.946396 0.400655 0.318833
0.947146 0.484154 0.385517
0.947686 0.544754 0.437554
0.003084 0.530944 0.206053
0.000809 0.546817 0.204889
0.042397 0.616405 0.096353
0.624616 0.648328 0.007332
0.943917 0.435548 0.071669
0.946268 0.372370 0.266596
0.946817 0.445089 0.343229
0.947503 0.520104 0.409903
0.947980 0.577356 0.462475
0.009017 0.852774 0.294255
0.008852 0.854497 0.295920
0.009300 0.870708 0.295104
0.108939 0.905724 0.091854
0.860542 0.886419 0.000000
0.949505 0.781214 0.288291
0.948990 0.676660 0.460051
0.948657 0.654014 0.495572
0.948741 0.674324 0.534325
0.127455 0.937171 0.356468
0.126712 0.937201 0.357465
0.151527 0.938559 0.372070
0.259915 0.941495 0.395687
0.718108 0.942163 0.345779
0.924988 0.931698 0.167372
0.949167 0.901276 0.435214
0.950249 0.868921 0.604002
0.950143 0.846816 0.660098
0.639091 0.942767 0.598385
0.638026 0.942768 0.598070
0.665760 0.942769 0.618224
0.731082 0.942760 0.667097
0.836894 0.942654 0.749678
0.909658 0.942491 0.686676
0.939000 0.938987 0.578886
0.947331 0.929439 0.641566
0.949163 0.921223 0.707788
0.827036 0.942693 0.766208
0.826458 0.942693 0.765589
0.833698 0.942682 0.774079
0.845131 0.942643 0.788159
0.874925 0.942569 0.815191
0.911453 0.942428 0.836531
0.932032 0.942420 0.798940
0.942106 0.940398 0.771980
0.946289 0.936921 0.772892
0.860347 0.942620 0.805200
0.860205 0.942621 0.805074
0.863484 0.942607 0.807917
0.868934 0.942583 0.812933
0.883694 0.942517 0.829640
0.909812 0.942425 0.853640
0.928243 0.942368 0.855241
0.938282 0.942151 0.840174
0.943300 0.941050 0.827498
0.013730 0.016487 0.150395
0.076906 0.002989 0.187012
0.280853 0.008204 0.229177
0.629450 0.015980 0.279968
0.921767 0.021513 0.260896
0.944972 0.263750 0.272363
0.946355 0.400210 0.331945
0.947132 0.485806 0.394405
0.947693 0.547791 0.445564
0.006483 0.056389 0.164205
0.066500 0.033855 0.229406
0.312958 0.017580 0.258710
0.650320 0.017794 0.284552
0.922089 0.026572 0.256381
0.944939 0.258933 0.267075
0.946300 0.394033 0.326468
0.947057 0.477242 0.386909
0.947608 0.537847 0.436550
0.001940 0.253507 0.236213
0.005091 0.270550 0.255705
0.289190 0.282098 0.276266
0.761154 0.166817 0.284068
0.933814 0.058349 0.241886
0.945245 0.284256 0.267585
0.946405 0.405599 0.331190
0.947154 0.487264 0.392946
0.947690 0.546993 0.442994
0.003889 0.558869 0.319355
0.002885 0.571110 0.323068
0.039814 0.623849 0.292909
0.627704 0.637601 0.234565
0.945018 0.451835 0.167151
0.946289 0.379155 0.284041
0.946829 0.448598 0.352657
0.947509 0.522971 0.416718
0.947989 0.579998 0.468055
0.010007 0.859170 0.340795
0.009831 0.861060 0.341471
0.009718 0.873917 0.340773
0.083070 0.909616 0.136778
0.862588 0.886654 0.020676
0.949644 0.781490 0.320907
0.948977 0.678041 0.471452
0.948657 0.656850 0.503542
0.948743 0.676084 0.538718
0.133788 0.937701 0.373309
0.132491 0.937749 0.374479
0.147417 0.938713 0.386549
0.287381 0.941825 0.410861
0.723983 0.942249 0.365329
0.925439 0.931825 0.188050
0.949206 0.901755 0.450015
0.950257 0.868538 0.615567
0.950135 0.846675 0.667754
0.647718 0.942772 0.607526
0.646832 0.942773 0.607342
0.666696 0.942773 0.621996
0.738137 0.942759 0.673210
0.840573 0.942650 0.757686
0.910249 0.942489 0.694031
0.939123 0.938998 0.586133
0.947372 0.929565 0.649330
0.949166 0.921462 0.713808
0.829471 0.942689 0.769571
0.828930 0.942690 0.768994
0.833669 0.942681 0.774633
0.846034 0.942636 0.789755
0.876148 0.942565 0.817572
0.911682 0.942426 0.838071
0.932125 0.942419 0.800090
0.942165 0.940398 0.773927
0.946320 0.936969 0.775717
0.861591 0.942616 0.806611
0.861474 0.942614 0.806495
0.863597 0.942606 0.808376
0.869308 0.942582 0.813979
0.884507 0.942514 0.831195
0.910107 0.942424 0.854655
0.928321 0.942366 0.856278
0.938363 0.942146 0.841337
0.943359 0.941047 0.829450
0.003198 0.144648 0.408191
0.022031 0.076166 0.502815
0.279326 0.024031 0.578699
0.670869 0.013306 0.545750
0.926503 0.026471 0.491938
0.944783 0.308099 0.439725
0.946390 0.432412 0.436669
0.947167 0.506484 0.458604
0.947706 0.561017 0.487293
0.003084 0.156798 0.413507
0.016339 0.105509 0.502721
0.280342 0.041365 0.586834
0.672810 0.019282 0.547717
0.926179 0.028890 0.489745
0.944737 0.303164 0.436293
0.946337 0.426442 0.431498
0.947109 0.499563 0.452347
0.947636 0.552799 0.479763
0.004423 0.243149 0.454534
0.003607 0.239021 0.492150
0.249148 0.200246 0.624981
0.719689 0.097823 0.588608
0.933466 0.063334 0.499223
0.944970 0.325986 0.438480
0.946434 0.434713 0.432520
0.947171 0.505001 0.452970
0.947688 0.557403 0.480716
0.003357 0.581054 0.535574
0.003587 0.584190 0.538338
0.063275 0.607615 0.562994
0.607756 0.594460 0.570630
0.937626 0.479218 0.540007
0.946165 0.422882 0.451932
0.946882 0.477521 0.441305
0.947523 0.540002 0.466539
0.947988 0.590645 0.499221
0.022975 0.865033 0.529466
0.025336 0.866189 0.529640
0.039427 0.875717 0.532978
0.272204 0.893224 0.506961
0.863875 0.873767 0.488014
0.949650 0.788924 0.491570
0.948995 0.690334 0.510277
0.948689 0.665168 0.523330
0.948743 0.680377 0.550882
0.136468 0.937719 0.500781
0.136390 0.937824 0.500742
0.156376 0.938881 0.505903
0.286055 0.941378 0.509254
0.719516 0.942224 0.462937
0.925845 0.929048 0.416853
0.949569 0.900668 0.526727
0.950275 0.869410 0.642891
0.950151 0.850974 0.687802
0.664584 0.942812 0.647544
0.663989 0.942812 0.647242
0.685252 0.942804 0.659295
0.738243 0.942779 0.689616
0.846491 0.942640 0.765717
0.909708 0.942483 0.707852
0.939728 0.938330 0.603329
0.947650 0.929146 0.665407
0.949240 0.921275 0.729688
0.836728 0.942678 0.779991
0.836286 0.942678 0.779567
0.840694 0.942669 0.784624
0.849597 0.942642 0.795494
0.880106 0.942556 0.822684
0.912590 0.942422 0.840397
0.932798 0.942419 0.796734
0.942574 0.940175 0.773626
0.946485 0.936841 0.780213
0.866768 0.942589 0.811460
0.866561 0.942590 0.811282
0.868647 0.942582 0.813725
0.872566 0.942562 0.819335
0.887105 0.942506 0.835445
0.911046 0.942418 0.856877
0.928922 0.942363 0.857278
0.938901 0.942100 0.840072
0.943607 0.940959 0.831622
0.004691 0.310838 0.732689
0.004628 0.307442 0.751713
0.031477 0.257728 0.858313
0.533524 0.237697 0.886455
0.916333 0.015803 0.818329
0.944864 0.309342 0.681386
0.946230 0.466806 0.620928
0.946931 0.545341 0.616492
0.947560 0.598998 0.625825
0.004662 0.309712 0.729917
0.004605 0.306054 0.748683
0.031953 0.254397 0.854154
0.529373 0.232984 0.883029
0.913883 0.013447 0.814255
0.944763 0.298087 0.678759
0.946163 0.458760 0.616632
0.946856 0.536929 0.610933
0.947481 0.590285 0.619499
0.004212 0.320024 0.741994
0.004576 0.316240 0.759973
0.026274 0.270876 0.853899
0.531553 0.248328 0.883740
0.914984 0.020215 0.815694
0.944804 0.302679 0.679040
0.946174 0.459759 0.616634
0.946857 0.536907 0.610497
0.947478 0.589727 0.618695
0.019743 0.488206 0.814858
0.021295 0.480952 0.818606
0.044629 0.472951 0.852604
0.519807 0.494994 0.883142
0.925684 0.304695 0.838931
0.945565 0.386702 0.695525
0.946489 0.496302 0.632015
0.947147 0.567595 0.625033
0.947760 0.617589 0.633105
0.312940 0.851993 0.804443
0.316779 0.851549 0.804213
0.349968 0.854707 0.807442
0.544889 0.856058 0.813636
0.856070 0.840556 0.813573
0.945992 0.801141 0.792970
0.948601 0.727146 0.722105
0.948501 0.702259 0.684126
0.948622 0.712739 0.678481
0.309685 0.932310 0.742610
0.312713 0.932291 0.742771
0.344657 0.932900 0.748167
0.471142 0.933524 0.762217
0.785667 0.928545 0.778175
0.922465 0.921560 0.769348
0.949213 0.901925 0.776605
0.950251 0.876454 0.777042
0.950064 0.859304 0.774626
0.614677 0.942754 0.755723
0.614678 0.942754 0.755607
0.634325 0.942769 0.761763
0.680790 0.942787 0.773581
0.800277 0.942532 0.789177
0.897449 0.942010 0.776299
0.938201 0.935757 0.757765
0.947433 0.928489 0.779793
0.949331 0.920525 0.801670
0.820001 0.942761 0.811881
0.819648 0.942762 0.811707
0.825286 0.942752 0.816606
0.836944 0.942729 0.827852
0.867951 0.942632 0.844151
0.912218 0.942415 0.852144
0.931645 0.942105 0.819149
0.942708 0.939125 0.800717
0.946742 0.935902 0.811818
0.874715 0.942606 0.849122
0.874576 0.942607 0.849030
0.877710 0.942595 0.851781
0.883251 0.942571 0.856951
0.896462 0.942505 0.865946
0.915645 0.942386 0.869853
0.930058 0.942342 0.867378
0.939649 0.941784 0.848621
0.944261 0.940218 0.841926
0.002354 0.417559 0.891434
0.002329 0.415932 0.890097
0.001343 0.409135 0.906598
0.228482 0.398751 0.934567
0.834765 0.331133 0.932262
0.944129 0.298588 0.884265
0.946329 0.469919 0.784801
0.947070 0.561623 0.750379
0.947488 0.619741 0.743167
0.002328 0.415859 0.889895
0.002301 0.413934 0.888290
0.001126 0.405168 0.904042
0.224131 0.391686 0.934391
0.831705 0.322291 0.931606
0.943922 0.283495 0.883905
0.946246 0.460336 0.782954
0.946999 0.552803 0.746284
0.947420 0.610758 0.738151
0.002378 0.419586 0.893244
0.002341 0.417047 0.891125
0.001213 0.407910 0.905168
0.224700 0.389353 0.934331
0.830993 0.318866 0.931360
0.943861 0.278406 0.883687
0.946220 0.457369 0.782320
0.946978 0.550206 0.745047
0.947401 0.608416 0.736817
0.002894 0.451197 0.905157
0.002042 0.446997 0.902711
0.004561 0.443046 0.913252
0.223076 0.436133 0.933458
0.837039 0.377330 0.931417
0.944439 0.330151 0.884101
0.946418 0.480286 0.786438
0.947127 0.568785 0.752745
0.947531 0.625583 0.745421
0.348321 0.806010 0.918807
0.347001 0.803314 0.918861
0.361134 0.799920 0.920981
0.423862 0.790649 0.924492
0.835852 0.811508 0.914293
0.941588 0.753933 0.894238
0.948024 0.688869 0.829321
0.947992 0.685887 0.791598
0.948127 0.706894 0.778821
0.668272 0.917162 0.886054
0.668242 0.917030 0.885937
0.677472 0.917632 0.887080
0.709901 0.918537 0.889467
0.841285 0.915599 0.891341
0.920181 0.910490 0.890822
0.946191 0.900985 0.886609
0.949515 0.882786 0.869567
0.949638 0.868251 0.854496
0.723046 0.937814 0.866226
0.722943 0.937779 0.866108
0.731911 0.937926 0.867811
0.756269 0.938074 0.871603
0.830562 0.936207 0.878884
0.904852 0.932624 0.883866
0.935262 0.930311 0.883809
0.946994 0.926077 0.880753
0.949191 0.920569 0.880848
0.798755 0.942260 0.864254
0.798573 0.942252 0.864153
0.803653 0.942275 0.865974
0.814682 0.942293 0.869824
0.847067 0.941810 0.876846
0.900527 0.940114 0.881504
0.926301 0.939753 0.874635
0.940887 0.936731 0.876012
0.946059 0.934443 0.877433
0.848379 0.942656 0.873926
0.848383 0.942656 0.873922
0.851363 0.942651 0.875456
0.858455 0.942637 0.878530
0.878834 0.942544 0.883824
0.907699 0.942017 0.887495
0.927317 0.942024 0.883825
0.937732 0.940708 0.878033
0.943540 0.938942 0.877631
0.086688 0.522410 0.932014
0.082147 0.519822 0.931672
0.086237 0.518076 0.932493
0.216307 0.526200 0.934451
0.652277 0.565134 0.935729
0.928780 0.474695 0.931158
0.946713 0.508906 0.887757
0.947273 0.582764 0.836721
0.947673 0.638146 0.815677
0.079528 0.518467 0.931491
0.074600 0.515551 0.931102
0.075780 0.512330 0.931905
0.206988 0.518006 0.934445
0.646496 0.556378 0.935748
0.928115 0.461472 0.931257
0.946621 0.497771 0.887380
0.947190 0.572207 0.834478
0.947598 0.627944 0.813228
0.088498 0.523458 0.932149
0.082047 0.519764 0.931663
0.080776 0.515456 0.932199
0.203926 0.514811 0.934445
0.645216 0.553162 0.935752
0.927939 0.457005 0.931274
0.946593 0.494404 0.887228
0.947169 0.569480 0.833859
0.947580 0.625502 0.812613
0.109736 0.535363 0.932823
0.099188 0.529695 0.932592
0.101795 0.527392 0.933282
0.213248 0.525645 0.934440
0.650763 0.557927 0.935737
0.928490 0.465779 0.931158
0.946663 0.502824 0.887340
0.947230 0.577357 0.835379
0.947638 0.633434 0.814441
0.266217 0.684883 0.933858
0.253298 0.677005 0.933856
0.269098 0.672204 0.933939
0.332553 0.677590 0.934139
0.687566 0.723505 0.933779
0.928588 0.664051 0.928972
0.947521 0.620376 0.893862
0.947776 0.650566 0.850980
0.948031 0.689786 0.828807
0.702830 0.906617 0.921133
0.701209 0.906208 0.921065
0.708047 0.906576 0.921583
0.725734 0.906523 0.922929
0.802539 0.902587 0.924515
0.918787 0.905342 0.918099
0.942981 0.895870 0.911663
0.948433 0.880191 0.899978
0.949220 0.867209 0.888261
0.812244 0.931281 0.908205
0.812364 0.931258 0.908191
0.815570 0.931448 0.908599
0.823778 0.931789 0.909485
0.861337 0.931018 0.910369
0.914574 0.928581 0.910570
0.933517 0.925797 0.909444
0.944947 0.924404 0.909864
0.948210 0.920239 0.906209
0.836685 0.938788 0.901555
0.836566 0.938767 0.901502
0.839387 0.938855 0.902086
0.845215 0.938944 0.903191
0.870567 0.938371 0.905267
0.911420 0.936119 0.907493
0.930054 0.934400 0.909123
0.939785 0.933885 0.907846
0.945781 0.932495 0.906137
0.854812 0.941404 0.898827
0.854694 0.941397 0.898776
0.858007 0.941426 0.899418
0.864713 0.941453 0.900680
0.881662 0.941141 0.902936
0.910769 0.939681 0.905747
0.927861 0.938088 0.907910
0.936213 0.938070 0.905194
0.942123 0.936931 0.906093
0.266679 0.622022 0.934200
0.261746 0.619095 0.934196
0.256147 0.615591 0.934192
0.313228 0.625469 0.934368
0.549039 0.659707 0.935119
0.888053 0.637019 0.934725
0.943429 0.605021 0.921897
0.947622 0.633955 0.892691
0.947933 0.672151 0.870070
0.256974 0.616401 0.934191
0.250917 0.612999 0.934185
0.242976 0.608153 0.934178
0.301182 0.616614 0.934368
0.540118 0.650391 0.935156
0.886128 0.625886 0.934784
0.943252 0.592947 0.921942
0.947541 0.622672 0.892093
0.947856 0.660913 0.868451
0.266184 0.621719 0.934199
0.257720 0.616812 0.934192
0.250264 0.612370 0.934185
0.297146 0.613423 0.934369
0.537610 0.647194 0.935170
0.885553 0.622293 0.934802
0.943208 0.589302 0.921938
0.947521 0.619745 0.891915
0.947838 0.658333 0.868053
0.285642 0.633612 0.934213
0.274778 0.626969 0.934206
0.271118 0.624675 0.934203
0.308884 0.622812 0.934365
0.543075 0.650432 0.935168
0.887146 0.627332 0.934770
0.943346 0.595744 0.921840
0.947576 0.627227 0.892212
0.947891 0.666063 0.869095
0.354525 0.691315 0.934140
0.342614 0.683496 0.934144
0.348462 0.685432 0.934154
0.384370 0.692938 0.934240
0.576943 0.715964 0.934767
0.892330 0.702023 0.934346
0.943830 0.658236 0.922071
0.947892 0.671999 0.895184
0.948140 0.703580 0.874776
0.663693 0.884369 0.931181
0.658206 0.882675 0.931228
0.661111 0.881058 0.931537
0.671208 0.876979 0.932043
0.733748 0.873222 0.932005
0.903839 0.891074 0.928060
0.941275 0.878747 0.923287
0.948332 0.856585 0.912223
0.949064 0.842998 0.900473
0.830420 0.927496 0.921890
0.829946 0.927393 0.921850
0.832442 0.927578 0.922049
0.838847 0.927952 0.922463
0.860885 0.927793 0.922902
0.907445 0.925587 0.923914
0.934709 0.925650 0.919928
0.943029 0.923828 0.918288
0.946509 0.921328 0.916197
0.863492 0.935793 0.916092
0.863416 0.935775 0.916072
0.865989 0.935878 0.916320
0.871520 0.936040 0.916799
0.887271 0.935823 0.917350
0.916860 0.934376 0.917426
0.931783 0.933208 0.917535
0.939357 0.932067 0.916841
0.944355 0.931599 0.916920
0.879577 0.939190 0.912939
0.879370 0.939174 0.912899
0.881578 0.939237 0.913226
0.885493 0.939301 0.913764
0.895711 0.939083 0.914654
0.917318 0.937777 0.915598
0.930725 0.936512 0.916385
0.937608 0.935857 0.916292
0.942001 0.935517 0.915924
0.381061 0.692844 0.934228
0.376669 0.689987 0.934230
0.370444 0.686014 0.934232
0.400044 0.693627 0.934283
0.539997 0.718148 0.934584
0.846909 0.729793 0.934621
0.935649 0.694387 0.930724
0.946858 0.695252 0.914102
0.948163 0.715047 0.897126
0.372730 0.687489 0.934231
0.366787 0.683755 0.934233
0.358127 0.678385 0.934233
0.387298 0.684753 0.934296
0.528976 0.708596 0.934625
0.843949 0.719521 0.934688
0.935197 0.682005 0.930850
0.946746 0.683360 0.913959
0.948091 0.703644 0.896403
0.379984 0.692139 0.934229
0.372087 0.687052 0.934232
0.364760 0.682492 0.934233
0.382738 0.681460 0.934300
0.525488 0.705294 0.934639
0.842886 0.715972 0.934711
0.935087 0.678465 0.930878
0.946719 0.680185 0.913911
0.948075 0.701015 0.896216
0.398081 0.703835 0.934219
0.387550 0.697024 0.934225
0.383959 0.694704 0.934227
0.396332 0.691370 0.934287
0.530774 0.708706 0.934632
0.845175 0.720802 0.934675
0.935433 0.685527 0.930771
0.946804 0.687966 0.913944
0.948128 0.709181 0.896685
0.446380 0.740451 0.934132
0.432069 0.731221 0.934150
0.434110 0.732390 0.934149
0.455360 0.738156 0.934170
0.564176 0.749556 0.934440
0.852458 0.758842 0.934432
0.936258 0.723551 0.930493
0.947052 0.719334 0.914643
0.948296 0.736198 0.898707
0.638683 0.857866 0.933014
0.630174 0.854437 0.933074
0.632330 0.852380 0.933145
0.643833 0.848280 0.933275
0.701337 0.852287 0.933210
0.878456 0.875618 0.931769
0.936338 0.864941 0.929025
0.947086 0.841949 0.920599
0.948876 0.833271 0.909909
0.831242 0.923708 0.927412
0.830316 0.923525 0.927386
0.832651 0.923692 0.927504
0.837964 0.923751 0.927883
0.849889 0.922442 0.928583
0.895352 0.921016 0.928485
0.933126 0.923694 0.924970
0.942564 0.921692 0.922761
0.946306 0.918418 0.920263
0.876159 0.933933 0.922482
0.875785 0.933886 0.922454
0.877827 0.933992 0.922617
0.882206 0.934170 0.922917
0.892511 0.934188 0.923175
0.916084 0.933292 0.923115
0.930300 0.932040 0.923805
0.939661 0.931908 0.921392
0.943514 0.931324 0.920781
0.892248 0.937593 0.919509
0.892139 0.937575 0.919492
0.893693 0.937647 0.919676
0.896666 0.937743 0.919995
0.903449 0.937668 0.920412
0.920184 0.936782 0.920519
0.931881 0.935837 0.920610
0.938119 0.935238 0.920312
0.941702 0.934720 0.919935
