luts/P4P_06_Bleach_size33.cube
# POCKET 4P D-Log2 LUT pack v1.0 - Bleach
# Bleach bypass. High contrast, most of the colour pulled out.
# Input:  DJI Osmo Pocket 4P D-Log2 / D-Gamut2, full range
# Output: Rec.709 / gamma 2.4 display
# Built on DJI's official D-Log2 to Rec.709 colorimetry with a
# scene-linear highlight shoulder so nothing clips at +7 stops.
TITLE "POCKET 4P Bleach v1.0"
LUT_3D_SIZE 33
DOMAIN_MIN 0.0 0.0 0.0
DOMAIN_MAX 1.0 1.0 1.0
0.000000 0.000243 0.008218
0.000000 0.000243 0.008218
0.000000 0.000243 0.008218
0.002449 0.000000 0.007682
0.008476 0.000292 0.009184
0.015805 0.001496 0.011156
0.028437 0.003908 0.014644
0.050113 0.008390 0.020549
0.082001 0.015360 0.029284
0.125036 0.024992 0.040880
0.182006 0.038021 0.055945
0.253295 0.054801 0.074847
0.337509 0.075230 0.097552
0.430536 0.098015 0.123109
0.526323 0.120223 0.149414
0.629406 0.142235 0.176615
0.724732 0.163987 0.203222
0.778432 0.186855 0.228324
0.810798 0.229898 0.264194
0.836319 0.302209 0.314793
0.853270 0.367435 0.361768
0.865349 0.419268 0.401837
0.874449 0.461027 0.435982
0.881719 0.496445 0.466123
0.887743 0.527385 0.493185
0.892922 0.555383 0.518331
0.897546 0.581473 0.541953
0.901720 0.605961 0.564401
0.905436 0.628603 0.585336
0.908754 0.649538 0.604882
0.911692 0.668712 0.622813
0.914439 0.687201 0.640402
0.916864 0.704018 0.656404
0.000000 0.000243 0.008218
0.000000 0.000243 0.008218
0.000000 0.000243 0.008218
0.002449 0.000000 0.007682
0.008476 0.000292 0.009184
0.015805 0.001496 0.011156
0.028437 0.003908 0.014644
0.050113 0.008390 0.020549
0.082001 0.015360 0.029284
0.125036 0.024992 0.040880
0.182006 0.038021 0.055945
0.253295 0.054801 0.074847
0.337509 0.075230 0.097552
0.430536 0.098015 0.123109
0.526323 0.120223 0.149414
0.629406 0.142235 0.176615
0.724732 0.163987 0.203222
0.778432 0.186855 0.228324
0.810798 0.229898 0.264194
0.836319 0.302209 0.314793
0.853270 0.367435 0.361768
0.865349 0.419268 0.401837
0.874449 0.461027 0.435982
0.881719 0.496445 0.466123
0.887743 0.527385 0.493185
0.892922 0.555383 0.518331
0.897546 0.581473 0.541953
0.901720 0.605961 0.564401
0.905436 0.628603 0.585336
0.908754 0.649538 0.604882
0.911692 0.668712 0.622813
0.914439 0.687201 0.640402
0.916864 0.704018 0.656404
0.000000 0.000243 0.008218
0.000000 0.000243 0.008218
0.000000 0.000243 0.008218
0.002449 0.000000 0.007682
0.008476 0.000292 0.009184
0.015805 0.001496 0.011156
0.028437 0.003908 0.014644
0.050113 0.008390 0.020549
0.082001 0.015360 0.029284
0.125036 0.024992 0.040880
0.182006 0.038021 0.055945
0.253295 0.054801 0.074847
0.337509 0.075230 0.097552
0.430536 0.098015 0.123109
0.526323 0.120223 0.149414
0.629406 0.142235 0.176615
0.724732 0.163987 0.203222
0.778432 0.186855 0.228324
0.810798 0.229898 0.264194
0.836319 0.302209 0.314793
0.853270 0.367435 0.361768
0.865349 0.419268 0.401837
0.874449 0.461027 0.435982
0.881719 0.496445 0.466123
0.887743 0.527385 0.493185
0.892922 0.555383 0.518331
0.897546 0.581473 0.541953
0.901720 0.605961 0.564401
0.905436 0.628603 0.585336
0.908754 0.649538 0.604882
0.911692 0.668712 0.622813
0.914439 0.687201 0.640402
0.916864 0.704018 0.656404
0.000118 0.007230 0.011495
0.000118 0.007230 0.011495
0.000118 0.007230 0.011495
0.008967 0.011523 0.013225
0.018512 0.014045 0.014457
0.030111 0.015318 0.016694
0.048628 0.017008 0.020363
0.072474 0.020230 0.025512
0.102957 0.024619 0.032548
0.143773 0.031791 0.042649
0.197129 0.042512 0.056543
0.264828 0.057609 0.074660
0.344309 0.076477 0.096480
0.433046 0.098184 0.121396
0.526008 0.120035 0.147497
0.627113 0.141917 0.174604
0.721862 0.163511 0.201110
0.775765 0.185508 0.225663
0.808160 0.225175 0.259689
0.833989 0.294610 0.308730
0.851327 0.359426 0.355328
0.863624 0.411678 0.395439
0.872905 0.453773 0.429654
0.880274 0.489268 0.459704
0.886366 0.520192 0.486633
0.891507 0.547639 0.511200
0.896095 0.573191 0.534257
0.900235 0.597148 0.556149
0.903949 0.619458 0.576709
0.907295 0.640253 0.596056
0.910249 0.659247 0.613755
0.912929 0.676977 0.630558
0.915296 0.693100 0.645840
0.004651 0.017252 0.017471
0.004651 0.017252 0.017471
0.004651 0.017252 0.017471
0.013860 0.024406 0.019295
0.026124 0.029718 0.022804
0.043045 0.035772 0.025934
0.065708 0.040660 0.030542
0.093762 0.042679 0.035258
0.126395 0.044120 0.040794
0.166259 0.047017 0.048425
0.217462 0.052828 0.059625
0.281830 0.064057 0.076006
0.357691 0.080286 0.096721
0.442696 0.100235 0.121117
0.532523 0.121178 0.147108
0.632768 0.143047 0.174499
0.724807 0.164374 0.200862
0.777463 0.186685 0.225782
0.808828 0.226522 0.259893
0.834341 0.295927 0.309008
0.851467 0.360052 0.355271
0.863726 0.412165 0.395420
0.872904 0.453802 0.429334
0.880130 0.488581 0.458835
0.886184 0.519267 0.485586
0.891300 0.546519 0.509996
0.895866 0.571886 0.532900
0.899982 0.595668 0.554636
0.903676 0.617799 0.575035
0.907001 0.638410 0.594216
0.909940 0.657237 0.611763
0.912609 0.674842 0.628443
0.914969 0.690850 0.643613
0.010363 0.029472 0.024928
0.010363 0.029472 0.024928
0.010363 0.029472 0.024928
0.020688 0.040999 0.027839
0.034954 0.051970 0.032777
0.054289 0.060467 0.038372
0.085624 0.071869 0.045911
0.116468 0.078689 0.052441
0.150565 0.078900 0.056866
0.190771 0.075774 0.061083
0.240832 0.073751 0.067901
0.302238 0.076908 0.080095
0.374449 0.087461 0.098267
0.455585 0.104018 0.121236
0.542640 0.123319 0.147085
0.641818 0.144761 0.174751
0.729021 0.165345 0.200673
0.779670 0.187896 0.225991
0.810136 0.228902 0.260911
0.835417 0.299651 0.311002
0.852199 0.363131 0.357009
0.864180 0.414205 0.396584
0.873208 0.455263 0.430173
0.880330 0.489604 0.459411
0.886309 0.519968 0.485955
0.891462 0.547439 0.510607
0.896008 0.572729 0.533474
0.900036 0.596006 0.554777
0.903680 0.617842 0.574923
0.906992 0.638363 0.594027
0.909918 0.657107 0.611503
0.912577 0.674630 0.628113
0.914928 0.690562 0.643218
0.020527 0.050347 0.037435
0.020527 0.050347 0.037435
0.020527 0.050347 0.037435
0.032315 0.068124 0.042714
0.048385 0.084424 0.048584
0.069097 0.099015 0.056143
0.104651 0.113489 0.065897
0.145494 0.127319 0.076214
0.186151 0.134546 0.084205
0.228776 0.133641 0.089143
0.276390 0.123708 0.091271
0.331399 0.110010 0.093876
0.398711 0.105401 0.104117
0.475790 0.113202 0.123303
0.557102 0.127471 0.146912
0.655670 0.147578 0.174904
0.736392 0.167075 0.200541
0.783093 0.189756 0.226521
0.812475 0.233311 0.263290
0.837032 0.305216 0.314236
0.853328 0.367879 0.359966
0.865031 0.418019 0.399121
0.873907 0.458594 0.432531
0.880919 0.492574 0.461605
0.886706 0.522088 0.487510
0.891804 0.549355 0.512049
0.896310 0.574490 0.534830
0.900310 0.597665 0.556073
0.903929 0.619399 0.576158
0.907218 0.639817 0.595200
0.910128 0.658492 0.612642
0.912815 0.676241 0.629482
0.915190 0.692381 0.644800
0.037818 0.085230 0.057700
0.037818 0.085230 0.057700
0.037818 0.085230 0.057700
0.049309 0.105495 0.063927
0.063891 0.122963 0.068294
0.084526 0.141140 0.076118
0.120979 0.161068 0.087891
0.169808 0.179797 0.101191
0.219980 0.195528 0.113712
0.271162 0.202647 0.123009
0.323686 0.197529 0.127480
0.379453 0.181216 0.128123
0.438927 0.156297 0.126932
0.504831 0.135832 0.131021
0.579504 0.137125 0.148020
0.677100 0.152842 0.175025
0.747577 0.170268 0.200445
0.788479 0.193360 0.227721
0.816224 0.241346 0.267751
0.839459 0.313923 0.319475
0.855116 0.375446 0.364937
0.866380 0.424083 0.403377
0.874896 0.463327 0.435985
0.881718 0.496623 0.464662
0.887377 0.525712 0.490324
0.892416 0.552775 0.514758
0.896900 0.577898 0.537601
0.900923 0.601331 0.559143
0.904512 0.623004 0.579223
0.907724 0.643051 0.597962
0.910570 0.661404 0.615144
0.913236 0.679095 0.631963
0.915591 0.695182 0.647260
0.061699 0.133110 0.086145
0.061699 0.133110 0.086145
0.061699 0.133110 0.086145
0.071871 0.152682 0.091706
0.083707 0.170492 0.095097
0.101258 0.189373 0.100709
0.133947 0.213001 0.111740
0.187411 0.238971 0.128172
0.248407 0.260206 0.144249
0.307688 0.277069 0.158592
0.368913 0.281610 0.168219
0.431519 0.270920 0.171837
0.496282 0.244266 0.169511
0.554371 0.204451 0.162225
0.621749 0.166013 0.159138
0.708313 0.164810 0.176608
0.763630 0.177068 0.199745
0.797108 0.201249 0.229813
0.822691 0.257120 0.275874
0.843202 0.327585 0.327494
0.857609 0.386073 0.371930
0.868239 0.432538 0.409350
0.876295 0.470074 0.440982
0.882890 0.502601 0.469274
0.888472 0.531606 0.495030
0.893340 0.557982 0.518961
0.897710 0.582652 0.541492
0.901688 0.605961 0.562997
0.905237 0.627529 0.583047
0.908413 0.647491 0.601763
0.911229 0.665768 0.618925
0.913869 0.683415 0.635749
0.916202 0.699460 0.651049
0.092468 0.194371 0.123460
0.092468 0.194371 0.123460
0.092468 0.194371 0.123460
0.100984 0.211735 0.128169
0.110082 0.228422 0.129874
0.122848 0.246133 0.132547
0.147927 0.270872 0.140513
0.198590 0.300473 0.155923
0.266204 0.328887 0.175276
0.338112 0.352250 0.193855
0.407512 0.368193 0.209356
0.479256 0.369870 0.219459
0.550505 0.351858 0.221427
0.619685 0.307380 0.212235
0.689159 0.245649 0.196606
0.745441 0.195293 0.187328
0.783641 0.194172 0.202844
0.809822 0.222208 0.237739
0.831587 0.285240 0.290328
0.848566 0.348859 0.340031
0.861084 0.401099 0.381846
0.870666 0.443745 0.417337
0.878149 0.479227 0.447859
0.884373 0.510392 0.475332
0.889772 0.538716 0.500708
0.894553 0.564859 0.524555
0.898850 0.589347 0.547033
0.902768 0.612537 0.568522
0.906293 0.634178 0.588731
0.909478 0.654402 0.607779
0.912292 0.672872 0.625202
0.914856 0.690200 0.641794
0.917122 0.705950 0.656881
0.130502 0.269971 0.171111
0.130502 0.269971 0.171111
0.130502 0.269971 0.171111
0.137559 0.284769 0.175056
0.144746 0.299439 0.175974
0.154116 0.316194 0.176236
0.170609 0.337993 0.178771
0.204336 0.366336 0.187532
0.273539 0.400381 0.206928
0.355293 0.430984 0.229164
0.439171 0.454965 0.249848
0.517628 0.468641 0.265984
0.597062 0.464253 0.274972
0.674625 0.434834 0.272830
0.755430 0.373984 0.258552
0.796759 0.297099 0.235721
0.815607 0.265251 0.235554
0.831475 0.286490 0.270030
0.844487 0.333663 0.317230
0.856347 0.381520 0.360172
0.866091 0.423343 0.396876
0.874007 0.459546 0.428658
0.880631 0.491695 0.457191
0.886380 0.521031 0.483549
0.891553 0.548527 0.508499
0.896331 0.575001 0.532866
0.900556 0.599423 0.555473
0.904310 0.621979 0.576534
0.907720 0.643222 0.596514
0.910833 0.663280 0.615527
0.913586 0.681602 0.632922
0.916108 0.698891 0.649571
0.918336 0.714604 0.664708
0.175703 0.359855 0.227777
0.175703 0.359855 0.227777
0.175703 0.359855 0.227777
0.181369 0.371737 0.232282
0.187211 0.383991 0.234293
0.193886 0.397762 0.233699
0.204317 0.416550 0.231115
0.224533 0.441691 0.231322
0.272031 0.474065 0.241941
0.357281 0.512303 0.264670
0.452886 0.543180 0.289201
0.547117 0.565925 0.311649
0.634988 0.575935 0.328301
0.721335 0.563595 0.334912
0.795656 0.522521 0.329664
0.840493 0.455616 0.312656
0.853292 0.400353 0.304531
0.856852 0.387329 0.327883
0.860942 0.402663 0.359807
0.866618 0.426590 0.390001
0.872708 0.453964 0.418403
0.878572 0.481866 0.445148
0.884145 0.509729 0.471091
0.889353 0.536893 0.496199
0.894109 0.562680 0.520043
0.898615 0.588163 0.543771
0.902650 0.611946 0.566024
0.906303 0.634329 0.587118
0.909625 0.655442 0.607150
0.912662 0.675412 0.626233
0.915349 0.693662 0.643700
0.917829 0.711025 0.660526
0.920020 0.726056 0.675823
0.227347 0.462499 0.292529
0.227347 0.462499 0.292529
0.227347 0.462499 0.292529
0.231155 0.470539 0.295910
0.235679 0.480059 0.298661
0.241057 0.491330 0.300273
0.248787 0.507291 0.299679
0.260868 0.528723 0.294991
0.284189 0.556725 0.291148
0.345036 0.593131 0.302960
0.446914 0.633468 0.328681
0.556790 0.664333 0.355598
0.661962 0.684318 0.378500
0.752765 0.687893 0.393541
0.816191 0.664492 0.395820
0.869028 0.618876 0.391558
0.884802 0.562176 0.384582
0.884773 0.520255 0.401475
0.881101 0.497760 0.419828
0.880425 0.492548 0.435246
0.882253 0.500841 0.451824
0.885415 0.516669 0.470876
0.889304 0.537003 0.491903
0.893492 0.559638 0.514099
0.897650 0.582899 0.536447
0.901688 0.606403 0.558868
0.905396 0.628851 0.580311
0.908878 0.650751 0.601268
0.912017 0.671214 0.620934
0.914858 0.690372 0.639433
0.917380 0.707915 0.656396
0.919775 0.724534 0.673180
0.921891 0.737999 0.688436
0.283777 0.574393 0.363725
0.283777 0.574393 0.363725
0.283777 0.574393 0.363725
0.286275 0.579626 0.366313
0.289796 0.586959 0.369437
0.294186 0.596039 0.372350
0.301113 0.610228 0.375363
0.310086 0.628692 0.374960
0.322873 0.651836 0.367981
0.348574 0.681074 0.357819
0.421695 0.720645 0.368960
0.540739 0.755517 0.396813
0.665844 0.777856 0.425383
0.769997 0.788071 0.447288
0.834148 0.782292 0.457473
0.883653 0.763434 0.461928
0.905969 0.724357 0.459136
0.910244 0.675855 0.475699
0.904804 0.633148 0.495677
0.899896 0.600088 0.503154
0.896911 0.580813 0.506971
0.896458 0.577276 0.515311
0.897777 0.584467 0.528035
0.900076 0.597669 0.543745
0.902925 0.614467 0.561702
0.906220 0.634512 0.581883
0.909314 0.653998 0.601353
0.912301 0.673472 0.620606
0.915111 0.692428 0.639323
0.917771 0.710969 0.657604
0.920129 0.727036 0.674332
0.922347 0.741044 0.690578
0.924307 0.753138 0.705336
0.345957 0.695740 0.442559
0.345957 0.695740 0.442559
0.345957 0.695740 0.442559
0.347562 0.699055 0.444307
0.350148 0.704354 0.446999
0.353984 0.712145 0.450746
0.359108 0.722237 0.454517
0.366513 0.735338 0.457441
0.375847 0.751380 0.455206
0.388663 0.769944 0.444037
0.416383 0.791469 0.427447
0.502866 0.817859 0.437634
0.638238 0.840480 0.467459
0.765429 0.852718 0.495334
0.841961 0.855723 0.514191
0.888716 0.848440 0.522453
0.917654 0.833730 0.527276
0.927610 0.807264 0.535720
0.926114 0.775895 0.568562
0.921160 0.741576 0.586827
0.916518 0.707905 0.590191
0.912934 0.681140 0.588101
0.910855 0.666089 0.587945
0.910326 0.661983 0.592846
0.911028 0.666290 0.602643
0.913018 0.679225 0.618204
0.915062 0.692885 0.633750
0.917253 0.707973 0.649829
0.919458 0.723212 0.666146
0.921678 0.737254 0.682767
0.923664 0.749522 0.698031
0.925659 0.761590 0.713624
0.927424 0.772035 0.726917
0.406049 0.792328 0.515919
0.406049 0.792328 0.515919
0.406049 0.792328 0.515919
0.407204 0.793869 0.517379
0.409340 0.796675 0.519901
0.411930 0.800031 0.522776
0.416021 0.805180 0.526716
0.422030 0.812522 0.531227
0.430169 0.822205 0.534188
0.439852 0.833441 0.530425
0.454864 0.847594 0.515803
0.493772 0.867664 0.501533
0.600988 0.887459 0.515743
0.744339 0.900975 0.546279
0.838014 0.904481 0.568501
0.886666 0.898748 0.574956
0.920932 0.891384 0.582289
0.936473 0.879305 0.587409
0.940178 0.861758 0.614935
0.937988 0.839336 0.651273
0.933975 0.815717 0.671057
0.930201 0.793037 0.675920
0.926983 0.773086 0.673409
0.924551 0.757523 0.669967
0.922915 0.746742 0.668223
0.922671 0.744895 0.672904
0.922966 0.746425 0.680117
0.923963 0.752294 0.690926
0.925241 0.759833 0.703157
0.926778 0.768831 0.716803
0.928180 0.776907 0.728363
0.929820 0.786254 0.740483
0.931274 0.794385 0.751008
0.465028 0.856654 0.581950
0.465028 0.856654 0.581950
0.465028 0.856654 0.581950
0.465786 0.857327 0.583116
0.467924 0.859229 0.585660
0.470947 0.861880 0.589099
0.475945 0.866141 0.594601
0.482535 0.871578 0.601361
0.491969 0.879042 0.609407
0.503011 0.887388 0.614389
0.516030 0.896764 0.611422
0.534926 0.907353 0.595567
0.578669 0.917792 0.574166
0.703745 0.928686 0.589363
0.821723 0.935138 0.617050
0.884553 0.935396 0.634285
0.917159 0.930528 0.638122
0.939764 0.921613 0.638667
0.946745 0.907797 0.642545
0.948583 0.895470 0.681684
0.946800 0.880481 0.721206
0.943760 0.864303 0.741729
0.940812 0.848819 0.749136
0.938232 0.834894 0.749894
0.936036 0.822747 0.747651
0.934541 0.814261 0.745655
0.933507 0.808223 0.745312
0.933049 0.805428 0.747109
0.933043 0.805145 0.750888
0.933460 0.807234 0.756466
0.933891 0.809409 0.761729
0.934894 0.814652 0.769816
0.935788 0.819268 0.776902
0.531913 0.905856 0.651923
0.531913 0.905856 0.651923
0.531913 0.905856 0.651923
0.531977 0.905881 0.652395
0.533847 0.906969 0.654714
0.536249 0.908349 0.657618
0.539453 0.910158 0.661535
0.544099 0.912721 0.667040
0.550450 0.916123 0.673994
0.558976 0.920528 0.681537
0.568336 0.925223 0.684616
0.579434 0.930719 0.675342
0.597473 0.936533 0.650421
0.664725 0.942802 0.628462
0.793449 0.949170 0.648371
0.872453 0.952022 0.671832
0.913167 0.951359 0.684408
0.938397 0.948363 0.690657
0.951360 0.941795 0.692516
0.955221 0.931424 0.706958
0.954814 0.918167 0.739006
0.953322 0.907551 0.770989
0.951085 0.896519 0.790655
0.948914 0.886025 0.800387
0.946976 0.876470 0.803973
0.945324 0.868391 0.803168
0.943924 0.861426 0.802275
0.942864 0.856056 0.801342
0.942126 0.852214 0.801278
0.941694 0.849893 0.802017
0.941349 0.848004 0.802907
0.941529 0.848757 0.806038
0.941692 0.849433 0.808826
0.582597 0.931363 0.706648
0.582597 0.931363 0.706648
0.582597 0.931363 0.706648
0.582582 0.931351 0.706966
0.583685 0.931808 0.708517
0.585271 0.932464 0.710660
0.587973 0.933572 0.714206
0.591266 0.934916 0.718787
0.595575 0.936657 0.724202
0.601353 0.938940 0.730504
0.607572 0.941363 0.734639
0.615261 0.944282 0.733375
0.628773 0.947684 0.719855
0.673532 0.951613 0.696929
0.785431 0.956534 0.695989
0.863978 0.959853 0.712692
0.907200 0.960873 0.723066
0.932031 0.960066 0.727171
0.950197 0.957856 0.733455
0.958312 0.953227 0.740649
0.960934 0.946515 0.764031
0.960706 0.938217 0.790507
0.958896 0.928400 0.810961
0.956630 0.918377 0.824889
0.954970 0.910992 0.835385
0.953503 0.904523 0.839211
0.952230 0.898763 0.841576
0.951173 0.893933 0.842110
0.950314 0.889934 0.842349
0.949644 0.886780 0.842289
0.949061 0.883987 0.842322
0.948806 0.882700 0.843156
0.948576 0.881530 0.843909
0.623205 0.945123 0.748022
0.623205 0.945123 0.748022
0.623205 0.945123 0.748022
0.623022 0.945083 0.748086
0.624064 0.945379 0.749266
0.625662 0.945790 0.750973
0.627883 0.946374 0.753360
0.630723 0.947114 0.756544
0.634480 0.948109 0.760797
0.639488 0.949424 0.766208
0.645456 0.950874 0.771470
0.653715 0.952477 0.774478
0.674461 0.954597 0.772992
0.731165 0.957641 0.770174
0.810521 0.961092 0.775062
0.870236 0.964003 0.784015
0.906993 0.965733 0.784637
0.929860 0.966100 0.776456
0.946403 0.965405 0.770862
0.958047 0.963741 0.774231
0.963202 0.960470 0.786708
0.964967 0.955930 0.807578
0.964898 0.950505 0.828973
0.963854 0.944472 0.845783
0.962278 0.937976 0.857509
0.960491 0.931256 0.863024
0.958782 0.924590 0.866447
0.957590 0.919773 0.868651
0.956733 0.916199 0.870346
0.956025 0.913229 0.871013
0.955396 0.910542 0.871621
0.954992 0.908792 0.872023
0.954626 0.907190 0.872392
0.676521 0.953426 0.784946
0.676521 0.953426 0.784946
0.676521 0.953426 0.784946
0.675748 0.953357 0.784755
0.677188 0.953512 0.785709
0.679825 0.953802 0.787319
0.683840 0.954186 0.789664
0.690050 0.954758 0.793157
0.696980 0.955415 0.797285
0.706103 0.956238 0.802573
0.718803 0.957286 0.808980
0.733316 0.958376 0.814630
0.760542 0.959881 0.820616
0.800076 0.961792 0.826424
0.848014 0.964088 0.835399
0.886336 0.966339 0.843816
0.913252 0.968147 0.845972
0.931667 0.969251 0.839497
0.944430 0.969341 0.826325
0.956846 0.969079 0.818872
0.963529 0.967681 0.818780
0.966750 0.965285 0.828991
0.967938 0.962121 0.844848
0.967984 0.958464 0.860447
0.967393 0.954524 0.873303
0.966319 0.950506 0.881341
0.965220 0.946480 0.887089
0.964079 0.942499 0.890331
0.963021 0.938731 0.892320
0.962052 0.935236 0.893163
0.961158 0.931922 0.893852
0.960503 0.929469 0.893922
0.959897 0.927160 0.893976
0.760770 0.959291 0.823249
0.760770 0.959291 0.823249
0.760770 0.959291 0.823249
0.759718 0.959235 0.822910
0.762147 0.959377 0.824208
0.764792 0.959564 0.825644
0.768855 0.959831 0.827835
0.774459 0.960213 0.830913
0.781049 0.960664 0.834710
0.790153 0.961263 0.839938
0.801004 0.961975 0.846008
0.812529 0.962677 0.851804
0.829306 0.963603 0.858359
0.852825 0.964866 0.865885
0.880852 0.966575 0.875569
0.904665 0.968269 0.883995
0.922687 0.969712 0.887800
0.936174 0.970853 0.885602
0.946297 0.971491 0.876225
0.956656 0.971922 0.866131
0.963448 0.971553 0.859301
0.967363 0.970405 0.859108
0.969371 0.968619 0.865597
0.970201 0.966383 0.875603
0.970328 0.963856 0.886194
0.969822 0.961139 0.894166
0.969209 0.958448 0.900270
0.968453 0.955828 0.904449
0.967714 0.953333 0.907376
0.966994 0.950991 0.909191
0.966324 0.948760 0.910732
0.965749 0.946855 0.911372
0.965216 0.945057 0.911939
0.826508 0.963292 0.856848
0.826508 0.963292 0.856848
0.826508 0.963292 0.856848
0.825644 0.963245 0.856477
0.827537 0.963361 0.857584
0.829694 0.963495 0.858867
0.833113 0.963714 0.860923
0.837287 0.963974 0.863492
0.842301 0.964303 0.866681
0.849108 0.964752 0.871017
0.857057 0.965275 0.876102
0.865206 0.965812 0.881366
0.874753 0.966448 0.886721
0.888365 0.967393 0.893368
0.904817 0.968650 0.901549
0.920172 0.969967 0.909269
0.932318 0.971101 0.913860
0.941921 0.972035 0.914592
0.949547 0.972745 0.910096
0.957955 0.973484 0.903051
0.963804 0.973676 0.895608
0.967670 0.973275 0.890644
0.970035 0.972347 0.890069
0.971343 0.971018 0.893507
0.971955 0.969403 0.899470
0.971905 0.967510 0.905741
0.971681 0.965614 0.910838
0.971247 0.963725 0.914783
0.970771 0.961941 0.917750
0.970255 0.960280 0.919863
0.969773 0.958703 0.921678
0.969317 0.957310 0.922714
0.968895 0.955999 0.923634
0.871374 0.966196 0.883734
0.871374 0.966196 0.883734
0.871374 0.966196 0.883734
0.870929 0.966167 0.883518
0.871893 0.966235 0.884194
0.873432 0.966343 0.885259
0.875983 0.966524 0.887000
0.879040 0.966745 0.889152
0.882714 0.967018 0.891814
0.887052 0.967349 0.895024
0.892328 0.967765 0.898963
0.897975 0.968230 0.903339
0.903712 0.968711 0.907411
0.911874 0.969418 0.912672
0.921743 0.970332 0.918937
0.931881 0.971358 0.925388
0.940461 0.972288 0.930072
0.947423 0.973067 0.932294
0.954021 0.973786 0.931168
0.960057 0.974451 0.927237
0.964631 0.974868 0.921592
0.968039 0.974919 0.916312
0.970407 0.974545 0.912853
0.971926 0.973806 0.911974
0.972846 0.972804 0.913634
0.973132 0.971503 0.917273
0.973207 0.970162 0.920534
0.973047 0.968759 0.923490
0.972791 0.967416 0.925921
0.972447 0.966142 0.927899
0.972121 0.964939 0.929610
0.971776 0.963906 0.930751
0.971457 0.962938 0.931766
0.900687 0.968431 0.904239
0.900687 0.968431 0.904239
0.900687 0.968431 0.904239
0.900736 0.968436 0.904316
0.901439 0.968496 0.904869
0.902493 0.968587 0.905705
0.903975 0.968717 0.906882
0.905942 0.968891 0.908460
0.908869 0.969155 0.910831
0.911874 0.969434 0.913315
0.915185 0.969752 0.916168
0.918811 0.970112 0.919333
0.922378 0.970473 0.922287
0.927588 0.971014 0.926360
0.933814 0.971692 0.931089
0.940558 0.972478 0.936171
0.946837 0.973252 0.940491
0.952149 0.973925 0.943172
0.957911 0.974643 0.943864
0.962298 0.975175 0.942296
0.965714 0.975564 0.938838
0.968511 0.975853 0.934676
0.970686 0.975867 0.931088
0.972251 0.975551 0.928764
0.973326 0.974981 0.927701
0.973853 0.974102 0.928445
0.974152 0.973167 0.929582
0.974207 0.972139 0.931284
0.974142 0.971126 0.932903
0.973969 0.970132 0.934460
0.973794 0.969191 0.935817
0.973516 0.968319 0.936835
0.973258 0.967501 0.937738
0.918584 0.970082 0.918860
0.918584 0.970082 0.918860
0.918584 0.970082 0.918860
0.918365 0.970061 0.918695
0.918866 0.970111 0.919118
0.919875 0.970212 0.919980
0.920941 0.970320 0.920889
0.922326 0.970463 0.922078
0.924229 0.970662 0.923727
0.926378 0.970891 0.925615
0.928684 0.971146 0.927735
0.931219 0.971432 0.930073
0.933578 0.971702 0.932173
0.936825 0.972081 0.934918
0.941149 0.972605 0.938469
0.945976 0.973222 0.942392
0.950639 0.973846 0.945911
0.955763 0.974538 0.948648
0.960230 0.975146 0.949891
0.963758 0.975616 0.949544
0.966615 0.975977 0.947827
0.968958 0.976249 0.945207
0.970880 0.976399 0.942574
0.972379 0.976354 0.940463
0.973488 0.976097 0.938911
0.974150 0.975541 0.938453
0.974594 0.974916 0.938382
0.974814 0.974181 0.938826
0.974893 0.973429 0.939461
0.974847 0.972659 0.940280
0.974787 0.971930 0.941018
0.974616 0.971224 0.941836
0.974457 0.970564 0.942561
0.931003 0.971397 0.929529
0.931003 0.971397 0.929529
0.931003 0.971397 0.929529
0.930696 0.971363 0.929272
0.931050 0.971403 0.929589
0.931873 0.971497 0.930325
0.932657 0.971587 0.931037
0.933699 0.971709 0.931986
0.934961 0.971858 0.933149
0.936438 0.972035 0.934519
0.937997 0.972227 0.936031
0.939743 0.972446 0.937718
0.941336 0.972647 0.939236
0.943368 0.972906 0.941096
0.946355 0.973301 0.943726
