luts/P4P_08_Golden_size33.cube
# POCKET 4P D-Log2 LUT pack v1.0 - Golden
# Warm golden-hour bias with amber highlights.
# Input:  DJI Osmo Pocket 4P D-Log2 / D-Gamut2, full range
# Output: Rec.709 / gamma 2.4 display
# Built on DJI's official D-Log2 to Rec.709 colorimetry with a
# scene-linear highlight shoulder so nothing clips at +7 stops.
TITLE "POCKET 4P Golden v1.0"
LUT_3D_SIZE 5
DOMAIN_MIN 0.0 0.0 0.0
DOMAIN_MAX 1.0 1.0 1.0
0.021606 0.016167 0.027096
0.208122 0.003673 0.044560
0.915327 0.014421 0.132357
0.946382 0.396568 0.316895
0.947717 0.548808 0.441787
0.003201 0.202335 0.078009
0.289559 0.305427 0.000000
0.929846 0.024121 0.097310
0.946407 0.400531 0.316198
0.947694 0.545092 0.436665
0.008523 0.851156 0.289401
0.009244 0.870136 0.290250
0.860166 0.886792 0.000000
0.949035 0.681774 0.459751
0.948738 0.673460 0.531911
0.637297 0.942766 0.596345
0.671056 0.942767 0.620823
0.838147 0.942652 0.751157
0.939086 0.939022 0.582409
0.949163 0.921407 0.710592
0.860298 0.942620 0.805055
0.863905 0.942606 0.808172
0.884140 0.942515 0.830084
0.928282 0.942368 0.855254
0.943333 0.941062 0.828556
0.013730 0.016487 0.150395
0.280853 0.008204 0.229177
0.921767 0.021513 0.260896
0.946355 0.400210 0.331945
0.947693 0.547791 0.445564
0.001940 0.253507 0.236213
0.289190 0.282098 0.276266
0.933814 0.058349 0.241886
0.946405 0.405599 0.331190
0.947690 0.546993 0.442994
0.010007 0.859170 0.340795
0.009718 0.873917 0.340773
0.862588 0.886654 0.020676
0.948977 0.678041 0.471452
0.948743 0.676084 0.538718
0.647718 0.942772 0.607526
0.666696 0.942773 0.621996
0.840573 0.942650 0.757686
0.939123 0.938998 0.586133
0.949166 0.921462 0.713808
0.861591 0.942616 0.806611
0.863597 0.942606 0.808376
0.884507 0.942514 0.831195
0.928321 0.942366 0.856278
0.943359 0.941047 0.829450
0.004691 0.310838 0.732689
0.031477 0.257728 0.858313
0.916333 0.015803 0.818329
0.946230 0.466806 0.620928
0.947560 0.598998 0.625825
0.004212 0.320024 0.741994
0.026274 0.270876 0.853899
0.914984 0.020215 0.815694
0.946174 0.459759 0.616634
0.947478 0.589727 0.618695
0.312940 0.851993 0.804443
0.349968 0.854707 0.807442
0.856070 0.840556 0.813573
0.948601 0.727146 0.722105
0.948622 0.712739 0.678481
0.614677 0.942754 0.755723
0.634325 0.942769 0.761763
0.800277 0.942532 0.789177
0.938201 0.935757 0.757765
0.949331 0.920525 0.801670
0.874715 0.942606 0.849122
0.877710 0.942595 0.851781
0.896462 0.942505 0.865946
0.930058 0.942342 0.867378
0.944261 0.940218 0.841926
0.086688 0.522410 0.932014
0.086237 0.518076 0.932493
0.652277 0.565134 0.935729
0.946713 0.508906 0.887757
0.947673 0.638146 0.815677
0.088498 0.523458 0.932149
0.080776 0.515456 0.932199
0.645216 0.553162 0.935752
0.946593 0.494404 0.887228
0.947580 0.625502 0.812613
0.266217 0.684883 0.933858
0.269098 0.672204 0.933939
0.687566 0.723505 0.933779
0.947521 0.620376 0.893862
0.948031 0.689786 0.828807
0.812244 0.931281 0.908205
0.815570 0.931448 0.908599
0.861337 0.931018 0.910369
0.933517 0.925797 0.909444
0.948210 0.920239 0.906209
0.854812 0.941404 0.898827
0.858007 0.941426 0.899418
0.881662 0.941141 0.902936
0.927861 0.938088 0.907910
0.942123 0.936931 0.906093
0.381061 0.692844 0.934228
0.370444 0.686014 0.934232
0.539997 0.718148 0.934584
0.935649 0.694387 0.930724
0.948163 0.715047 0.897126
0.379984 0.692139 0.934229
0.364760 0.682492 0.934233
0.525488 0.705294 0.934639
0.935087 0.678465 0.930878
0.948075 0.701015 0.896216
0.446380 0.740451 0.934132
0.434110 0.732390 0.934149
0.564176 0.749556 0.934440
0.936258 0.723551 0.930493
0.948296 0.736198 0.898707
0.831242 0.923708 0.927412
0.832651 0.923692 0.927504
0.849889 0.922442 0.928583
0.933126 0.923694 0.924970
0.946306 0.918418 0.920263
0.892248 0.937593 0.919509
0.893693 0.937647 0.919676
0.903449 0.937668 0.920412
0.931881 0.935837 0.920610
0.941702 0.934720 0.919935
