luts/P4P_01_Neutral_size65.cube
# POCKET 4P D-Log2 LUT pack v1.0 - Neutral
# Reference. DJI colour science with the clipped highlights recovered.
# Input:  DJI Osmo Pocket 4P D-Log2 / D-Gamut2, full range
# Output: Rec.709 / gamma 2.4 display
# Built on DJI's official D-Log2 to Rec.709 colorimetry with a
# scene-linear highlight shoulder so nothing clips at +7 stops.
TITLE "POCKET 4P Neutral v1.0"
LUT_3D_SIZE 9
DOMAIN_MIN 0.0 0.0 0.0
DOMAIN_MAX 1.0 1.0 1.0
0.029380 0.029377 0.029384
0.079901 0.019068 0.027113
0.224083 0.009341 0.056742
0.549920 0.021928 0.108207
0.934189 0.026078 0.160724
1.000000 0.267372 0.256516
1.000000 0.400937 0.345019
1.000000 0.476235 0.410618
1.000000 0.529196 0.460539
0.013608 0.079679 0.039004
0.092170 0.099033 0.021531
0.275148 0.079708 0.019025
0.572347 0.026415 0.088304
0.934204 0.028517 0.155347
1.000000 0.260577 0.251213
1.000000 0.394685 0.339223
1.000000 0.468467 0.403095
1.000000 0.520132 0.451409
0.002040 0.226111 0.103408
0.035165 0.262847 0.063832
0.299338 0.318915 0.006101
0.642652 0.243595 0.019256
0.976150 0.040571 0.126525
1.000000 0.284699 0.258285
1.000000 0.404361 0.344596
1.000000 0.475564 0.407929
1.000000 0.526132 0.456015
0.005841 0.505456 0.214233
0.001313 0.518908 0.209828
0.077583 0.576007 0.105878
0.576808 0.608193 0.021784
1.000000 0.442104 0.102785
1.000000 0.381691 0.297899
1.000000 0.443444 0.369988
1.000000 0.506758 0.432233
1.000000 0.554350 0.480422
0.001424 0.812999 0.318010
0.000791 0.816364 0.319492
0.000000 0.844707 0.319551
0.131509 0.916153 0.128708
0.805313 0.872132 0.007641
1.000000 0.723560 0.342474
1.000000 0.637584 0.484487
1.000000 0.616542 0.511418
1.000000 0.630792 0.542950
0.136916 1.000000 0.384411
0.137686 1.000000 0.385635
0.163335 1.000000 0.399952
0.260041 1.000000 0.422535
0.644093 1.000000 0.384652
0.944341 0.987620 0.242351
1.000000 0.905038 0.489851
1.000000 0.843180 0.621999
1.000000 0.808071 0.662865
0.582829 1.000000 0.604402
0.585258 1.000000 0.606362
0.610167 1.000000 0.625107
0.659798 1.000000 0.664745
0.773031 1.000000 0.733457
0.905216 1.000000 0.685561
0.990703 1.000000 0.609034
1.000000 0.981208 0.663036
1.000000 0.956820 0.714402
0.758248 1.000000 0.746702
0.758288 1.000000 0.746771
0.769384 1.000000 0.756792
0.784936 1.000000 0.771761
0.833461 1.000000 0.804457
0.910236 1.000000 0.833921
0.968348 1.000000 0.790841
1.000000 1.000000 0.765607
1.000000 1.000000 0.768417
0.807348 1.000000 0.790840
0.807459 1.000000 0.790875
0.813314 1.000000 0.794731
0.823050 1.000000 0.801801
0.849885 1.000000 0.823813
0.906474 1.000000 0.859654
0.956779 1.000000 0.864658
0.989262 1.000000 0.845718
1.000000 1.000000 0.830911
0.021451 0.017411 0.058137
0.090250 0.014922 0.080446
0.249620 0.010389 0.120900
0.558109 0.023606 0.163417
0.938064 0.026503 0.178982
1.000000 0.268979 0.261741
1.000000 0.401169 0.347159
1.000000 0.475995 0.411630
1.000000 0.528786 0.461030
0.008891 0.086857 0.085870
0.101610 0.101610 0.101610
0.311666 0.049149 0.113283
0.582666 0.027100 0.155123
0.938817 0.031239 0.173764
1.000000 0.262828 0.257038
1.000000 0.395013 0.341580
1.000000 0.468691 0.404630
1.000000 0.520038 0.452291
0.001176 0.247462 0.153216
0.016434 0.280964 0.140002
0.297948 0.316579 0.065431
0.667323 0.222583 0.056275
0.978590 0.053634 0.150919
1.000000 0.287499 0.263909
1.000000 0.404456 0.346922
1.000000 0.475364 0.409137
1.000000 0.525848 0.456743
0.006069 0.513922 0.234960
0.001648 0.527199 0.234043
0.062669 0.584619 0.129580
0.579248 0.608194 0.046067
1.000000 0.435170 0.122671
1.000000 0.380178 0.299149
1.000000 0.442439 0.370526
1.000000 0.505428 0.431949
1.000000 0.552716 0.479557
0.002273 0.815540 0.322511
0.001663 0.818280 0.324094
0.000000 0.845725 0.324010
0.123077 0.917997 0.134095
0.805917 0.871364 0.017167
1.000000 0.721074 0.348136
1.000000 0.633479 0.484348
1.000000 0.615178 0.511924
1.000000 0.631482 0.544972
0.136750 1.000000 0.385544
0.136017 1.000000 0.386420
0.159788 1.000000 0.400065
0.260669 1.000000 0.423881
0.643039 1.000000 0.385343
0.943974 0.987193 0.242009
1.000000 0.903990 0.488576
1.000000 0.840244 0.622123
1.000000 0.804732 0.662226
0.584303 1.000000 0.606128
0.583447 1.000000 0.605858
0.605917 1.000000 0.622907
0.658280 1.000000 0.663887
0.771251 1.000000 0.732246
0.904760 1.000000 0.685002
0.990388 1.000000 0.606114
1.000000 0.980783 0.659731
1.000000 0.956282 0.712179
0.758084 1.000000 0.746821
0.757310 1.000000 0.746176
0.767200 1.000000 0.755158
0.783679 1.000000 0.770763
0.832459 1.000000 0.803767
0.909930 1.000000 0.833825
0.968167 1.000000 0.790212
1.000000 1.000000 0.764461
1.000000 1.000000 0.766584
0.807431 1.000000 0.791018
0.807199 1.000000 0.790862
0.812613 1.000000 0.794409
0.821890 1.000000 0.800786
0.849016 1.000000 0.823188
0.906006 1.000000 0.859406
0.956661 1.000000 0.864628
0.989173 1.000000 0.845178
1.000000 1.000000 0.829492
0.018007 0.029753 0.172036
0.099201 0.008197 0.207885
0.290049 0.016843 0.249261
0.586032 0.028505 0.298667
0.952715 0.036192 0.283565
1.000000 0.283782 0.299880
1.000000 0.404017 0.358424
1.000000 0.476722 0.416839
1.000000 0.528340 0.463654
0.006507 0.083144 0.186467
0.087999 0.053971 0.248127
0.318502 0.031159 0.277165
0.603006 0.031159 0.303029
0.953633 0.043312 0.279467
1.000000 0.279441 0.294937
1.000000 0.398706 0.353325
1.000000 0.469529 0.409961
1.000000 0.520114 0.455500
0.000000 0.272986 0.258948
0.006943 0.288380 0.277455
0.298741 0.298741 0.298741
0.690608 0.193454 0.305806
0.990551 0.085040 0.266759
1.000000 0.302334 0.296281
1.000000 0.408667 0.358017
1.000000 0.477956 0.415669
1.000000 0.527687 0.461448
0.007857 0.537233 0.340158
0.006119 0.547417 0.343633
0.058671 0.590600 0.317021
0.581323 0.599313 0.281346
1.000000 0.448754 0.213862
1.000000 0.385998 0.315069
1.000000 0.445388 0.378901
1.000000 0.507796 0.437894
1.000000 0.554872 0.484367
0.003200 0.825829 0.364931
0.002573 0.828971 0.365611
0.000159 0.851499 0.365519
0.097081 0.927726 0.178411
0.809181 0.871836 0.086013
1.000000 0.721460 0.376377
1.000000 0.634579 0.493844
1.000000 0.617453 0.518654
1.000000 0.632890 0.548662
0.142777 1.000000 0.400698
0.141505 1.000000 0.401713
0.155761 1.000000 0.412800
0.285503 1.000000 0.437946
0.647961 1.000000 0.403114
0.945332 0.987618 0.261515
1.000000 0.905156 0.501087
1.000000 0.839619 0.631210
1.000000 0.804533 0.668159
0.591367 1.000000 0.613852
0.590658 1.000000 0.613694
0.606735 1.000000 0.626068
0.663903 1.000000 0.668973
0.776561 1.000000 0.738763
0.906260 1.000000 0.691023
0.990834 1.000000 0.612112
1.000000 0.981209 0.665987
1.000000 0.956992 0.716933
0.761387 1.000000 0.750346
0.760652 1.000000 0.749737
0.767172 1.000000 0.755749
0.785036 1.000000 0.772588
0.834710 1.000000 0.806865
0.910521 1.000000 0.836047
0.968468 1.000000 0.791575
1.000000 1.000000 0.766487
1.000000 1.000000 0.769518
0.809478 1.000000 0.792768
0.809286 1.000000 0.792623
0.812807 1.000000 0.794980
0.822552 1.000000 0.802123
0.850613 1.000000 0.825367
0.906747 1.000000 0.861037
0.956906 1.000000 0.866280
0.989459 1.000000 0.846873
1.000000 1.000000 0.832119
0.001607 0.171849 0.413366
0.031384 0.105267 0.494783
0.289001 0.040274 0.560243
0.619830 0.024389 0.534090
0.967052 0.043113 0.490090
1.000000 0.322599 0.448996
1.000000 0.431254 0.450495
1.000000 0.493852 0.472423
1.000000 0.539143 0.499291
0.001556 0.183401 0.418282
0.023423 0.134051 0.495277
0.289937 0.063661 0.567178
0.621378 0.033249 0.535836
0.966039 0.046454 0.488217
1.000000 0.318216 0.445906
1.000000 0.426163 0.445826
1.000000 0.488071 0.466803
1.000000 0.532368 0.492566
0.005579 0.263537 0.455807
0.003998 0.259770 0.488457
0.263050 0.224460 0.598245
0.658412 0.126726 0.571237
0.989451 0.090938 0.496961
1.000000 0.338452 0.448349
1.000000 0.433259 0.447064
1.000000 0.492630 0.467596
1.000000 0.536177 0.493612
0.006484 0.555566 0.530372
0.006790 0.558145 0.532769
0.087999 0.576989 0.554131
0.565133 0.565133 0.565133
0.992435 0.470483 0.539135
1.000000 0.422908 0.463048
1.000000 0.469558 0.456403
1.000000 0.521796 0.480815
1.000000 0.563520 0.510867
0.023069 0.835446 0.530609
0.026436 0.837429 0.530824
0.045133 0.854447 0.534202
0.277234 0.887366 0.516543
0.810811 0.846561 0.519630
1.000000 0.729971 0.519920
1.000000 0.644396 0.526543
1.000000 0.624125 0.535395
1.000000 0.636315 0.558818
0.144978 1.000000 0.511901
0.144885 1.000000 0.511876
0.163984 1.000000 0.516760
0.284125 1.000000 0.522623
0.645779 1.000000 0.490069
0.946386 0.978484 0.467347
1.000000 0.902955 0.564771
1.000000 0.841224 0.652892
1.000000 0.811114 0.684441
0.605582 1.000000 0.647349
0.605105 1.000000 0.647096
0.622150 1.000000 0.657197
0.664281 1.000000 0.682481
0.785301 1.000000 0.746536
0.904960 1.000000 0.702002
0.992887 1.000000 0.626469
1.000000 0.979938 0.678917
1.000000 0.956531 0.729350
0.771503 1.000000 0.761577
0.770879 1.000000 0.761108
0.777189 1.000000 0.766738
0.790459 1.000000 0.779260
0.842089 1.000000 0.813667
0.912841 1.000000 0.839498
0.970617 1.000000 0.787913
1.000000 1.000000 0.766306
1.000000 1.000000 0.774282
0.818169 1.000000 0.798888
0.817816 1.000000 0.798659
0.821411 1.000000 0.801788
0.828330 1.000000 0.809106
0.855776 1.000000 0.831423
0.909101 1.000000 0.864658
0.958759 1.000000 0.868020
0.991317 1.000000 0.845255
1.000000 1.000000 0.835131
0.007228 0.324358 0.692656
0.007097 0.321337 0.708285
0.046583 0.276694 0.842646
0.507551 0.259155 0.893520
0.937673 0.027761 0.783626
1.000000 0.323611 0.653198
1.000000 0.459745 0.606454
1.000000 0.525464 0.605240
1.000000 0.569804 0.615053
0.007160 0.323358 0.690352
0.007036 0.320103 0.705770
0.047184 0.273677 0.835620
0.504089 0.254836 0.886440
0.931068 0.024221 0.778170
1.000000 0.313608 0.650879
1.000000 0.452944 0.602676
1.000000 0.518489 0.600363
1.000000 0.562666 0.609517
0.006476 0.332506 0.700464
0.007114 0.329150 0.715204
0.039643 0.288572 0.835477
0.505925 0.268877 0.887765
0.933998 0.034227 0.780137
1.000000 0.317694 0.651172
1.000000 0.453790 0.602705
1.000000 0.518472 0.600004
1.000000 0.562211 0.608838
0.032260 0.477867 0.780933
0.034413 0.471723 0.785828
0.065448 0.464902 0.835845
0.495849 0.483459 0.884741
0.959279 0.319718 0.813304
1.000000 0.391321 0.666080
1.000000 0.484552 0.616451
1.000000 0.543881 0.613081
1.000000 0.585038 0.621826
0.316067 0.811339 0.774252
0.319509 0.810612 0.773964
0.348634 0.815360 0.778318
0.513670 0.816449 0.787753
0.797313 0.793771 0.793416
1.000000 0.743617 0.767496
1.000000 0.673238 0.698485
1.000000 0.653453 0.667037
1.000000 0.661877 0.663112
0.306169 0.990792 0.716267
0.308881 0.990701 0.716443
0.337182 0.992445 0.721392
0.446457 0.993462 0.735497
0.708252 0.975836 0.758269
0.936203 0.956026 0.758246
1.000000 0.907020 0.765986
1.000000 0.854208 0.761474
1.000000 0.824421 0.755634
0.565362 1.000000 0.733478
0.565363 1.000000 0.733386
0.581475 1.000000 0.739017
0.619238 1.000000 0.752024
0.725562 1.000000 0.771408
0.876538 1.000000 0.758760
0.987258 1.000000 0.749994
1.000000 0.978275 0.773561
1.000000 0.954815 0.796675
0.749932 1.000000 0.798803
0.749481 1.000000 0.798578
0.756845 1.000000 0.804898
0.772829 1.000000 0.820005
0.820842 1.000000 0.843844
0.911994 1.000000 0.857183
0.966996 1.000000 0.814668
1.000000 1.000000 0.796126
1.000000 1.000000 0.810303
0.832751 1.000000 0.851546
0.832500 1.000000 0.851401
0.838227 1.000000 0.855753
0.848705 1.000000 0.864134
0.875627 1.000000 0.879499
0.921008 1.000000 0.886867
0.962354 1.000000 0.884928
0.993932 1.000000 0.858079
1.000000 1.000000 0.849763
0.004342 0.417598 0.908650
0.004272 0.416197 0.905715
0.002233 0.410333 0.944281
0.246810 0.401374 1.000000
0.776576 0.343129 1.000000
1.000000 0.313955 0.892856
1.000000 0.462371 0.746617
1.000000 0.538853 0.714781
1.000000 0.586445 0.710782
0.004269 0.416134 0.905278
0.004192 0.414477 0.901804
0.001694 0.406910 0.937838
0.242786 0.395258 1.000000
0.772561 0.335345 1.000000
1.000000 0.300471 0.892068
1.000000 0.454272 0.744363
1.000000 0.531572 0.711231
1.000000 0.579129 0.706451
0.004416 0.419341 0.912677
0.004311 0.417157 0.907967
0.001927 0.409276 0.940667
0.243286 0.393239 1.000000
0.771671 0.332324 1.000000
1.000000 0.295908 0.891609
1.000000 0.451760 0.743600
1.000000 0.529425 0.710161
1.000000 0.577219 0.705301
0.005741 0.446423 0.941128
0.004062 0.442838 0.935047
0.008695 0.439455 0.962147
0.242120 0.433497 1.000000
0.778534 0.383465 1.000000
1.000000 0.341916 0.892657
1.000000 0.471109 0.748670
1.000000 0.544753 0.716892
1.000000 0.591195 0.712788
0.346899 0.748220 0.980679
0.345825 0.744983 0.980747
0.358168 0.740906 0.986713
0.412158 0.730034 0.996464
0.769167 0.755114 0.966524
0.998947 0.694311 0.920724
1.000000 0.642328 0.807690
1.000000 0.639901 0.760300
1.000000 0.656706 0.746913
0.609779 0.942633 0.910122
0.609765 0.942274 0.909867
0.617067 0.943898 0.912380
0.642672 0.946319 0.917813
0.777476 0.938575 0.923261
0.928534 0.926990 0.926018
1.000000 0.905201 0.916026
1.000000 0.866286 0.882428
1.000000 0.839255 0.855936
0.653252 1.000000 0.875751
0.653168 1.000000 0.875544
0.660326 1.000000 0.878626
0.679672 1.000000 0.885660
0.763932 1.000000 0.900320
0.893553 0.990865 0.911722
0.976730 0.984049 0.916726
1.000000 0.971704 0.911303
1.000000 0.955697 0.909936
0.724293 1.000000 0.873949
0.724080 1.000000 0.873773
0.730065 1.000000 0.877000
0.743564 1.000000 0.883968
0.787929 1.000000 0.897509
0.884559 1.000000 0.907794
0.950599 1.000000 0.896843
0.997300 1.000000 0.903735
1.000000 0.998441 0.907029
0.789959 1.000000 0.892282
0.789965 1.000000 0.892274
0.794520 1.000000 0.895166
0.805710 1.000000 0.901102
0.840996 1.000000 0.911987
0.901433 1.000000 0.920078
0.953992 1.000000 0.914100
0.987283 1.000000 0.906243
1.000000 1.000000 0.907352
0.112205 0.506356 1.000000
0.107780 0.504215 1.000000
0.111838 0.502745 1.000000
0.234655 0.509162 1.000000
0.600914 0.541475 1.000000
0.962676 0.466673 1.000000
1.000000 0.495125 0.901986
1.000000 0.556277 0.815132
1.000000 0.601430 0.787901
0.105451 0.503094 1.000000
0.100477 0.500676 1.000000
0.101753 0.497982 1.000000
0.226276 0.502372 1.000000
0.596449 0.534278 1.000000
0.961056 0.455494 1.000000
1.000000 0.485803 0.901041
1.000000 0.547600 0.811644
1.000000 0.593151 0.784462
0.113963 0.507224 1.000000
0.107683 0.504167 1.000000
0.106745 0.500577 1.000000
0.223523 0.499719 1.000000
0.595474 0.531631 1.000000
0.960660 0.451709 1.000000
1.000000 0.482979 0.900677
1.000000 0.545356 0.810693
1.000000 0.591167 0.783610
0.134446 0.517053 1.000000
0.124306 0.512378 1.000000
0.126884 0.510454 1.000000
0.231871 0.508707 1.000000
0.599800 0.535556 1.000000
0.962069 0.459141 1.000000
1.000000 0.490037 0.901029
1.000000 0.551836 0.813060
1.000000 0.597609 0.786173
0.276691 0.638451 1.000000
0.265242 0.632169 1.000000
0.279531 0.628253 1.000000
0.335498 0.632391 1.000000
0.627331 0.669062 1.000000
0.956433 0.622737 1.000000
1.000000 0.587067 0.917030
1.000000 0.611514 0.838471
1.000000 0.643063 0.807011
0.637229 0.915620 0.993386
0.635963 0.914633 0.993130
0.641322 0.915519 0.994713
0.655165 0.915390 0.998750
0.726979 0.906109 1.000000
0.925474 0.914397 0.987334
1.000000 0.893309 0.970711
1.000000 0.860982 0.941821
1.000000 0.837138 0.915678
0.740049 0.985392 0.962522
0.740195 0.985317 0.962488
0.744209 0.985966 0.963556
0.754776 0.987152 0.965911
0.809594 0.984924 0.968696
0.917177 0.978106 0.970541
0.970284 0.970276 0.970233
1.000000 0.966867 0.970957
1.000000 0.954857 0.961342
0.772763 1.000000 0.947876
0.772594 1.000000 0.947747
0.776611 1.000000 0.949164
0.785115 1.000000 0.951870
0.825832 1.000000 0.957334
0.910167 1.000000 0.963841
0.961548 0.997752 0.969243
0.992919 0.996481 0.968692
1.000000 0.992314 0.964863
0.799942 1.000000 0.942397
0.799754 1.000000 0.942277
0.805027 1.000000 0.943812
0.816055 1.000000 0.946858
0.846319 1.000000 0.952543
0.908987 1.000000 0.960077
0.955313 1.000000 0.965892
0.981909 1.000000 0.961710
1.000000 1.000000 0.965378
0.278363 0.587699 1.000000
0.274003 0.585335 1.000000
0.269047 0.582501 1.000000
0.319537 0.590381 1.000000
0.517680 0.617894 1.000000
0.857517 0.600558 1.000000
1.000000 0.574642 0.987299
1.000000 0.598104 0.914774
1.000000 0.628946 0.871184
0.269774 0.583157 1.000000
0.264394 0.580407 1.000000
0.257328 0.576483 1.000000
0.309101 0.583218 1.000000
0.510542 0.610399 1.000000
0.853933 0.591524 1.000000
1.000000 0.564766 0.987237
1.000000 0.588934 0.913236
1.000000 0.619889 0.867983
0.277926 0.587455 1.000000
0.270436 0.583490 1.000000
0.263818 0.579897 1.000000
0.305598 0.580632 1.000000
0.508539 0.607825 1.000000
0.852880 0.588605 1.000000
1.000000 0.561778 0.987169
1.000000 0.586551 0.912788
1.000000 0.617806 0.867208
0.295037 0.597049 1.000000
0.285500 0.591693 1.000000
0.282278 0.589841 1.000000
0.315769 0.588235 1.000000
0.512944 0.610437 1.000000
0.855914 0.592703 1.000000
1.000000 0.567055 0.986984
1.000000 0.592639 0.913590
1.000000 0.624042 0.869270
0.354350 0.643337 1.000000
0.344155 0.637103 1.000000
0.349200 0.638640 1.000000
0.380030 0.644568 1.000000
0.539621 0.662825 1.000000
0.864953 0.652839 1.000000
1.000000 0.617865 0.988747
1.000000 0.628860 0.921118
1.000000 0.654165 0.880678
0.606386 0.867194 1.000000
0.602060 0.863878 1.000000
0.604403 0.860746 1.000000
0.612503 0.853025 1.000000
0.661748 0.846142 1.000000
0.887391 0.881834 1.000000
0.994721 0.858204 1.000000
1.000000 0.819521 0.969486
1.000000 0.798555 0.939928
0.763448 0.973415 0.998725
0.762798 0.973089 0.998594
0.766214 0.973689 0.999214
0.775193 0.974927 1.000000
0.808702 0.974660 1.000000
0.899421 0.968745 1.000000
0.974496 0.970081 0.996209
1.000000 0.965025 0.991623
1.000000 0.957841 0.985735
0.813629 1.000000 0.984129
0.813502 1.000000 0.984073
0.817827 1.000000 0.984804
0.827387 1.000000 0.986236
0.856788 1.000000 0.988101
0.924003 0.997360 0.989188
0.966825 0.993867 0.990890
0.991069 0.990579 0.990364
1.000000 0.989437 0.990537
0.842275 1.000000 0.976675
0.841885 1.000000 0.976564
0.846054 1.000000 0.977480
0.853620 1.000000 0.979001
0.874510 1.000000 0.981633
0.925643 1.000000 0.984810
0.964022 1.000000 0.987569
0.986176 1.000000 0.989336
1.000000 1.000000 0.989082
0.377195 0.644500 1.000000
0.373473 0.642223 1.000000
0.368188 0.639055 1.000000
0.393411 0.645089 1.000000
0.509650 0.664528 1.000000
0.785675 0.674653 1.000000
0.978820 0.647058 1.000000
1.000000 0.647586 0.967466
1.000000 0.663365 0.926561
0.370131 0.640232 1.000000
0.365078 0.637253 1.000000
0.357697 0.632967 1.000000
0.382676 0.638011 1.000000
0.500770 0.656932 1.000000
0.781475 0.666487 1.000000
0.977571 0.637131 1.000000
1.000000 0.638046 0.966807
1.000000 0.654254 0.924636
0.376282 0.643939 1.000000
0.369584 0.639883 1.000000
0.363352 0.636245 1.000000
0.378826 0.635381 1.000000
0.497958 0.654302 1.000000
0.779984 0.663663 1.000000
0.977286 0.634288 1.000000
1.000000 0.635495 0.966608
1.000000 0.652150 0.924150
0.391567 0.653247 1.000000
0.382683 0.647829 1.000000
0.379648 0.645982 1.000000
0.390283 0.643291 1.000000
0.502238 0.657019 1.000000
0.783240 0.667511 1.000000
0.978295 0.639957 1.000000
1.000000 0.641744 0.966873
1.000000 0.658680 0.925415
0.431868 0.682278 1.000000
0.419960 0.674983 1.000000
0.421664 0.675906 1.000000
0.439440 0.680445 1.000000
0.528926 0.689404 1.000000
0.793674 0.697643 1.000000
0.980237 0.670343 1.000000
1.000000 0.666835 0.969503
1.000000 0.680209 0.930726
0.587016 0.819876 1.000000
0.580286 0.814385 1.000000
0.582055 0.811145 1.000000
0.591321 0.804812 1.000000
0.636721 0.811007 1.000000
0.835940 0.851277 1.000000
0.977074 0.833341 1.000000
1.000000 0.797092 0.990962
1.000000 0.784641 0.961907
0.764230 0.961907 1.000000
0.762954 0.961353 1.000000
0.766151 0.961873 1.000000
0.773550 0.962102 1.000000
0.790864 0.958368 1.000000
0.871767 0.954984 1.000000
0.969852 0.964048 1.000000
1.000000 0.958605 1.000000
1.000000 0.949437 0.996034
0.835541 0.995028 1.000000
0.834856 0.994864 1.000000
0.838601 0.995258 1.000000
0.846824 0.995940 1.000000
0.867308 0.996185 1.000000
0.921890 0.993711 1.000000
0.962105 0.990026 1.000000
0.992203 0.990175 1.000000
1.000000 0.988530 1.000000
0.867103 1.000000 0.994393
0.866874 1.000000 0.994340
0.870125 1.000000 0.994909
0.876459 1.000000 0.995903
0.891536 1.000000 0.997289
0.933302 1.000000 0.998154
0.967620 1.000000 0.999098
0.987764 1.000000 1.000000
1.000000 0.999710 0.999309
