luts/P4P_12_Punch_size33.cube
# POCKET 4P D-Log2 LUT pack v1.0 - Punch
# High contrast and saturation for social and vertical.
# Input:  DJI Osmo Pocket 4P D-Log2 / D-Gamut2, full range
# Output: Rec.709 / gamma 2.4 display
# Built on DJI's official D-Log2 to Rec.709 colorimetry with a
# scene-linear highlight shoulder so nothing clips at +7 stops.
TITLE "POCKET 4P Punch v1.0"
LUT_3D_SIZE 5
DOMAIN_MIN 0.0 0.0 0.0
DOMAIN_MAX 1.0 1.0 1.0
0.000270 0.000268 0.000271
0.118217 0.000000 0.000000
0.859729 0.000000 0.000000
0.948920 0.202634 0.110054
0.959512 0.441229 0.320082
0.111679 0.266109 0.143072
0.409030 0.429506 0.155919
0.889553 0.000000 0.000000
0.949648 0.211587 0.113165
0.959478 0.436859 0.313585
0.700512 0.987631 0.845899
0.746189 0.990968 0.866282
0.988134 0.991450 0.645050
0.973381 0.731211 0.457675
0.967553 0.654796 0.492573
0.962438 0.995842 0.953242
0.964054 0.995492 0.954365
0.974029 0.992606 0.959292
0.991687 0.992693 0.918784
0.987865 0.981952 0.911422
0.972639 0.991138 0.963421
0.972979 0.990959 0.963571
0.974473 0.989655 0.964944
0.981022 0.986737 0.964528
0.985912 0.987061 0.955732
0.000000 0.000000 0.054469
0.107845 0.000000 0.059777
0.851382 0.000000 0.000000
0.947779 0.199499 0.121890
0.959004 0.436042 0.321404
0.061630 0.284538 0.268060
0.256264 0.256264 0.256264
0.883034 0.000000 0.000000
0.948787 0.211512 0.126201
0.959138 0.436242 0.319131
0.678139 0.988236 0.869168
0.716176 0.990909 0.883194
0.987588 0.990883 0.658717
0.972312 0.713392 0.460806
0.967320 0.655429 0.499280
0.962539 0.995714 0.953919
0.963376 0.995510 0.954608
0.973953 0.992478 0.959674
0.991620 0.992626 0.919344
0.987787 0.981846 0.912087
0.972707 0.991065 0.963523
0.972892 0.990963 0.963609
0.974413 0.989605 0.965055
0.980935 0.986666 0.964685
0.985860 0.987003 0.955866
0.000000 0.072761 0.595524
0.000000 0.000000 0.654953
0.576951 0.000000 0.315899
0.917527 0.138704 0.356173
0.946424 0.413410 0.482263
0.000000 0.084718 0.609648
0.000000 0.000000 0.661851
0.574810 0.000000 0.314435
0.916459 0.127147 0.347092
0.945633 0.398376 0.469044
0.502234 0.954099 0.943056
0.534298 0.954131 0.943040
0.897454 0.895075 0.894779
0.956518 0.627322 0.667048
0.959239 0.627519 0.623622
0.932470 0.994781 0.967728
0.935674 0.994601 0.967613
0.962304 0.992664 0.964509
0.986664 0.987747 0.940516
0.984409 0.976071 0.928359
0.969043 0.989454 0.967962
0.969340 0.989238 0.968132
0.971927 0.987735 0.968850
0.980212 0.985776 0.966229
0.985044 0.985779 0.957096
0.000000 0.209883 0.908888
0.000000 0.198861 0.907939
0.234847 0.143827 0.881178
0.825820 0.000000 0.629828
0.921303 0.348694 0.655539
0.000000 0.211518 0.909285
0.000000 0.194684 0.906988
0.217637 0.120424 0.877126
0.818113 0.000000 0.615325
0.918890 0.324993 0.640087
0.021987 0.522728 0.942843
0.012077 0.493772 0.940195
0.418569 0.485998 0.927407
0.873703 0.191618 0.746698
0.930138 0.445074 0.720459
0.905536 0.979843 0.976576
0.907173 0.979791 0.976583
0.929095 0.977195 0.974591
0.964795 0.964794 0.964783
0.971943 0.955247 0.957136
0.944093 0.986554 0.977125
0.945145 0.986413 0.977068
0.953188 0.985015 0.976137
0.970208 0.978725 0.971145
0.975511 0.976231 0.968524
0.121117 0.508193 0.939026
0.105916 0.496020 0.938131
0.279033 0.517264 0.936040
0.827672 0.279232 0.864228
0.905684 0.389790 0.820481
0.119561 0.506932 0.938933
0.097928 0.489809 0.937675
0.254114 0.492790 0.934014
0.816731 0.244862 0.857106
0.901800 0.360978 0.810427
0.221059 0.596062 0.945301
0.202999 0.581475 0.944342
0.330362 0.580795 0.941352
0.844981 0.343116 0.876763
0.911120 0.432946 0.834949
0.886180 0.967243 0.976896
0.887006 0.967105 0.976852
0.895804 0.964078 0.975884
0.958050 0.956354 0.968081
0.966265 0.946586 0.961112
0.947120 0.979213 0.977183
0.947835 0.979133 0.977139
0.952568 0.978317 0.976571
0.966258 0.973556 0.972832
0.970925 0.970871 0.970779
