luts/P4P_03_Natural_size65.cube
# POCKET 4P D-Log2 LUT pack v1.0 - Natural
# Everyday. True-to-life with warmer skin and calmer greens.
# Input:  DJI Osmo Pocket 4P D-Log2 / D-Gamut2, full range
# Output: Rec.709 / gamma 2.4 display
# Built on DJI's official D-Log2 to Rec.709 colorimetry with a
# scene-linear highlight shoulder so nothing clips at +7 stops.
TITLE "POCKET 4P Natural v1.0"
LUT_3D_SIZE 65
DOMAIN_MIN 0.0 0.0 0.0
DOMAIN_MAX 1.0 1.0 1.0
0.021334 0.021182 0.020811
0.021334 0.021182 0.020811
0.021334 0.021182 0.020811
0.021334 0.021182 0.020811
0.021334 0.021182 0.020811
0.026372 0.011204 0.011839
0.034914 0.006855 0.008857
0.041770 0.002356 0.006123
0.048527 0.000000 0.003577
0.054854 0.000000 0.000964
0.063196 0.000000 0.000000
0.073944 0.000000 0.000000
0.085318 0.000000 0.000000
0.098767 0.000000 0.000000
0.113818 0.000000 0.000000
0.131988 0.000000 0.000000
0.152831 0.000000 0.000000
0.175990 0.000000 0.000000
0.202953 0.000000 0.000000
0.232690 0.000000 0.000000
0.266055 0.000000 0.000000
0.302407 0.000000 0.000000
0.340615 0.000000 0.000000
0.381496 0.000000 0.000000
0.423488 0.000000 0.000000
0.466588 0.000000 0.000000
0.510213 0.000000 0.000000
0.552626 0.000000 0.000000
0.594227 0.000000 0.000000
0.632992 0.000000 0.000000
0.680043 0.000000 0.000000
0.722387 0.000000 0.000000
0.757570 0.000000 0.000000
0.787270 0.000000 0.000000
0.807741 0.000000 0.000000
0.818019 0.000000 0.000000
0.825785 0.000000 0.000000
0.835947 0.000000 0.000000
0.847457 0.000000 0.000000
0.857110 0.017350 0.004721
0.863893 0.063403 0.034113
0.869764 0.105118 0.061128
0.873895 0.137275 0.083634
0.877639 0.167441 0.104869
0.880378 0.191709 0.123434
0.882932 0.214834 0.141101
0.885020 0.235023 0.157294
0.886857 0.253508 0.172453
0.888576 0.271103 0.186871
0.890034 0.287144 0.200650
0.891396 0.302388 0.213755
0.892675 0.316888 0.226216
0.893857 0.330862 0.238579
0.894961 0.344202 0.250472
0.895999 0.356886 0.261779
0.896973 0.368947 0.272527
0.897859 0.380454 0.283118
0.898691 0.391395 0.293204
0.899474 0.401796 0.302789
0.900210 0.411681 0.311899
0.900902 0.421139 0.320666
0.901549 0.430448 0.329552
0.902159 0.439295 0.337997
0.902734 0.447701 0.346022
0.903275 0.455689 0.353647
0.021334 0.021182 0.020811
0.021334 0.021182 0.020811
0.021334 0.021182 0.020811
0.021334 0.021182 0.020811
0.021334 0.021182 0.020811
0.026372 0.011204 0.011839
0.034914 0.006855 0.008857
0.041770 0.002356 0.006123
0.048527 0.000000 0.003577
0.054854 0.000000 0.000964
0.063196 0.000000 0.000000
0.073944 0.000000 0.000000
0.085318 0.000000 0.000000
0.098767 0.000000 0.000000
0.113818 0.000000 0.000000
0.131988 0.000000 0.000000
0.152831 0.000000 0.000000
0.175990 0.000000 0.000000
0.202953 0.000000 0.000000
0.232690 0.000000 0.000000
0.266055 0.000000 0.000000
0.302407 0.000000 0.000000
0.340615 0.000000 0.000000
0.381496 0.000000 0.000000
0.423488 0.000000 0.000000
0.466588 0.000000 0.000000
0.510213 0.000000 0.000000
0.552626 0.000000 0.000000
0.594227 0.000000 0.000000
0.632992 0.000000 0.000000
0.680043 0.000000 0.000000
0.722387 0.000000 0.000000
0.757570 0.000000 0.000000
0.787270 0.000000 0.000000
0.807741 0.000000 0.000000
0.818019 0.000000 0.000000
0.825785 0.000000 0.000000
0.835947 0.000000 0.000000
0.847457 0.000000 0.000000
0.857110 0.017350 0.004721
0.863893 0.063403 0.034113
0.869764 0.105118 0.061128
0.873895 0.137275 0.083634
0.877639 0.167441 0.104869
0.880378 0.191709 0.123434
0.882932 0.214834 0.141101
0.885020 0.235023 0.157294
0.886857 0.253508 0.172453
0.888576 0.271103 0.186871
0.890034 0.287144 0.200650
0.891396 0.302388 0.213755
0.892675 0.316888 0.226216
0.893857 0.330862 0.238579
0.894961 0.344202 0.250472
0.895999 0.356886 0.261779
0.896973 0.368947 0.272527
0.897859 0.380454 0.283118
0.898691 0.391395 0.293204
0.899474 0.401796 0.302789
0.900210 0.411681 0.311899
0.900902 0.421139 0.320666
0.901549 0.430448 0.329552
0.902159 0.439295 0.337997
0.902734 0.447701 0.346022
0.903275 0.455689 0.353647
0.021334 0.021182 0.020811
0.021334 0.021182 0.020811
0.021334 0.021182 0.020811
0.021334 0.021182 0.020811
0.021334 0.021182 0.020811
0.026372 0.011204 0.011839
0.034914 0.006855 0.008857
0.041770 0.002356 0.006123
0.048527 0.000000 0.003577
0.054854 0.000000 0.000964
0.063196 0.000000 0.000000
0.073944 0.000000 0.000000
0.085318 0.000000 0.000000
0.098767 0.000000 0.000000
0.113818 0.000000 0.000000
0.131988 0.000000 0.000000
0.152831 0.000000 0.000000
0.175990 0.000000 0.000000
0.202953 0.000000 0.000000
0.232690 0.000000 0.000000
0.266055 0.000000 0.000000
0.302407 0.000000 0.000000
0.340615 0.000000 0.000000
0.381496 0.000000 0.000000
0.423488 0.000000 0.000000
0.466588 0.000000 0.000000
0.510213 0.000000 0.000000
0.552626 0.000000 0.000000
0.594227 0.000000 0.000000
0.632992 0.000000 0.000000
0.680043 0.000000 0.000000
0.722387 0.000000 0.000000
0.757570 0.000000 0.000000
0.787270 0.000000 0.000000
0.807741 0.000000 0.000000
0.818019 0.000000 0.000000
0.825785 0.000000 0.000000
0.835947 0.000000 0.000000
0.847457 0.000000 0.000000
0.857110 0.017350 0.004721
0.863893 0.063403 0.034113
0.869764 0.105118 0.061128
0.873895 0.137275 0.083634
0.877639 0.167441 0.104869
0.880378 0.191709 0.123434
0.882932 0.214834 0.141101
0.885020 0.235023 0.157294
0.886857 0.253508 0.172453
0.888576 0.271103 0.186871
0.890034 0.287144 0.200650
0.891396 0.302388 0.213755
0.892675 0.316888 0.226216
0.893857 0.330862 0.238579
0.894961 0.344202 0.250472
0.895999 0.356886 0.261779
0.896973 0.368947 0.272527
0.897859 0.380454 0.283118
0.898691 0.391395 0.293204
0.899474 0.401796 0.302789
0.900210 0.411681 0.311899
0.900902 0.421139 0.320666
0.901549 0.430448 0.329552
0.902159 0.439295 0.337997
0.902734 0.447701 0.346022
0.903275 0.455689 0.353647
0.021334 0.021182 0.020811
0.021334 0.021182 0.020811
0.021334 0.021182 0.020811
0.021334 0.021182 0.020811
0.021334 0.021182 0.020811
0.026372 0.011204 0.011839
0.034914 0.006855 0.008857
0.041770 0.002356 0.006123
0.048527 0.000000 0.003577
0.054854 0.000000 0.000964
0.063196 0.000000 0.000000
0.073944 0.000000 0.000000
0.085318 0.000000 0.000000
0.098767 0.000000 0.000000
0.113818 0.000000 0.000000
0.131988 0.000000 0.000000
0.152831 0.000000 0.000000
0.175990 0.000000 0.000000
0.202953 0.000000 0.000000
0.232690 0.000000 0.000000
0.266055 0.000000 0.000000
0.302407 0.000000 0.000000
0.340615 0.000000 0.000000
0.381496 0.000000 0.000000
0.423488 0.000000 0.000000
0.466588 0.000000 0.000000
0.510213 0.000000 0.000000
0.552626 0.000000 0.000000
0.594227 0.000000 0.000000
0.632992 0.000000 0.000000
0.680043 0.000000 0.000000
0.722387 0.000000 0.000000
0.757570 0.000000 0.000000
0.787270 0.000000 0.000000
0.807741 0.000000 0.000000
0.818019 0.000000 0.000000
0.825785 0.000000 0.000000
0.835947 0.000000 0.000000
0.847457 0.000000 0.000000
0.857110 0.017350 0.004721
0.863893 0.063403 0.034113
0.869764 0.105118 0.061128
0.873895 0.137275 0.083634
0.877639 0.167441 0.104869
0.880378 0.191709 0.123434
0.882932 0.214834 0.141101
0.885020 0.235023 0.157294
0.886857 0.253508 0.172453
0.888576 0.271103 0.186871
0.890034 0.287144 0.200650
0.891396 0.302388 0.213755
0.892675 0.316888 0.226216
0.893857 0.330862 0.238579
0.894961 0.344202 0.250472
0.895999 0.356886 0.261779
0.896973 0.368947 0.272527
0.897859 0.380454 0.283118
0.898691 0.391395 0.293204
0.899474 0.401796 0.302789
0.900210 0.411681 0.311899
0.900902 0.421139 0.320666
0.901549 0.430448 0.329552
0.902159 0.439295 0.337997
0.902734 0.447701 0.346022
0.903275 0.455689 0.353647
0.021334 0.021182 0.020811
0.021334 0.021182 0.020811
0.021334 0.021182 0.020811
0.021334 0.021182 0.020811
0.021334 0.021182 0.020811
0.026372 0.011204 0.011839
0.034914 0.006855 0.008857
0.041770 0.002356 0.006123
0.048527 0.000000 0.003577
0.054854 0.000000 0.000964
0.063196 0.000000 0.000000
0.073944 0.000000 0.000000
0.085318 0.000000 0.000000
0.098767 0.000000 0.000000
0.113818 0.000000 0.000000
0.131988 0.000000 0.000000
0.152831 0.000000 0.000000
0.175990 0.000000 0.000000
0.202953 0.000000 0.000000
0.232690 0.000000 0.000000
0.266055 0.000000 0.000000
0.302407 0.000000 0.000000
0.340615 0.000000 0.000000
0.381496 0.000000 0.000000
0.423488 0.000000 0.000000
0.466588 0.000000 0.000000
0.510213 0.000000 0.000000
0.552626 0.000000 0.000000
0.594227 0.000000 0.000000
0.632992 0.000000 0.000000
0.680043 0.000000 0.000000
0.722387 0.000000 0.000000
0.757570 0.000000 0.000000
0.787270 0.000000 0.000000
0.807741 0.000000 0.000000
0.818019 0.000000 0.000000
0.825785 0.000000 0.000000
0.835947 0.000000 0.000000
0.847457 0.000000 0.000000
0.857110 0.017350 0.004721
0.863893 0.063403 0.034113
0.869764 0.105118 0.061128
0.873895 0.137275 0.083634
0.877639 0.167441 0.104869
0.880378 0.191709 0.123434
0.882932 0.214834 0.141101
0.885020 0.235023 0.157294
0.886857 0.253508 0.172453
0.888576 0.271103 0.186871
0.890034 0.287144 0.200650
0.891396 0.302388 0.213755
0.892675 0.316888 0.226216
0.893857 0.330862 0.238579
0.894961 0.344202 0.250472
0.895999 0.356886 0.261779
0.896973 0.368947 0.272527
0.897859 0.380454 0.283118
0.898691 0.391395 0.293204
0.899474 0.401796 0.302789
0.900210 0.411681 0.311899
0.900902 0.421139 0.320666
0.901549 0.430448 0.329552
0.902159 0.439295 0.337997
0.902734 0.447701 0.346022
0.903275 0.455689 0.353647
0.023035 0.037150 0.026523
0.023035 0.037150 0.026523
0.023035 0.037150 0.026523
0.023035 0.037150 0.026523
0.023035 0.037150 0.026523
0.037026 0.038223 0.023275
0.051773 0.037157 0.017916
0.061309 0.032019 0.014090
0.068504 0.026202 0.010672
0.077590 0.018730 0.006336
0.086423 0.012222 0.002517
0.096218 0.003798 0.000000
0.106594 0.000000 0.000000
0.117644 0.000000 0.000000
0.132136 0.000000 0.000000
0.149578 0.000000 0.000000
0.168794 0.000000 0.000000
0.191327 0.000000 0.000000
0.216242 0.000000 0.000000
0.244608 0.000000 0.000000
0.276185 0.000000 0.000000
0.309838 0.000000 0.000000
0.346947 0.000000 0.000000
0.386259 0.000000 0.000000
0.426378 0.000000 0.000000
0.468434 0.000000 0.000000
0.510144 0.000000 0.000000
0.552379 0.000000 0.000000
0.593402 0.000000 0.000000
0.631193 0.000000 0.000000
0.677646 0.000000 0.000000
0.719751 0.000000 0.000000
0.755024 0.000000 0.000000
0.784970 0.000000 0.000000
0.806384 0.000000 0.000000
0.816910 0.000000 0.000000
0.824771 0.000000 0.000000
0.833642 0.000000 0.000000
0.845589 0.000000 0.000000
0.855592 0.006852 0.000000
0.862483 0.053226 0.027176
0.868511 0.095504 0.054362
0.872888 0.129056 0.077614
0.876841 0.160440 0.099489
0.879632 0.184846 0.118015
0.882235 0.208105 0.135646
0.884360 0.228387 0.151795
0.886229 0.246948 0.166908
0.887979 0.264616 0.181282
0.889466 0.280786 0.195100
0.890857 0.296153 0.208245
0.892162 0.310772 0.220743
0.893338 0.324520 0.232843
0.894429 0.337551 0.244404
0.895454 0.349943 0.255396
0.896418 0.361725 0.265843
0.897320 0.373285 0.276425
0.898169 0.384291 0.286514
0.898967 0.394754 0.296103
0.899718 0.404698 0.305217
0.900422 0.414186 0.313962
0.901071 0.423386 0.322701
0.901682 0.432129 0.331005
0.902258 0.440437 0.338896
0.902801 0.448331 0.346394
0.029478 0.057266 0.037095
0.029478 0.057266 0.037095
0.029478 0.057266 0.037095
0.029478 0.057266 0.037095
0.029478 0.057266 0.037095
0.048125 0.063579 0.034941
0.061955 0.064314 0.031488
0.076146 0.064323 0.026613
0.090434 0.065705 0.021902
0.102204 0.060059 0.017257
0.112482 0.051516 0.012055
0.123303 0.040127 0.006133
0.133965 0.027559 0.000000
0.145895 0.016523 0.000000
0.158898 0.003054 0.000000
0.172060 0.000000 0.000000
0.188071 0.000000 0.000000
0.208913 0.000000 0.000000
0.232914 0.000000 0.000000
0.259711 0.000000 0.000000
0.288610 0.000000 0.000000
0.321183 0.000000 0.000000
0.356515 0.000000 0.000000
0.393390 0.000000 0.000000
0.432863 0.000000 0.000000
0.472782 0.000000 0.000000
0.514206 0.000000 0.000000
0.555567 0.000000 0.000000
0.595229 0.000000 0.000000
0.633028 0.000000 0.000000
0.679314 0.000000 0.000000
0.721036 0.000000 0.000000
0.756066 0.000000 0.000000
0.785654 0.000000 0.000000
0.806434 0.000000 0.000000
0.817136 0.000000 0.000000
0.824987 0.000000 0.000000
0.833784 0.000000 0.000000
0.845525 0.000000 0.000000
0.855386 0.004881 0.000000
0.862361 0.051887 0.025859
0.868435 0.094488 0.053262
0.872735 0.127431 0.076093
0.876629 0.158309 0.097617
0.879449 0.182906 0.116265
0.882079 0.206346 0.134011
0.884220 0.226734 0.150233
0.886099 0.245370 0.165401
0.887858 0.263110 0.179827
0.889319 0.278959 0.193360
0.890685 0.294012 0.206223
0.891968 0.308331 0.218454
0.893150 0.322113 0.230578
0.894254 0.335264 0.242238
0.895291 0.347770 0.253323
0.896266 0.359661 0.263860
0.897167 0.371175 0.274391
0.898013 0.382130 0.284427
0.898809 0.392545 0.293965
0.899559 0.402444 0.303030
0.900260 0.411862 0.311701
0.900899 0.420862 0.320233
0.901500 0.429415 0.328340
0.902067 0.437542 0.336044
0.902602 0.445264 0.343363
0.035466 0.076187 0.047416
0.035466 0.076187 0.047416
0.035466 0.076187 0.047416
0.035466 0.076187 0.047416
0.035466 0.076187 0.047416
0.056659 0.085006 0.045144
0.072096 0.089412 0.044140
0.085794 0.089865 0.040456
0.100539 0.092410 0.035876
0.120318 0.095477 0.029893
0.135125 0.094330 0.025119
0.148434 0.086852 0.019262
0.162686 0.074964 0.012129
0.175160 0.058862 0.004122
0.187552 0.041727 0.000000
0.201577 0.023970 0.000000
0.215961 0.005149 0.000000
0.231409 0.000000 0.000000
0.250283 0.000000 0.000000
0.275210 0.000000 0.000000
0.303406 0.000000 0.000000
0.334066 0.000000 0.000000
0.367187 0.000000 0.000000
0.403233 0.000000 0.000000
0.440370 0.000000 0.000000
0.479575 0.000000 0.000000
0.519624 0.000000 0.000000
0.559129 0.000000 0.000000
0.598628 0.000000 0.000000
0.635112 0.000000 0.000000
0.681361 0.000000 0.000000
0.723009 0.000000 0.000000
0.757439 0.000000 0.000000
0.786476 0.000000 0.000000
0.807012 0.000000 0.000000
0.817573 0.000000 0.000000
0.825268 0.000000 0.000000
0.833999 0.000000 0.000000
0.845797 0.000000 0.000000
0.855696 0.006261 0.000000
0.862505 0.052303 0.025598
0.868469 0.094248 0.052652
0.872795 0.127462 0.075717
0.876708 0.158556 0.097431
0.879501 0.182977 0.115983
0.882106 0.206249 0.133637
0.884211 0.226313 0.149613
0.886052 0.244573 0.164483
0.887776 0.261954 0.178625
0.889252 0.277972 0.192315
0.890634 0.293199 0.205339
0.891930 0.307684 0.217723
0.893109 0.321426 0.229813
0.894206 0.334486 0.241393
0.895237 0.346904 0.252401
0.896205 0.358712 0.262865
0.897093 0.370040 0.273226
0.897926 0.380813 0.283093
0.898710 0.391054 0.292472
0.899448 0.400787 0.301385
0.900141 0.410092 0.309952
0.900790 0.419208 0.318588
0.901401 0.427871 0.326794
0.901977 0.436103 0.334592
0.902519 0.443925 0.342001
0.041175 0.093992 0.057352
0.041175 0.093992 0.057352
0.041175 0.093992 0.057352
0.041175 0.093992 0.057352
0.041175 0.093992 0.057352
0.062147 0.103329 0.054808
0.081650 0.110805 0.054273
0.096630 0.114786 0.052845
0.110971 0.116598 0.049422
0.130409 0.120502 0.044018
0.151706 0.126433 0.038823
0.169561 0.128266 0.034289
0.185515 0.120147 0.027373
0.200989 0.106538 0.018798
0.216187 0.089946 0.009247
0.230536 0.069861 0.000000
0.245080 0.046947 0.000000
0.260034 0.021530 0.000000
0.276243 0.000000 0.000000
0.294696 0.000000 0.000000
0.318400 0.000000 0.000000
0.347688 0.000000 0.000000
0.379665 0.000000 0.000000
0.413249 0.000000 0.000000
0.449612 0.000000 0.000000
0.487351 0.000000 0.000000
0.525216 0.000000 0.000000
0.564272 0.000000 0.000000
0.602149 0.000000 0.000000
0.638300 0.000000 0.000000
0.684973 0.000000 0.000000
0.725481 0.000000 0.000000
0.759583 0.000000 0.000000
0.788558 0.000000 0.000000
0.807977 0.000000 0.000000
0.818232 0.000000 0.000000
0.825718 0.000000 0.000000
0.834793 0.000000 0.000000
0.846273 0.000000 0.000000
0.855922 0.007225 0.000000
0.862750 0.053552 0.025999
0.868715 0.095656 0.053223
0.872993 0.128639 0.076201
0.876860 0.159481 0.097803
0.879588 0.183395 0.115997
0.882134 0.206182 0.133310
0.884237 0.226271 0.149340
0.886096 0.244751 0.164413
0.887837 0.262341 0.178749
0.889286 0.278071 0.192200
0.890641 0.293010 0.204986
0.891913 0.307220 0.217142
0.893086 0.320907 0.229191
0.894182 0.333970 0.240779
0.895212 0.346391 0.251795
0.896180 0.358202 0.262267
0.897074 0.369620 0.272717
0.897913 0.380484 0.282674
0.898703 0.390811 0.292138
0.899447 0.400627 0.301132
0.900143 0.409969 0.309738
0.900779 0.418915 0.318215
0.901379 0.427416 0.326271
0.901944 0.435494 0.333926
0.902476 0.443169 0.341199
0.046299 0.111146 0.067328
0.046299 0.111146 0.067328
0.046299 0.111146 0.067328
0.046299 0.111146 0.067328
0.046299 0.111146 0.067328
0.068066 0.125807 0.066816
0.091868 0.135693 0.065833
0.109853 0.143296 0.065454
0.123676 0.146896 0.064963
0.141160 0.148865 0.059775
0.162199 0.155444 0.054426
0.185981 0.159687 0.048489
0.206260 0.159317 0.043061
0.224089 0.153639 0.036497
0.241313 0.140987 0.027320
0.258814 0.123009 0.016350
0.275731 0.100634 0.004056
0.290124 0.072174 0.000000
0.305869 0.040986 0.000000
0.322918 0.008737 0.000000
0.340681 0.000000 0.000000
0.363287 0.000000 0.000000
0.392918 0.000000 0.000000
0.425430 0.000000 0.000000
0.459928 0.000000 0.000000
0.495335 0.000000 0.000000
0.532389 0.000000 0.000000
0.569385 0.000000 0.000000
0.606849 0.000000 0.000000
0.642172 0.000000 0.000000
0.688402 0.000000 0.000000
0.728213 0.000000 0.000000
0.761607 0.000000 0.000000
0.789892 0.000000 0.000000
0.808536 0.000000 0.000000
0.818827 0.000000 0.000000
0.826196 0.000000 0.000000
0.835351 0.000000 0.000000
0.846830 0.000000 0.000000
0.856488 0.010374 0.000000
0.863183 0.056002 0.027080
0.869025 0.097446 0.053966
0.873209 0.129841 0.076600
0.876999 0.160194 0.097929
0.879738 0.184303 0.116330
0.882294 0.207276 0.133840
0.884367 0.227159 0.149744
0.886184 0.245288 0.164570
0.887886 0.262544 0.178671
0.889341 0.278384 0.192238
0.890702 0.293440 0.205144
0.891980 0.307761 0.217416
0.893149 0.321426 0.229459
0.894239 0.334432 0.241011
0.895263 0.346801 0.251993
0.896226 0.358560 0.262431
0.897102 0.369772 0.272699
0.897926 0.380433 0.282476
0.898700 0.390565 0.291767
0.899429 0.400196 0.300597
0.900115 0.409408 0.309088
0.900759 0.418457 0.317669
0.901365 0.427057 0.325822
0.901936 0.435229 0.333570
0.902474 0.442994 0.340931
0.053498 0.133101 0.079702
0.053498 0.133101 0.079702
0.053498 0.133101 0.079702
0.053498 0.133101 0.079702
0.053498 0.133101 0.079702
0.074634 0.149319 0.079829
0.100403 0.160456 0.078265
0.121632 0.171116 0.078816
0.138496 0.178503 0.078365
0.154694 0.180581 0.076041
0.174979 0.185044 0.070700
0.199511 0.191903 0.064547
0.224584 0.194384 0.058761
0.246286 0.193089 0.052773
0.265762 0.186972 0.045684
0.285484 0.174566 0.035764
0.304213 0.155472 0.023330
0.323059 0.131386 0.009168
0.338881 0.098905 0.000000
0.354908 0.061643 0.000000
0.370846 0.020248 0.000000
0.387907 0.000000 0.000000
0.408513 0.000000 0.000000
0.439246 0.000000 0.000000
0.471602 0.000000 0.000000
0.506046 0.000000 0.000000
0.540747 0.000000 0.000000
0.576777 0.000000 0.000000
0.612837 0.000000 0.000000
0.647880 0.000000 0.000000
0.693641 0.000000 0.000000
0.731784 0.000000 0.000000
0.764286 0.000000 0.000000
0.792291 0.000000 0.000000
0.809817 0.000000 0.000000
0.819665 0.000000 0.000000
0.826757 0.000000 0.000000
0.836465 0.000000 0.000000
0.847730 0.000000 0.000000
0.857176 0.014338 0.000000
0.863691 0.058992 0.028512
0.869392 0.099698 0.055049
0.873542 0.132033 0.077744
0.877295 0.162268 0.099082
0.879946 0.185744 0.117071
0.882423 0.208112 0.134187
0.884475 0.227897 0.150066
0.886294 0.246124 0.165009
0.887998 0.263474 0.179221
0.889447 0.279287 0.192791
0.890803 0.294314 0.205696
0.892075 0.308608 0.217966
0.893224 0.322066 0.229844
0.894291 0.334827 0.241193
0.895293 0.346961 0.251982
0.896236 0.358497 0.262237
0.897123 0.369851 0.272637
0.897957 0.380662 0.282554
0.898742 0.390939 0.291980
0.899481 0.400707 0.300937
0.900173 0.410003 0.309508
0.900806 0.418902 0.317949
0.901402 0.427358 0.325969
0.901963 0.435393 0.333590
0.902493 0.443028 0.340832
0.061636 0.157140 0.093559
0.061636 0.157140 0.093559
0.061636 0.157140 0.093559
0.061636 0.157140 0.093559
0.061636 0.157140 0.093559
0.081850 0.174985 0.094405
0.108225 0.188849 0.093022
0.132049 0.198895 0.092483
0.152292 0.210086 0.093386
0.170554 0.215851 0.091808
0.189417 0.220989 0.089902
0.214504 0.225813 0.082698
0.240008 0.231101 0.076313
0.266033 0.233375 0.070845
0.289851 0.230690 0.063979
0.311824 0.222899 0.055568
0.332727 0.210519 0.045239
0.353219 0.189598 0.031154
0.373996 0.162753 0.014889
0.392270 0.128100 0.001232
0.408087 0.085579 0.000000
0.424156 0.038085 0.000000
0.439572 0.000000 0.000000
0.456764 0.000000 0.000000
0.486655 0.000000 0.000000
0.518106 0.000000 0.000000
0.551743 0.000000 0.000000
0.585866 0.000000 0.000000
0.619492 0.000000 0.000000
0.655918 0.000000 0.000000
0.698986 0.000000 0.000000
0.736040 0.000000 0.000000
0.767736 0.000000 0.000000
0.794912 0.000000 0.000000
0.810847 0.000000 0.000000
0.820569 0.000000 0.000000
0.827447 0.000000 0.000000
0.837616 0.000000 0.000000
0.848550 0.000000 0.000000
0.857748 0.017584 0.001335
0.864248 0.062398 0.030265
0.869898 0.103000 0.056845
0.873896 0.134379 0.078976
0.877525 0.163804 0.099847
0.880179 0.187423 0.118012
0.882657 0.209927 0.135297
0.884689 0.229623 0.151150
0.886480 0.247678 0.165994
0.888159 0.264862 0.180112
0.889579 0.280408 0.193477
0.890908 0.295176 0.206183
0.892156 0.309224 0.218265
0.893308 0.322756 0.230231
0.894384 0.335672 0.241738
0.895396 0.347954 0.252677
0.896347 0.359631 0.263074
0.897221 0.370850 0.273366
0.898042 0.381521 0.283169
0.898814 0.391663 0.292485
0.899541 0.401304 0.301338
0.900225 0.410508 0.309837
0.900860 0.419467 0.318343
0.901459 0.427981 0.326427
0.902023 0.436071 0.334108
0.902555 0.443758 0.341406
0.070469 0.183843 0.109162
0.070469 0.183843 0.109162
0.070469 0.183843 0.109162
0.070469 0.183843 0.109162
0.070469 0.183843 0.109162
0.090395 0.204010 0.111228
0.115247 0.219592 0.109740
0.142781 0.231894 0.108699
0.164297 0.243317 0.110024
0.185537 0.252711 0.109442
0.206625 0.260564 0.108467
0.229243 0.264137 0.103827
0.256485 0.270486 0.096990
0.283806 0.274900 0.090124
0.311492 0.275989 0.084136
0.337922 0.272304 0.076454
0.361122 0.262564 0.066737
0.384197 0.247768 0.054647
0.407196 0.225897 0.039299
0.428349 0.195999 0.021144
0.447703 0.156240 0.004432
0.464489 0.107941 0.000000
0.479054 0.054744 0.000000
0.493249 0.000000 0.000000
0.507658 0.000000 0.000000
0.535061 0.000000 0.000000
0.566111 0.000000 0.000000
0.597310 0.000000 0.000000
0.629438 0.000000 0.000000
0.666274 0.000000 0.000000
0.707307 0.000000 0.000000
0.742529 0.000000 0.000000
0.772487 0.000000 0.000000
0.798422 0.000000 0.000000
0.812573 0.000000 0.000000
0.821840 0.000000 0.000000
0.828325 0.000000 0.000000
0.839011 0.000000 0.000000
0.849742 0.000000 0.000000
0.858755 0.023586 0.004438
0.864994 0.066971 0.032619
0.870444 0.106509 0.058678
0.874407 0.137884 0.080938
0.877999 0.167265 0.101903
0.880586 0.190510 0.119894
0.883002 0.212657 0.137013
0.884975 0.231931 0.152604
0.886711 0.249552 0.167156
0.888338 0.266322 0.180996
0.889756 0.281947 0.194477
0.891084 0.296803 0.207305
0.892331 0.310934 0.219502
0.893462 0.324285 0.231327
0.894515 0.336957 0.242632
0.895504 0.349006 0.253378
0.896434 0.360462 0.263593
0.897309 0.371726 0.273947
0.898133 0.382453 0.283820
0.898907 0.392649 0.293204
0.899636 0.402340 0.302121
0.900321 0.411591 0.310678
0.900958 0.420588 0.319229
0.901557 0.429138 0.327355
0.902122 0.437263 0.335076
0.902655 0.444983 0.342412
0.080941 0.214295 0.127005
0.080941 0.214295 0.127005
0.080941 0.214295 0.127005
0.080941 0.214295 0.127005
0.080941 0.214295 0.127005
0.099293 0.234866 0.129482
0.123149 0.252826 0.128714
0.151068 0.266724 0.127245
0.175452 0.278245 0.127345
0.198140 0.289156 0.127932
0.222242 0.298972 0.126921
0.246919 0.306819 0.124812
0.272487 0.311562 0.119783
0.301868 0.317613 0.112302
0.332020 0.321976 0.105029
0.360513 0.320840 0.098044
0.388522 0.316350 0.089692
0.414193 0.304790 0.078542
0.438768 0.286862 0.064410
0.463520 0.261194 0.046798
0.485979 0.227508 0.026550
0.505833 0.184055 0.007273
0.522427 0.131392 0.000000
0.535310 0.069619 0.000000
0.547128 0.003953 0.000000
0.558919 0.000000 0.000000
0.582814 0.000000 0.000000
0.612322 0.000000 0.000000
