luts/P4P_05_TealAmber_size65.cube
# POCKET 4P D-Log2 LUT pack v1.0 - TealAmber
# Commercial teal and orange, skin protected.
# Input:  DJI Osmo Pocket 4P D-Log2 / D-Gamut2, full range
# Output: Rec.709 / gamma 2.4 display
# Built on DJI's official D-Log2 to Rec.709 colorimetry with a
# scene-linear highlight shoulder so nothing clips at +7 stops.
TITLE "POCKET 4P TealAmber v1.0"
LUT_3D_SIZE 65
DOMAIN_MIN 0.0 0.0 0.0
DOMAIN_MAX 1.0 1.0 1.0
0.000000 0.005061 0.038450
0.000000 0.005061 0.038450
0.000000 0.005061 0.038450
0.000000 0.005061 0.038450
0.000000 0.005061 0.038450
0.000000 0.000000 0.032846
0.000000 0.000000 0.031396
0.000000 0.000000 0.027525
0.003603 0.000000 0.024900
0.009984 0.000000 0.023435
0.018060 0.000000 0.021858
0.028872 0.000000 0.019753
0.040841 0.000000 0.017481
0.055121 0.000000 0.014862
0.071252 0.000000 0.011901
0.090861 0.000000 0.008373
0.113536 0.000000 0.004255
0.138925 0.000000 0.000000
0.168741 0.000000 0.000000
0.201900 0.000000 0.000000
0.239384 0.000000 0.000000
0.280629 0.000000 0.000000
0.324363 0.000000 0.000000
0.371749 0.000000 0.000000
0.420720 0.000000 0.000000
0.471366 0.000000 0.000000
0.522845 0.000000 0.000000
0.572867 0.000000 0.000000
0.622634 0.000000 0.000000
0.669527 0.000000 0.000000
0.726827 0.000000 0.000000
0.778684 0.000000 0.000000
0.807296 0.000000 0.000000
0.828011 0.000000 0.000000
0.843898 0.000000 0.000000
0.855836 0.000000 0.000000
0.864909 0.000000 0.000000
0.871446 0.000000 0.000000
0.880713 0.000000 0.000000
0.890292 0.000000 0.000000
0.896839 0.018109 0.000000
0.902402 0.064021 0.012642
0.906290 0.099761 0.036153
0.909907 0.133764 0.058439
0.912572 0.161296 0.078115
0.915074 0.187710 0.096886
0.917125 0.210868 0.114208
0.918935 0.232160 0.130490
0.920634 0.252515 0.146012
0.922076 0.271115 0.160934
0.923428 0.288850 0.175157
0.924697 0.305776 0.188707
0.925872 0.322118 0.202202
0.926971 0.337756 0.215216
0.928005 0.352666 0.227609
0.928976 0.366877 0.239408
0.929860 0.380448 0.251078
0.930691 0.393377 0.262208
0.931472 0.405691 0.272801
0.932208 0.417417 0.282881
0.932900 0.428653 0.292597
0.933549 0.439714 0.302477
0.934160 0.450242 0.311876
0.934736 0.460261 0.320817
0.935279 0.469794 0.329322
0.000000 0.005061 0.038450
0.000000 0.005061 0.038450
0.000000 0.005061 0.038450
0.000000 0.005061 0.038450
0.000000 0.005061 0.038450
0.000000 0.000000 0.032846
0.000000 0.000000 0.031396
0.000000 0.000000 0.027525
0.003603 0.000000 0.024900
0.009984 0.000000 0.023435
0.018060 0.000000 0.021858
0.028872 0.000000 0.019753
0.040841 0.000000 0.017481
0.055121 0.000000 0.014862
0.071252 0.000000 0.011901
0.090861 0.000000 0.008373
0.113536 0.000000 0.004255
0.138925 0.000000 0.000000
0.168741 0.000000 0.000000
0.201900 0.000000 0.000000
0.239384 0.000000 0.000000
0.280629 0.000000 0.000000
0.324363 0.000000 0.000000
0.371749 0.000000 0.000000
0.420720 0.000000 0.000000
0.471366 0.000000 0.000000
0.522845 0.000000 0.000000
0.572867 0.000000 0.000000
0.622634 0.000000 0.000000
0.669527 0.000000 0.000000
0.726827 0.000000 0.000000
0.778684 0.000000 0.000000
0.807296 0.000000 0.000000
0.828011 0.000000 0.000000
0.843898 0.000000 0.000000
0.855836 0.000000 0.000000
0.864909 0.000000 0.000000
0.871446 0.000000 0.000000
0.880713 0.000000 0.000000
0.890292 0.000000 0.000000
0.896839 0.018109 0.000000
0.902402 0.064021 0.012642
0.906290 0.099761 0.036153
0.909907 0.133764 0.058439
0.912572 0.161296 0.078115
0.915074 0.187710 0.096886
0.917125 0.210868 0.114208
0.918935 0.232160 0.130490
0.920634 0.252515 0.146012
0.922076 0.271115 0.160934
0.923428 0.288850 0.175157
0.924697 0.305776 0.188707
0.925872 0.322118 0.202202
0.926971 0.337756 0.215216
0.928005 0.352666 0.227609
0.928976 0.366877 0.239408
0.929860 0.380448 0.251078
0.930691 0.393377 0.262208
0.931472 0.405691 0.272801
0.932208 0.417417 0.282881
0.932900 0.428653 0.292597
0.933549 0.439714 0.302477
0.934160 0.450242 0.311876
0.934736 0.460261 0.320817
0.935279 0.469794 0.329322
0.000000 0.005061 0.038450
0.000000 0.005061 0.038450
0.000000 0.005061 0.038450
0.000000 0.005061 0.038450
0.000000 0.005061 0.038450
0.000000 0.000000 0.032846
0.000000 0.000000 0.031396
0.000000 0.000000 0.027525
0.003603 0.000000 0.024900
0.009984 0.000000 0.023435
0.018060 0.000000 0.021858
0.028872 0.000000 0.019753
0.040841 0.000000 0.017481
0.055121 0.000000 0.014862
0.071252 0.000000 0.011901
0.090861 0.000000 0.008373
0.113536 0.000000 0.004255
0.138925 0.000000 0.000000
0.168741 0.000000 0.000000
0.201900 0.000000 0.000000
0.239384 0.000000 0.000000
0.280629 0.000000 0.000000
0.324363 0.000000 0.000000
0.371749 0.000000 0.000000
0.420720 0.000000 0.000000
0.471366 0.000000 0.000000
0.522845 0.000000 0.000000
0.572867 0.000000 0.000000
0.622634 0.000000 0.000000
0.669527 0.000000 0.000000
0.726827 0.000000 0.000000
0.778684 0.000000 0.000000
0.807296 0.000000 0.000000
0.828011 0.000000 0.000000
0.843898 0.000000 0.000000
0.855836 0.000000 0.000000
0.864909 0.000000 0.000000
0.871446 0.000000 0.000000
0.880713 0.000000 0.000000
0.890292 0.000000 0.000000
0.896839 0.018109 0.000000
0.902402 0.064021 0.012642
0.906290 0.099761 0.036153
0.909907 0.133764 0.058439
0.912572 0.161296 0.078115
0.915074 0.187710 0.096886
0.917125 0.210868 0.114208
0.918935 0.232160 0.130490
0.920634 0.252515 0.146012
0.922076 0.271115 0.160934
0.923428 0.288850 0.175157
0.924697 0.305776 0.188707
0.925872 0.322118 0.202202
0.926971 0.337756 0.215216
0.928005 0.352666 0.227609
0.928976 0.366877 0.239408
0.929860 0.380448 0.251078
0.930691 0.393377 0.262208
0.931472 0.405691 0.272801
0.932208 0.417417 0.282881
0.932900 0.428653 0.292597
0.933549 0.439714 0.302477
0.934160 0.450242 0.311876
0.934736 0.460261 0.320817
0.935279 0.469794 0.329322
0.000000 0.005061 0.038450
0.000000 0.005061 0.038450
0.000000 0.005061 0.038450
0.000000 0.005061 0.038450
0.000000 0.005061 0.038450
0.000000 0.000000 0.032846
0.000000 0.000000 0.031396
0.000000 0.000000 0.027525
0.003603 0.000000 0.024900
0.009984 0.000000 0.023435
0.018060 0.000000 0.021858
0.028872 0.000000 0.019753
0.040841 0.000000 0.017481
0.055121 0.000000 0.014862
0.071252 0.000000 0.011901
0.090861 0.000000 0.008373
0.113536 0.000000 0.004255
0.138925 0.000000 0.000000
0.168741 0.000000 0.000000
0.201900 0.000000 0.000000
0.239384 0.000000 0.000000
0.280629 0.000000 0.000000
0.324363 0.000000 0.000000
0.371749 0.000000 0.000000
0.420720 0.000000 0.000000
0.471366 0.000000 0.000000
0.522845 0.000000 0.000000
0.572867 0.000000 0.000000
0.622634 0.000000 0.000000
0.669527 0.000000 0.000000
0.726827 0.000000 0.000000
0.778684 0.000000 0.000000
0.807296 0.000000 0.000000
0.828011 0.000000 0.000000
0.843898 0.000000 0.000000
0.855836 0.000000 0.000000
0.864909 0.000000 0.000000
0.871446 0.000000 0.000000
0.880713 0.000000 0.000000
0.890292 0.000000 0.000000
0.896839 0.018109 0.000000
0.902402 0.064021 0.012642
0.906290 0.099761 0.036153
0.909907 0.133764 0.058439
0.912572 0.161296 0.078115
0.915074 0.187710 0.096886
0.917125 0.210868 0.114208
0.918935 0.232160 0.130490
0.920634 0.252515 0.146012
0.922076 0.271115 0.160934
0.923428 0.288850 0.175157
0.924697 0.305776 0.188707
0.925872 0.322118 0.202202
0.926971 0.337756 0.215216
0.928005 0.352666 0.227609
0.928976 0.366877 0.239408
0.929860 0.380448 0.251078
0.930691 0.393377 0.262208
0.931472 0.405691 0.272801
0.932208 0.417417 0.282881
0.932900 0.428653 0.292597
0.933549 0.439714 0.302477
0.934160 0.450242 0.311876
0.934736 0.460261 0.320817
0.935279 0.469794 0.329322
0.000000 0.005061 0.038450
0.000000 0.005061 0.038450
0.000000 0.005061 0.038450
0.000000 0.005061 0.038450
0.000000 0.005061 0.038450
0.000000 0.000000 0.032846
0.000000 0.000000 0.031396
0.000000 0.000000 0.027525
0.003603 0.000000 0.024900
0.009984 0.000000 0.023435
0.018060 0.000000 0.021858
0.028872 0.000000 0.019753
0.040841 0.000000 0.017481
0.055121 0.000000 0.014862
0.071252 0.000000 0.011901
0.090861 0.000000 0.008373
0.113536 0.000000 0.004255
0.138925 0.000000 0.000000
0.168741 0.000000 0.000000
0.201900 0.000000 0.000000
0.239384 0.000000 0.000000
0.280629 0.000000 0.000000
0.324363 0.000000 0.000000
0.371749 0.000000 0.000000
0.420720 0.000000 0.000000
0.471366 0.000000 0.000000
0.522845 0.000000 0.000000
0.572867 0.000000 0.000000
0.622634 0.000000 0.000000
0.669527 0.000000 0.000000
0.726827 0.000000 0.000000
0.778684 0.000000 0.000000
0.807296 0.000000 0.000000
0.828011 0.000000 0.000000
0.843898 0.000000 0.000000
0.855836 0.000000 0.000000
0.864909 0.000000 0.000000
0.871446 0.000000 0.000000
0.880713 0.000000 0.000000
0.890292 0.000000 0.000000
0.896839 0.018109 0.000000
0.902402 0.064021 0.012642
0.906290 0.099761 0.036153
0.909907 0.133764 0.058439
0.912572 0.161296 0.078115
0.915074 0.187710 0.096886
0.917125 0.210868 0.114208
0.918935 0.232160 0.130490
0.920634 0.252515 0.146012
0.922076 0.271115 0.160934
0.923428 0.288850 0.175157
0.924697 0.305776 0.188707
0.925872 0.322118 0.202202
0.926971 0.337756 0.215216
0.928005 0.352666 0.227609
0.928976 0.366877 0.239408
0.929860 0.380448 0.251078
0.930691 0.393377 0.262208
0.931472 0.405691 0.272801
0.932208 0.417417 0.282881
0.932900 0.428653 0.292597
0.933549 0.439714 0.302477
0.934160 0.450242 0.311876
0.934736 0.460261 0.320817
0.935279 0.469794 0.329322
0.000000 0.017850 0.042312
0.000000 0.017850 0.042312
0.000000 0.017850 0.042312
0.000000 0.017850 0.042312
0.000000 0.017850 0.042312
0.000000 0.022154 0.042140
0.001382 0.019310 0.038122
0.011886 0.013503 0.033955
0.019033 0.008942 0.030087
0.026979 0.003148 0.026188
0.035700 0.000000 0.022494
0.046543 0.000000 0.017801
0.058025 0.000000 0.013262
0.072239 0.000000 0.010190
0.088884 0.000000 0.006697
0.107967 0.000000 0.002939
0.129126 0.000000 0.000000
0.154118 0.000000 0.000000
0.181962 0.000000 0.000000
0.213910 0.000000 0.000000
0.249731 0.000000 0.000000
0.288416 0.000000 0.000000
0.331311 0.000000 0.000000
0.377076 0.000000 0.000000
0.424217 0.000000 0.000000
0.473752 0.000000 0.000000
0.522551 0.000000 0.000000
0.572494 0.000000 0.000000
0.621541 0.000000 0.000000
0.667219 0.000000 0.000000
0.723756 0.000000 0.000000
0.775292 0.000000 0.000000
0.805286 0.000000 0.000000
0.826426 0.000000 0.000000
0.842492 0.000000 0.000000
0.854320 0.000000 0.000000
0.863728 0.000000 0.000000
0.870606 0.000000 0.000000
0.878854 0.000000 0.000000
0.888795 0.000000 0.000000
0.895496 0.006992 0.000000
0.901225 0.053430 0.005671
0.905331 0.090569 0.029820
0.909136 0.125861 0.052743
0.911845 0.153498 0.072351
0.914391 0.180019 0.091056
0.916476 0.203250 0.108305
0.918316 0.224600 0.124515
0.920043 0.245013 0.139968
0.921514 0.263738 0.154914
0.922893 0.281597 0.169162
0.924188 0.298642 0.182735
0.925356 0.314702 0.195928
0.926441 0.329962 0.208563
0.927462 0.344511 0.220595
0.928421 0.358378 0.232049
0.929321 0.371994 0.243693
0.930168 0.384987 0.254813
0.930965 0.397362 0.265396
0.931715 0.409147 0.275467
0.932419 0.420407 0.285146
0.933069 0.431328 0.294850
0.933681 0.441722 0.304082
0.934258 0.451614 0.312863
0.934802 0.461026 0.321216
0.000000 0.036177 0.049895
0.000000 0.036177 0.049895
0.000000 0.036177 0.049895
0.000000 0.036177 0.049895
0.000000 0.036177 0.049895
0.000000 0.045671 0.049271
0.009961 0.044437 0.047038
0.023160 0.041065 0.042766
0.037256 0.039058 0.038263
0.048002 0.033633 0.034053
0.058629 0.025947 0.029071
0.070121 0.016251 0.023303
0.081772 0.005729 0.017119
0.094967 0.000000 0.011211
0.109835 0.000000 0.004319
0.126499 0.000000 0.000000
0.148013 0.000000 0.000000
0.171814 0.000000 0.000000
0.199341 0.000000 0.000000
0.230230 0.000000 0.000000
0.263693 0.000000 0.000000
0.301500 0.000000 0.000000
0.342711 0.000000 0.000000
0.385907 0.000000 0.000000
0.431996 0.000000 0.000000
0.478681 0.000000 0.000000
0.527337 0.000000 0.000000
0.576235 0.000000 0.000000
0.623672 0.000000 0.000000
0.669361 0.000000 0.000000
0.725687 0.000000 0.000000
0.776748 0.000000 0.000000
0.806000 0.000000 0.000000
0.826830 0.000000 0.000000
0.842515 0.000000 0.000000
0.854435 0.000000 0.000000
0.863933 0.000000 0.000000
0.870725 0.000000 0.000000
0.878788 0.000000 0.000000
0.888590 0.000000 0.000000
0.895385 0.005545 0.000000
0.901160 0.052328 0.004501
0.905191 0.088769 0.028189
0.908933 0.123468 0.050743
0.911668 0.151305 0.070472
0.914239 0.178021 0.089292
0.916339 0.201364 0.106614
0.918188 0.222792 0.122878
0.919924 0.243280 0.138383
0.921369 0.261629 0.153015
0.922722 0.279115 0.166953
0.923994 0.295802 0.180231
0.925168 0.311895 0.193444
0.926266 0.327289 0.206183
0.927299 0.341965 0.218313
0.928270 0.355954 0.229861
0.929168 0.369513 0.241447
0.930013 0.382440 0.252503
0.930808 0.394754 0.263027
0.931556 0.406480 0.273041
0.932256 0.417653 0.282635
0.932896 0.428334 0.292104
0.933498 0.438499 0.301112
0.934066 0.448172 0.309681
0.934602 0.457375 0.317830
0.000000 0.052467 0.056821
0.000000 0.052467 0.056821
0.000000 0.052467 0.056821
0.000000 0.052467 0.056821
0.000000 0.052467 0.056821
0.007940 0.063420 0.056587
0.019355 0.066661 0.055687
0.033504 0.063520 0.052750
0.046676 0.062746 0.048856
0.064008 0.063650 0.043302
0.080172 0.064256 0.037757
0.094879 0.056812 0.031340
0.110080 0.044937 0.024206
0.123470 0.029864 0.016673
0.137037 0.014448 0.008918
0.153076 0.000000 0.000515
0.170558 0.000000 0.000000
0.191101 0.000000 0.000000
0.217885 0.000000 0.000000
0.247027 0.000000 0.000000
0.280114 0.000000 0.000000
0.316181 0.000000 0.000000
0.354920 0.000000 0.000000
0.396822 0.000000 0.000000
0.440217 0.000000 0.000000
0.486349 0.000000 0.000000
0.533608 0.000000 0.000000
0.580419 0.000000 0.000000
0.627707 0.000000 0.000000
0.671825 0.000000 0.000000
0.728111 0.000000 0.000000
0.779083 0.000000 0.000000
0.806985 0.000000 0.000000
0.827336 0.000000 0.000000
0.843080 0.000000 0.000000
0.854775 0.000000 0.000000
0.864205 0.000000 0.000000
0.870893 0.000000 0.000000
0.879056 0.000000 0.000000
0.888897 0.000000 0.000000
0.895530 0.006018 0.000000
0.901199 0.052082 0.003829
0.905254 0.088820 0.027756
0.909012 0.123761 0.050513
0.911721 0.151399 0.070142
0.914267 0.177923 0.088867
0.916331 0.200892 0.105926
0.918142 0.221885 0.121870
0.919843 0.241955 0.137067
0.921302 0.260494 0.151868
0.922671 0.278178 0.165979
0.923957 0.295056 0.179422
0.925127 0.311100 0.192598
0.926218 0.326384 0.205247
0.927244 0.340956 0.217291
0.928209 0.354845 0.228758
0.929093 0.368182 0.240154
0.929925 0.380892 0.251024
0.930707 0.392997 0.261369
0.931444 0.404524 0.271213
0.932137 0.415560 0.280690
0.932787 0.426375 0.290272
0.933398 0.436668 0.299388
0.933975 0.446464 0.308059
0.934519 0.455784 0.316306
0.005217 0.067394 0.063850
0.005217 0.067394 0.063850
0.005217 0.067394 0.063850
0.005217 0.067394 0.063850
0.005217 0.067394 0.063850
0.014716 0.078169 0.064227
0.027605 0.085322 0.064039
0.042635 0.086271 0.062435
0.056250 0.085718 0.059463
0.073713 0.085889 0.054323
0.094719 0.090588 0.048965
0.113806 0.094157 0.043684
0.132205 0.087185 0.035467
0.149549 0.073335 0.026271
0.166404 0.057218 0.016910
0.182332 0.038033 0.006894
0.199714 0.017464 0.000000
0.218146 0.000000 0.000000
0.238480 0.000000 0.000000
0.265704 0.000000 0.000000
0.296682 0.000000 0.000000
0.330713 0.000000 0.000000
0.368096 0.000000 0.000000
0.407523 0.000000 0.000000
0.450331 0.000000 0.000000
0.494964 0.000000 0.000000
0.539997 0.000000 0.000000
0.586453 0.000000 0.000000
0.631876 0.000000 0.000000
0.675633 0.000000 0.000000
0.732461 0.000000 0.000000
0.781431 0.000000 0.000000
0.808544 0.000000 0.000000
0.828676 0.000000 0.000000
0.844037 0.000000 0.000000
0.855423 0.000000 0.000000
0.864684 0.000000 0.000000
0.871225 0.000000 0.000000
0.879526 0.000000 0.000000
0.889121 0.000000 0.000000
0.895770 0.007397 0.000000
0.901438 0.053650 0.004373
0.905446 0.090149 0.028231
0.909162 0.124817 0.050876
0.911807 0.151886 0.070130
0.914295 0.177858 0.088495
0.916357 0.200855 0.105613
0.918186 0.222100 0.121776
0.919903 0.242412 0.137184
0.921336 0.260618 0.151727
0.922678 0.277967 0.165579
0.923940 0.294524 0.178776
0.925105 0.310502 0.191906
0.926194 0.325788 0.204564
0.927219 0.340362 0.216616
0.928183 0.354253 0.228091
0.929074 0.367695 0.239584
0.929912 0.380510 0.250553
0.930700 0.392717 0.260992
0.931443 0.404340 0.270925
0.932138 0.415420 0.280445
0.932775 0.426032 0.289851
0.933375 0.436133 0.298800
0.933941 0.445744 0.307311
0.934475 0.454888 0.315406
0.011552 0.081576 0.071285
0.011552 0.081576 0.071285
0.011552 0.081576 0.071285
0.011552 0.081576 0.071285
0.011552 0.081576 0.071285
0.022563 0.096028 0.073765
0.036198 0.107422 0.074291
0.053235 0.113612 0.073273
0.067036 0.116475 0.072247
0.084721 0.116350 0.068112
0.106189 0.119143 0.063176
0.130409 0.123836 0.057129
0.152905 0.126572 0.050602
0.173434 0.122465 0.042428
0.193053 0.109212 0.031723
0.212151 0.089043 0.019531
0.230719 0.065524 0.006778
0.248695 0.039224 0.000000
0.268634 0.010951 0.000000
0.290186 0.000000 0.000000
0.314112 0.000000 0.000000
0.347176 0.000000 0.000000
0.382034 0.000000 0.000000
0.420547 0.000000 0.000000
0.461541 0.000000 0.000000
0.503746 0.000000 0.000000
0.548137 0.000000 0.000000
0.592459 0.000000 0.000000
0.637444 0.000000 0.000000
0.680270 0.000000 0.000000
0.736597 0.000000 0.000000
0.783715 0.000000 0.000000
0.810020 0.000000 0.000000
0.829533 0.000000 0.000000
0.844596 0.000000 0.000000
0.855984 0.000000 0.000000
0.865187 0.000000 0.000000
0.871507 0.000000 0.000000
0.880077 0.000000 0.000000
0.889683 0.000000 0.000000
0.896191 0.010092 0.000000
0.901738 0.055643 0.005084
0.905657 0.091510 0.028607
0.909299 0.125639 0.050971
0.911955 0.152933 0.070450
0.914452 0.179122 0.089030
0.916485 0.201888 0.106018
0.918273 0.222732 0.121920
0.919952 0.242658 0.137078
0.921390 0.260992 0.151750
0.922738 0.278478 0.165735
0.924005 0.295165 0.179058
0.925166 0.311118 0.192184
0.926250 0.326340 0.204803
0.927270 0.340852 0.216819
0.928228 0.354683 0.228259
0.929102 0.367883 0.239553
0.929923 0.380458 0.250322
0.930697 0.392434 0.260571
0.931425 0.403838 0.270323
0.932110 0.414761 0.279716
0.932754 0.425496 0.289236
0.933361 0.435713 0.298293
0.933933 0.445436 0.306908
0.934472 0.454687 0.315101
0.019726 0.099830 0.080974
0.019726 0.099830 0.080974
0.019726 0.099830 0.080974
0.019726 0.099830 0.080974
0.019726 0.099830 0.080974
0.031534 0.116938 0.084888
0.045104 0.132574 0.086780
0.064208 0.144023 0.086524
0.080511 0.151216 0.085241
0.097527 0.151954 0.082849
0.119908 0.152940 0.078061
0.145272 0.155444 0.072405
0.171857 0.160551 0.066000
0.196359 0.162846 0.058611
0.219148 0.158900 0.049589
0.242104 0.146482 0.037672
0.263335 0.125447 0.023699
0.284198 0.098762 0.008467
0.303009 0.064696 0.000000
0.321970 0.027116 0.000000
0.342360 0.000000 0.000000
0.364639 0.000000 0.000000
0.398828 0.000000 0.000000
0.435390 0.000000 0.000000
0.474159 0.000000 0.000000
0.515540 0.000000 0.000000
0.557379 0.000000 0.000000
0.600974 0.000000 0.000000
0.644491 0.000000 0.000000
0.687083 0.000000 0.000000
0.742935 0.000000 0.000000
0.786684 0.000000 0.000000
0.811975 0.000000 0.000000
0.831088 0.000000 0.000000
0.845891 0.000000 0.000000
0.856788 0.000000 0.000000
0.865779 0.000000 0.000000
0.872007 0.000000 0.000000
0.880970 0.000000 0.000000
0.890365 0.000000 0.000000
0.896684 0.013380 0.000000
0.902091 0.058145 0.006147
0.905978 0.093977 0.029768
0.909588 0.127996 0.052152
0.912160 0.154586 0.071202
0.914580 0.180090 0.089373
0.916593 0.202746 0.106339
0.918382 0.223707 0.122371
0.920063 0.243744 0.137653
0.921495 0.262050 0.152330
0.922838 0.279505 0.166317
0.924100 0.296163 0.179642
0.925241 0.311876 0.192589
0.926301 0.326811 0.204989
0.927299 0.341048 0.216795
0.928238 0.354617 0.228035
0.929122 0.367983 0.239474
0.929955 0.380737 0.250399
0.930738 0.392884 0.260796
0.931476 0.404451 0.270690
0.932167 0.415476 0.280171
0.932800 0.426033 0.289537
0.933397 0.436079 0.298446
0.933959 0.445640 0.306921
0.934490 0.454736 0.314981
0.029839 0.123084 0.093461
0.029839 0.123084 0.093461
0.029839 0.123084 0.093461
0.029839 0.123084 0.093461
0.029839 0.123084 0.093461
0.042235 0.142546 0.098441
0.054500 0.161499 0.101663
0.074266 0.173945 0.100384
0.093233 0.185994 0.100086
0.111785 0.190999 0.097978
0.133464 0.194162 0.095723
0.161518 0.194346 0.089227
0.188479 0.195909 0.083168
0.216808 0.201933 0.076749
0.244199 0.203595 0.068071
0.270331 0.198606 0.057258
0.295109 0.186691 0.044581
0.318918 0.163744 0.028423
0.342492 0.133648 0.010544
0.363695 0.095918 0.000000
0.381780 0.050209 0.000000
0.400825 0.000840 0.000000
0.422090 0.000000 0.000000
0.453606 0.000000 0.000000
0.490517 0.000000 0.000000
0.528699 0.000000 0.000000
0.569591 0.000000 0.000000
0.611301 0.000000 0.000000
0.652305 0.000000 0.000000
0.696669 0.000000 0.000000
0.749376 0.000000 0.000000
0.790162 0.000000 0.000000
0.814458 0.000000 0.000000
0.832763 0.000000 0.000000
0.846923 0.000000 0.000000
0.857715 0.000000 0.000000
0.866530 0.000000 0.000000
0.872470 0.000000 0.000000
0.881783 0.000000 0.000000
0.890932 0.000000 0.000000
0.897224 0.017125 0.000000
0.902574 0.061808 0.007943
0.906321 0.096620 0.031019
0.909814 0.129747 0.052925
0.912388 0.156509 0.072170
0.914810 0.182180 0.090527
0.916803 0.204743 0.107474
0.918566 0.225511 0.123406
0.920221 0.245363 0.138592
0.921626 0.263363 0.153051
0.922942 0.280521 0.166826
0.924179 0.296893 0.179947
0.925323 0.312695 0.192994
0.926394 0.327813 0.205569
0.927401 0.342226 0.217542
0.928347 0.355962 0.228940
0.929219 0.369171 0.240263
0.930038 0.381761 0.251063
0.930809 0.393750 0.261342
0.931535 0.405167 0.271122
0.932218 0.416083 0.280525
0.932854 0.426712 0.289965
0.933453 0.436828 0.298945
0.934018 0.446454 0.307488
0.934551 0.455613 0.315612
0.041081 0.150001 0.108085
0.041081 0.150001 0.108085
0.041081 0.150001 0.108085
0.041081 0.150001 0.108085
0.041081 0.150001 0.108085
0.053988 0.171829 0.114157
0.066097 0.192075 0.117672
0.085474 0.209003 0.117129
0.104731 0.222548 0.117146
0.125535 0.232235 0.115458
0.148717 0.238910 0.113779
0.175686 0.239177 0.108810
0.206256 0.240744 0.102673
0.235848 0.242021 0.096008
0.266679 0.247747 0.088712
0.297562 0.249167 0.078766
0.325582 0.242678 0.066273
0.353453 0.228690 0.051277
0.380676 0.204820 0.033300
0.405225 0.171049 0.013049
0.426723 0.125653 0.000000
0.446324 0.072896 0.000000
0.463699 0.016168 0.000000
0.482191 0.000000 0.000000
0.510414 0.000000 0.000000
0.547301 0.000000 0.000000
0.585461 0.000000 0.000000
0.623983 0.000000 0.000000
0.663754 0.000000 0.000000
0.708929 0.000000 0.000000
0.759371 0.000000 0.000000
0.795349 0.000000 0.000000
0.817836 0.000000 0.000000
0.835000 0.000000 0.000000
0.848678 0.000000 0.000000
0.858957 0.000000 0.000000
0.867460 0.000000 0.000000
0.873135 0.000000 0.000000
0.882967 0.000000 0.000000
0.891924 0.000000 0.000000
0.897943 0.022159 0.000000
0.903097 0.065705 0.009768
0.906814 0.100568 0.033027
0.910276 0.133681 0.055046
0.912787 0.160042 0.074122
0.915149 0.185320 0.092319
0.917085 0.207412 0.108995
0.918793 0.227690 0.124623
0.920398 0.247069 0.139517
0.921801 0.265165 0.154108
0.923116 0.282428 0.168020
0.924353 0.298902 0.181273
0.925476 0.314496 0.194171
0.926523 0.329332 0.206527
0.927508 0.343475 0.218292
0.928434 0.356952 0.229492
0.929307 0.370217 0.240886
0.930128 0.382873 0.251766
0.930901 0.394928 0.262122
0.931629 0.406406 0.271975
0.932313 0.417379 0.281445
0.932950 0.428054 0.290936
0.933551 0.438215 0.299965
0.934117 0.447884 0.308553
0.934650 0.457083 0.316721
0.053729 0.181306 0.125193
0.053729 0.181306 0.125193
0.053729 0.181306 0.125193
0.053729 0.181306 0.125193
0.053729 0.181306 0.125193
0.066324 0.203427 0.131291
0.079005 0.225686 0.135514
0.096045 0.245398 0.136214
0.116195 0.260441 0.135333
0.137328 0.273152 0.134418
0.162260 0.282769 0.132504
0.191544 0.288329 0.129208
0.222019 0.289451 0.123993
0.255366 0.290183 0.117193
0.288706 0.292501 0.109924
0.321136 0.296793 0.101266
0.354281 0.297851 0.090316
0.385698 0.290088 0.075866
0.415906 0.273125 0.058279
0.445827 0.245189 0.037371
0.471530 0.205990 0.017121
0.493470 0.155359 0.000000
0.513275 0.097083 0.000000
0.529073 0.030395 0.000000
0.544189 0.000000 0.000000
0.569025 0.000000 0.000000
0.603907 0.000000 0.000000
0.640686 0.000000 0.000000
