luts/P4P_09_Nordic_size33.cube
# POCKET 4P D-Log2 LUT pack v1.0 - Nordic
# Cold and muted. Overcast, slate greens.
# Input:  DJI Osmo Pocket 4P D-Log2 / D-Gamut2, full range
# Output: Rec.709 / gamma 2.4 display
# Built on DJI's official D-Log2 to Rec.709 colorimetry with a
# scene-linear highlight shoulder so nothing clips at +7 stops.
TITLE "POCKET 4P Nordic v1.0"
LUT_3D_SIZE 9
DOMAIN_MIN 0.0 0.0 0.0
DOMAIN_MAX 1.0 1.0 1.0
0.004257 0.014633 0.037042
0.021380 0.000000 0.024309
0.113453 0.000000 0.006387
0.371249 0.000000 0.000000
0.706994 0.000000 0.000000
0.835726 0.055465 0.027745
0.874478 0.272392 0.187547
0.888531 0.388760 0.293277
0.896288 0.469677 0.374969
0.029392 0.066571 0.065333
0.075455 0.086615 0.067228
0.194292 0.035491 0.004406
0.395321 0.000000 0.000000
0.708673 0.000000 0.000000
0.833840 0.045420 0.019417
0.873334 0.263150 0.178782
0.887398 0.377176 0.281370
0.895140 0.456190 0.360496
0.140986 0.271165 0.190636
0.199439 0.308789 0.201224
0.415019 0.423913 0.212531
0.639415 0.254504 0.016916
0.757071 0.000000 0.000000
0.844691 0.089628 0.041880
0.876094 0.280205 0.190139
0.888946 0.389355 0.291022
0.896248 0.466255 0.369196
0.388190 0.719666 0.479572
0.404720 0.741872 0.490136
0.528967 0.786573 0.491067
0.851955 0.859498 0.463904
0.927287 0.538782 0.111511
0.879162 0.265828 0.142656
0.885815 0.346959 0.238918
0.894813 0.440861 0.335796
0.900692 0.511674 0.412068
0.690015 0.952833 0.817761
0.693219 0.953771 0.820175
0.727940 0.960609 0.835482
0.862718 0.965005 0.820734
0.966514 0.970329 0.710792
0.956757 0.891435 0.546272
0.924824 0.703452 0.502629
0.914362 0.631988 0.494712
0.912528 0.639810 0.528411
0.872190 0.982934 0.908381
0.872221 0.982953 0.908608
0.877186 0.982942 0.911005
0.896055 0.981374 0.912299
0.945978 0.972167 0.899676
0.979225 0.980916 0.843419
0.968700 0.957825 0.823641
0.949696 0.915078 0.808561
0.938252 0.878692 0.792691
0.923675 0.971123 0.922962
0.923800 0.971035 0.923110
0.925199 0.970070 0.924450
0.927739 0.968094 0.927336
0.935017 0.962303 0.931377
0.953103 0.964162 0.926245
0.967744 0.970266 0.909334
0.964607 0.962639 0.901164
0.958547 0.952742 0.897322
0.932353 0.963795 0.933169
0.932352 0.963794 0.933175
0.932792 0.963293 0.933892
0.933308 0.962595 0.934974
0.936144 0.959843 0.936860
0.941786 0.955154 0.938160
0.952334 0.959618 0.934284
0.958309 0.961808 0.928481
0.958796 0.959901 0.924163
0.934301 0.961504 0.936276
0.934311 0.961496 0.936276
0.934659 0.961156 0.936486
0.935178 0.960608 0.936905
0.936387 0.959154 0.938313
0.939745 0.955536 0.940255
0.944378 0.953447 0.940263
0.950095 0.956138 0.938303
0.953529 0.957526 0.935418
0.000000 0.000000 0.039944
0.008844 0.000000 0.041088
0.107553 0.000000 0.033848
0.352755 0.000000 0.000000
0.706562 0.000000 0.000000
0.834676 0.055048 0.032160
0.873961 0.271287 0.189084
0.888178 0.387433 0.293662
0.896022 0.468343 0.374859
0.010933 0.064454 0.087135
0.054045 0.065753 0.089610
0.165440 0.000000 0.022114
0.379807 0.000000 0.000000
0.709351 0.000000 0.000000
0.832923 0.045884 0.024667
0.872783 0.262099 0.180537
0.887086 0.376490 0.282517
0.894894 0.455273 0.360936
0.133433 0.303615 0.234006
0.183175 0.353527 0.249387
0.392816 0.402765 0.224822
0.627216 0.190287 0.002841
0.756657 0.000000 0.000000
0.844221 0.091384 0.047458
0.875467 0.278663 0.191680
0.888556 0.387967 0.291565
0.895967 0.465027 0.369359
0.385971 0.736239 0.499251
0.400674 0.759002 0.511532
0.527097 0.802481 0.509925
0.849465 0.856606 0.468677
0.924163 0.510029 0.110481
0.878177 0.261622 0.142169
0.885262 0.344317 0.238389
0.894392 0.438054 0.334320
0.900314 0.508590 0.409904
0.690784 0.953604 0.820657
0.693152 0.954370 0.822726
0.726761 0.960943 0.837336
0.861653 0.965868 0.823237
0.966243 0.970016 0.711494
0.955934 0.888219 0.545430
0.923802 0.693878 0.497953
0.913853 0.628360 0.493566
0.912339 0.639773 0.530348
0.872026 0.982973 0.908633
0.871752 0.983016 0.908850
0.876309 0.983016 0.911139
0.895872 0.981352 0.912404
0.945813 0.972123 0.899747
0.979185 0.980876 0.843144
0.968673 0.957650 0.822529
0.949174 0.913230 0.806236
0.937645 0.875769 0.789658
0.923700 0.971084 0.923117
0.923616 0.971126 0.923117
0.924868 0.970264 0.924343
0.927630 0.968167 0.927290
0.934919 0.962397 0.931299
0.953092 0.964179 0.926203
0.967881 0.970393 0.908936
0.964785 0.962780 0.900522
0.958663 0.952794 0.896750
0.932323 0.963811 0.933187
0.932288 0.963847 0.933143
0.932676 0.963404 0.933788
0.933246 0.962659 0.934909
0.936088 0.959901 0.936820
0.941763 0.955165 0.938154
0.952365 0.959657 0.934233
0.958381 0.961874 0.928352
0.958912 0.959993 0.923898
0.934295 0.961504 0.936292
0.934281 0.961517 0.936283
0.934605 0.961202 0.936476
0.935130 0.960666 0.936836
0.936341 0.959205 0.938276
0.939716 0.955569 0.940243
0.944368 0.953447 0.940261
0.950133 0.956178 0.938260
0.953635 0.957624 0.935278
0.000000 0.000000 0.092322
0.000000 0.000000 0.102907
0.084195 0.000000 0.095743
0.310454 0.000000 0.070124
0.669041 0.000000 0.000000
0.828492 0.058249 0.066887
0.871907 0.269018 0.198562
0.887102 0.385018 0.297531
0.895218 0.465230 0.376020
0.000000 0.003495 0.122382
0.000000 0.000000 0.131398
0.095762 0.000000 0.107962
0.323778 0.000000 0.069559
0.673000 0.000000 0.000000
0.827870 0.052909 0.060520
0.870973 0.261308 0.190981
0.886009 0.374238 0.286609
0.894133 0.452901 0.362967
0.085362 0.305139 0.312062
0.091295 0.323578 0.333409
0.262208 0.274362 0.295743
0.459904 0.000000 0.105515
0.722134 0.000000 0.000000
0.840659 0.098832 0.078859
0.874136 0.279481 0.202148
0.887896 0.388703 0.297991
0.895509 0.465494 0.374035
0.340990 0.772542 0.585694
0.350316 0.787479 0.597563
0.441819 0.829433 0.613827
0.780855 0.790434 0.537253
0.915927 0.477389 0.163597
0.876340 0.262382 0.156670
0.884269 0.344430 0.246146
0.893829 0.438753 0.340221
0.899965 0.509708 0.414990
0.678641 0.957115 0.839726
0.682023 0.957904 0.841513
0.709912 0.963034 0.852270
0.856922 0.969713 0.838802
0.964049 0.968031 0.728231
0.953617 0.881715 0.557636
0.922546 0.688854 0.504326
0.913232 0.628229 0.499923
0.912032 0.640064 0.534050
0.871097 0.983191 0.911294
0.870702 0.983255 0.911580
0.873149 0.983347 0.913539
0.898470 0.980857 0.913517
0.945132 0.971564 0.901617
0.978607 0.980347 0.846939
0.968032 0.956951 0.826386
0.948090 0.911003 0.808307
0.936820 0.873679 0.791480
0.923868 0.970879 0.923793
0.923792 0.970916 0.923801
0.924673 0.970302 0.924695
0.927862 0.967952 0.927681
0.935004 0.962191 0.931818
0.952783 0.963846 0.926731
0.967556 0.970090 0.909689
0.964406 0.962434 0.901580
0.958354 0.952554 0.897776
0.932407 0.963681 0.933460
0.932373 0.963716 0.933419
0.932620 0.963426 0.933853
0.933241 0.962612 0.935055
0.936089 0.959825 0.937066
0.941673 0.955098 0.938314
0.952284 0.959567 0.934345
0.958243 0.961739 0.928552
0.958704 0.959812 0.924275
0.934383 0.961401 0.936409
0.934370 0.961409 0.936398
0.934577 0.961207 0.936529
0.935092 0.960661 0.936954
0.936340 0.959151 0.938450
0.939676 0.955560 0.940374
0.944267 0.953348 0.940375
0.950012 0.956048 0.938393
0.953422 0.957420 0.935515
0.000000 0.013081 0.287787
0.000000 0.000000 0.279647
0.000000 0.000000 0.281854
0.225722 0.000000 0.203338
0.571771 0.000000 0.107492
0.786408 0.033665 0.187671
0.855075 0.259056 0.280514
0.878845 0.380102 0.348281
0.890330 0.461548 0.408693
0.000000 0.031386 0.300030
0.000000 0.000000 0.287037
0.000000 0.000000 0.289224
0.227294 0.000000 0.205199
0.572187 0.000000 0.106991
0.784716 0.026940 0.182191
0.854021 0.251513 0.273232
0.877928 0.371531 0.339443
0.889407 0.451414 0.397865
0.000000 0.160268 0.388682
0.000000 0.130567 0.399677
0.000000 0.000000 0.377384
0.257276 0.000000 0.234963
0.596748 0.000000 0.113903
0.798258 0.066175 0.200758
0.857347 0.265946 0.280007
0.879733 0.381117 0.344068
0.890652 0.459284 0.402231
0.211036 0.717730 0.714717
0.212303 0.721734 0.718675
0.251327 0.737919 0.738834
0.575640 0.591999 0.617356
0.827459 0.288730 0.381183
0.845847 0.231901 0.281414
0.872489 0.338381 0.316721
0.888279 0.436651 0.380253
0.896762 0.508365 0.439975
0.574488 0.958383 0.889567
0.578224 0.958820 0.890123
0.605739 0.962515 0.895547
0.794765 0.960422 0.884283
0.918560 0.926943 0.833506
0.940287 0.846622 0.630968
0.919632 0.685572 0.533348
0.911981 0.630241 0.516868
0.911030 0.639787 0.543805
0.841369 0.984181 0.928506
0.841602 0.984219 0.928594
0.848006 0.984181 0.929178
0.882072 0.981968 0.925617
0.938541 0.968412 0.909825
0.968264 0.970912 0.878571
0.963578 0.950581 0.839269
0.945977 0.907503 0.815613
0.936032 0.874747 0.802193
0.922336 0.970965 0.927369
0.922297 0.970987 0.927358
0.923576 0.970249 0.927895
0.926627 0.968335 0.929259
0.935356 0.961772 0.932378
0.951707 0.963059 0.927761
0.966631 0.968989 0.910496
0.963464 0.961280 0.902766
0.957238 0.951228 0.899379
0.932622 0.963296 0.934342
0.932589 0.963328 0.934312
0.932844 0.963037 0.934708
0.933308 0.962434 0.935604
0.936368 0.959459 0.937540
0.941670 0.954950 0.938557
0.952909 0.959962 0.933957
0.958366 0.961665 0.928221
0.958341 0.959388 0.924630
0.934859 0.960903 0.936758
0.934838 0.960924 0.936745
0.934986 0.960741 0.936955
0.935152 0.960433 0.937491
0.936420 0.958942 0.938911
0.939659 0.955479 0.940650
0.944336 0.953265 0.940492
0.950405 0.956253 0.938171
0.953233 0.957154 0.935681
0.000000 0.114683 0.553849
0.000000 0.097097 0.558353
0.000000 0.000000 0.574846
0.000000 0.000000 0.501894
0.388773 0.000000 0.299819
0.645977 0.000000 0.292607
0.808846 0.209612 0.398177
0.849730 0.351194 0.460680
0.869176 0.441700 0.511351
0.000000 0.114336 0.551811
0.000000 0.096436 0.555989
0.000000 0.000000 0.568520
0.000000 0.000000 0.496799
0.384992 0.000000 0.297163
0.637239 0.000000 0.282341
0.805910 0.197853 0.389670
0.847645 0.339488 0.451177
0.867546 0.429874 0.500699
0.000000 0.125635 0.565381
0.000000 0.107928 0.569100
0.000000 0.000000 0.584249
0.000000 0.000000 0.500468
0.387949 0.000000 0.299077
0.641265 0.000000 0.286201
0.806478 0.199611 0.390496
0.847771 0.339705 0.450953
0.867550 0.429360 0.499829
0.000000 0.370639 0.746570
0.000000 0.353520 0.742425
0.000000 0.298551 0.756962
0.203979 0.208716 0.707787
0.467674 0.000000 0.389287
0.708259 0.026009 0.361981
0.820872 0.255354 0.427399
0.856849 0.385840 0.483271
0.874193 0.470769 0.531206
0.513727 0.911623 0.911807
0.515603 0.910970 0.911288
0.539369 0.911249 0.911524
0.660108 0.897439 0.900919
0.831148 0.843416 0.863130
0.895658 0.728270 0.788854
0.890066 0.613750 0.670529
0.890723 0.592145 0.630294
0.895214 0.614671 0.636671
0.794462 0.977421 0.945112
0.795574 0.977340 0.944993
0.807503 0.976831 0.944602
0.846695 0.973714 0.941195
0.907102 0.956727 0.925263
0.937975 0.943632 0.912826
0.944638 0.925667 0.882390
0.934815 0.890076 0.853088
0.928441 0.863209 0.834413
0.900644 0.974707 0.940752
0.900665 0.974706 0.940740
0.903091 0.974083 0.940645
0.908606 0.972532 0.940385
0.924837 0.966782 0.937260
0.943303 0.958116 0.932274
0.955236 0.958766 0.922812
0.955269 0.953128 0.914976
0.950421 0.943293 0.908182
0.925221 0.966100 0.939726
0.925179 0.966125 0.939720
0.925473 0.965797 0.940153
0.925885 0.965101 0.941263
0.930282 0.962330 0.941857
0.940450 0.955004 0.939933
0.949791 0.957416 0.936109
0.955300 0.958628 0.930258
0.954853 0.955818 0.927609
0.931090 0.961654 0.942224
0.931071 0.961669 0.942219
0.931367 0.961358 0.942474
0.931848 0.960792 0.942991
0.933915 0.959108 0.943555
0.939206 0.955279 0.942455
0.943464 0.952354 0.941633
0.949363 0.955038 0.938930
0.951787 0.955444 0.936295
0.000000 0.146726 0.749431
0.000000 0.146014 0.746590
0.000000 0.104030 0.759986
0.000000 0.000000 0.764141
0.184616 0.000000 0.565401
0.467804 0.000000 0.410922
0.727645 0.117629 0.470923
0.815357 0.303719 0.531121
0.845244 0.410469 0.579702
0.000000 0.146217 0.746311
0.000000 0.145374 0.742950
0.000000 0.101802 0.753408
0.000000 0.000000 0.758964
0.175050 0.000000 0.557538
0.464906 0.000000 0.407385
0.720410 0.102147 0.461883
0.812046 0.290456 0.521939
0.842798 0.397414 0.569394
0.000000 0.147327 0.753156
0.000000 0.146318 0.748656
0.000000 0.104603 0.757152
0.000000 0.000000 0.756804
0.171878 0.000000 0.554330
0.464067 0.000000 0.406057
0.718216 0.097400 0.459053
0.811069 0.286568 0.519226
0.842159 0.394028 0.566703
0.000000 0.183066 0.789820
0.000000 0.180173 0.785396
0.000000 0.151729 0.792007
0.000000 0.063831 0.789460
0.229663 0.000000 0.604333
0.489292 0.000000 0.432050
0.735750 0.134657 0.480519
0.818319 0.315030 0.538203
0.847086 0.419528 0.586039
0.316213 0.761989 0.915612
0.311728 0.754755 0.914640
0.311899 0.737946 0.913274
0.333084 0.692472 0.907118
0.670875 0.678523 0.880698
0.815423 0.508395 0.801542
0.841724 0.465575 0.689385
0.856534 0.494076 0.664276
0.868713 0.541294 0.677679
0.791410 0.942947 0.945210
0.791241 0.942826 0.945113
0.795207 0.942844 0.945333
0.807706 0.941925 0.945122
0.859644 0.929897 0.937036
0.902357 0.911825 0.925019
0.918248 0.890259 0.910607
0.915767 0.862303 0.889098
0.912626 0.841380 0.871475
0.872406 0.965789 0.951172
0.872383 0.965771 0.951132
0.873927 0.965504 0.951242
0.878010 0.964611 0.951249
0.895467 0.958805 0.947907
0.920520 0.947929 0.940325
0.932547 0.937618 0.935168
0.938180 0.934872 0.929140
0.936348 0.926002 0.923587
0.902816 0.967133 0.950263
0.902796 0.967139 0.950247
0.903478 0.966838 0.950362
0.905037 0.966125 0.950564
0.911687 0.963448 0.949761
0.928251 0.956601 0.945067
0.939270 0.950045 0.940633
0.941778 0.946274 0.938674
0.943388 0.945176 0.936543
0.914787 0.964292 0.949545
0.914789 0.964291 0.949544
0.915125 0.964015 0.949672
0.916229 0.963351 0.949843
0.921418 0.961344 0.949386
0.931357 0.957422 0.947031
0.940365 0.952915 0.943876
0.943224 0.949577 0.941869
0.944601 0.948748 0.940477
0.000000 0.242318 0.842837
0.000000 0.239077 0.841692
0.000000 0.233207 0.841395
0.000000 0.222169 0.835653
0.245432 0.201136 0.802334
0.477433 0.000000 0.633918
0.649772 0.075292 0.583568
0.781539 0.270230 0.599642
0.825443 0.388771 0.632981
0.000000 0.237379 0.841086
0.000000 0.233693 0.839762
0.000000 0.225557 0.838967
0.000000 0.209519 0.833120
0.233735 0.186728 0.798509
0.463521 0.000000 0.623720
0.640152 0.056104 0.573906
0.775010 0.253863 0.589021
0.821659 0.372968 0.622275
0.000000 0.243636 0.843297
0.000000 0.239007 0.841665
0.000000 0.229860 0.840306
0.000000 0.204465 0.832059
0.229977 0.181262 0.796974
0.458994 0.000000 0.620207
0.637302 0.050361 0.570945
0.773187 0.249672 0.586255
0.820740 0.369207 0.619750
0.000000 0.260708 0.847586
0.000000 0.252386 0.845659
0.000000 0.245989 0.845103
0.000000 0.221826 0.835747
0.237876 0.188609 0.798763
0.468651 0.000000 0.626782
0.644847 0.065134 0.578056
0.778729 0.262052 0.594054
0.823784 0.381567 0.627876
0.107764 0.495510 0.888523
0.092418 0.484175 0.887112
0.098101 0.472132 0.884419
0.143420 0.468083 0.881113
0.415752 0.479383 0.866190
0.651625 0.294695 0.786487
0.741540 0.263629 0.684061
0.810861 0.374710 0.668926
0.842376 0.467707 0.689916
0.725264 0.912826 0.945600
0.723245 0.912321 0.945432
0.727501 0.912180 0.945506
0.735683 0.910196 0.945190
0.780654 0.896335 0.939926
0.880675 0.888246 0.928874
0.899846 0.864831 0.914845
0.900669 0.835759 0.896797
0.898906 0.814804 0.881661
0.857739 0.947954 0.952146
0.857765 0.947922 0.952123
0.859277 0.947867 0.952157
0.863063 0.947570 0.952114
0.880069 0.943662 0.949541
0.907946 0.934352 0.943132
0.918253 0.926902 0.938467
0.925855 0.922035 0.935403
0.926790 0.915483 0.930507
0.887172 0.957677 0.954167
0.887123 0.957670 0.954149
0.888064 0.957500 0.954170
0.889953 0.957044 0.954128
0.899191 0.954265 0.952613
0.916146 0.947030 0.948115
0.924793 0.941388 0.944982
0.930880 0.939167 0.943050
0.934496 0.936507 0.940607
0.901389 0.960183 0.954052
0.901363 0.960191 0.954044
0.902394 0.959919 0.953996
0.904515 0.959318 0.953857
0.910274 0.957375 0.952965
0.921244 0.952406 0.950100
0.928009 0.947662 0.947573
0.934126 0.946739 0.945725
0.936039 0.943842 0.944444
0.050965 0.382720 0.868027
0.045167 0.378541 0.867434
0.038420 0.373470 0.866694
0.083739 0.378907 0.865092
0.265761 0.390465 0.855964
0.526776 0.260369 0.796121
0.660179 0.189142 0.713200
0.755773 0.289579 0.694266
0.808261 0.389679 0.704322
0.039682 0.374742 0.866907
0.032738 0.369954 0.866242
0.023286 0.362985 0.865228
0.068002 0.365642 0.862989
0.251571 0.375697 0.853215
0.513370 0.241444 0.790700
0.648748 0.167684 0.703237
0.746503 0.270513 0.683992
0.803423 0.371878 0.692825
0.050376 0.382285 0.867965
0.040530 0.375318 0.866986
0.031752 0.368969 0.866077
0.062526 0.360797 0.862196
0.247055 0.370516 0.852207
0.509132 0.235308 0.788904
0.645368 0.161230 0.700195
0.744135 0.265601 0.681303
0.802299 0.367822 0.690215
0.073571 0.399396 0.870402
0.060616 0.389837 0.869045
0.056201 0.386516 0.868565
0.078551 0.375082 0.864531
0.253502 0.375162 0.852946
0.516421 0.243485 0.791132
0.651780 0.172791 0.705340
0.750453 0.278402 0.687995
0.805758 0.380162 0.697923
0.169878 0.487938 0.883733
0.155190 0.476492 0.882198
0.160678 0.478701 0.882350
0.190430 0.484435 0.881896
0.334652 0.485042 0.873872
0.593329 0.374704 0.827360
0.708343 0.283321 0.758403
0.784231 0.353031 0.729728
0.820634 0.439162 0.737992
0.622784 0.868842 0.938572
0.615454 0.866017 0.937989
0.613092 0.862266 0.937178
0.609797 0.852581 0.934923
0.642535 0.838350 0.930211
0.840660 0.852609 0.924972
0.875188 0.812021 0.907201
0.876679 0.753977 0.883594
0.877030 0.725966 0.867373
0.847582 0.936572 0.951750
0.847173 0.936470 0.951707
0.848694 0.936478 0.951721
0.852544 0.936382 0.951672
0.864671 0.934099 0.950295
0.891068 0.924573 0.945185
0.914026 0.921851 0.940711
0.920107 0.917475 0.937455
0.922017 0.912967 0.934296
0.884467 0.948276 0.953610
0.884414 0.948263 0.953600
0.885740 0.948133 0.953547
0.888570 0.947772 0.953375
0.896499 0.945926 0.952181
0.912333 0.940443 0.948428
0.920828 0.936134 0.945800
0.925187 0.933114 0.943830
0.928550 0.931369 0.942656
0.899937 0.952640 0.954101
0.899832 0.952645 0.954097
0.900852 0.952465 0.954042
0.902644 0.952081 0.953898
0.907268 0.950632 0.953111
0.917536 0.946174 0.950338
0.924238 0.942110 0.947989
0.927930 0.939724 0.946650
0.930735 0.938525 0.945710
0.188227 0.484975 0.882129
0.182831 0.480800 0.881565
0.175253 0.475020 0.880787
0.201111 0.482342 0.880862
0.313028 0.496700 0.877618
0.550379 0.445578 0.850705
0.694022 0.337322 0.801383
0.768411 0.362040 0.775184
0.806773 0.426228 0.770987
0.178051 0.477171 0.881078
0.170869 0.471759 0.880352
0.160467 0.464001 0.879313
0.184910 0.469172 0.879015
0.297334 0.481928 0.875306
0.537472 0.428372 0.846989
0.681410 0.315415 0.794954
0.757854 0.341267 0.764757
0.801355 0.407172 0.759483
0.186900 0.483945 0.881989
0.177243 0.476527 0.880989
0.168428 0.469932 0.880108
0.179008 0.464252 0.878309
0.292109 0.476754 0.874476
0.532964 0.422440 0.845707
0.677881 0.309149 0.793061
0.755061 0.335736 0.761966
0.800103 0.402810 0.756817
0.209056 0.501013 0.884275
0.196160 0.491072 0.882946
0.191764 0.487686 0.882492
0.196683 0.479086 0.880434
0.298581 0.481744 0.875196
0.540143 0.430184 0.847288
0.685424 0.321637 0.796686
0.762142 0.349434 0.768671
0.804080 0.416537 0.764987
0.272467 0.556338 0.892271
0.255234 0.542825 0.890364
0.257563 0.544485 0.890590
0.276250 0.550321 0.890873
0.356029 0.547781 0.886494
0.582851 0.495390 0.861934
0.722117 0.389203 0.816206
0.786093 0.403650 0.791889
0.816173 0.461145 0.788703
0.549803 0.814326 0.927668
0.538117 0.807673 0.926517
0.535773 0.802648 0.925483
0.535937 0.791479 0.923039
0.579992 0.793148 0.921909
0.790194 0.818897 0.920319
0.850900 0.764092 0.901766
0.857440 0.687008 0.877645
0.863715 0.677466 0.864726
0.834870 0.928001 0.950832
0.833994 0.927795 0.950775
0.835582 0.927810 0.950767
0.838492 0.927255 0.950587
0.842837 0.923615 0.949284
0.872244 0.915743 0.944801
0.907997 0.915890 0.940869
0.915533 0.910989 0.937167
0.917410 0.904948 0.933289
0.883708 0.942287 0.952913
0.883442 0.942262 0.952905
0.884658 0.942172 0.952860
0.887250 0.941914 0.952713
0.893248 0.940810 0.951962
0.907194 0.936559 0.949097
0.915304 0.931870 0.946679
0.923175 0.930917 0.944752
0.925962 0.929440 0.943526
0.900376 0.947279 0.953394
0.900301 0.947270 0.953388
0.901164 0.947163 0.953347
0.902793 0.946903 0.953230
0.906396 0.945949 0.952674
0.915569 0.942559 0.950401
0.922235 0.939248 0.948323
0.925831 0.937111 0.947071
0.928053 0.935781 0.946105
