luts/P4P_05_TealAmber_size65.cube
# POCKET 4P D-Log2 LUT pack v1.0 - TealAmber
# Commercial teal and orange, skin protected.
# Input:  DJI Osmo Pocket 4P D-Log2 / D-Gamut2, full range
# Output: Rec.709 / gamma 2.4 display
# Built on DJI's official D-Log2 to Rec.709 colorimetry with a
# scene-linear highlight shoulder so nothing clips at +7 stops.
TITLE "POCKET 4P TealAmber v1.0"
LUT_3D_SIZE 5
DOMAIN_MIN 0.0 0.0 0.0
DOMAIN_MAX 1.0 1.0 1.0
0.000000 0.005061 0.038450
0.113536 0.000000 0.004255
0.807296 0.000000 0.000000
0.920634 0.252515 0.146012
0.935279 0.469794 0.329322
0.100741 0.302832 0.192000
0.426965 0.460454 0.167769
0.841052 0.000000 0.000000
0.921698 0.261127 0.148446
0.935246 0.466062 0.323583
0.559854 0.978273 0.822362
0.594078 0.983084 0.840226
0.978075 0.983365 0.540297
0.954884 0.735257 0.438923
0.946490 0.659941 0.473768
0.921351 0.989053 0.915328
0.924659 0.988221 0.916565
0.944378 0.982178 0.921207
0.979760 0.981307 0.863549
0.973487 0.964724 0.860357
0.943570 0.978913 0.927893
0.944232 0.978579 0.928040
0.947515 0.976125 0.929776
0.960740 0.970380 0.927805
0.969392 0.970341 0.915963
0.000000 0.000000 0.102887
0.096695 0.000000 0.097965
0.789656 0.000000 0.000000
0.918891 0.248672 0.157610
0.934545 0.464739 0.330856
0.031830 0.335435 0.310866
0.261753 0.275809 0.288478
0.827275 0.000000 0.000000
0.920356 0.260178 0.160998
0.934742 0.465084 0.328744
0.546454 0.978488 0.843815
0.574207 0.982465 0.856635
0.977149 0.982345 0.553964
0.953336 0.718042 0.442523
0.946152 0.660037 0.479721
0.921866 0.988728 0.916234
0.923632 0.988239 0.917027
0.944375 0.981894 0.921812
0.979627 0.981165 0.864340
0.973353 0.964554 0.861182
0.943735 0.978768 0.928033
0.944098 0.978579 0.928119
0.947458 0.976019 0.929965
0.960607 0.970263 0.928063
0.969312 0.970243 0.916168
0.000000 0.144670 0.649185
0.000000 0.000000 0.689796
0.509479 0.000000 0.310647
0.879949 0.191905 0.371925
0.917508 0.437430 0.477892
0.000000 0.157968 0.662243
0.000000 0.000000 0.699265
0.508285 0.000000 0.309737
0.878499 0.181250 0.364030
0.916388 0.424018 0.466809
0.442195 0.938820 0.908108
0.476642 0.937801 0.907342
0.871504 0.864691 0.848487
0.931783 0.625683 0.629842
0.935099 0.627759 0.591961
0.889268 0.985646 0.937388
0.893446 0.985231 0.937066
0.928134 0.981412 0.930978
0.970817 0.971841 0.894821
0.968016 0.956277 0.881996
0.940427 0.975061 0.935374
0.940988 0.974661 0.935603
0.945373 0.972061 0.936426
0.959643 0.968739 0.930669
0.968109 0.968263 0.918287
0.000000 0.310641 0.905430
0.000000 0.299760 0.904651
0.285523 0.210575 0.843620
0.790392 0.063232 0.597751
0.889985 0.388782 0.625416
0.000000 0.312256 0.905729
0.000000 0.295722 0.903961
0.270053 0.189688 0.839241
0.782167 0.036931 0.585082
0.886995 0.367882 0.612539
0.000000 0.589169 0.927790
0.000000 0.560998 0.925398
0.431173 0.509322 0.898121
0.842899 0.262298 0.699231
0.900985 0.473212 0.679038
0.870377 0.961575 0.948071
0.872250 0.961442 0.948071
0.898578 0.956681 0.944855
0.942444 0.939765 0.931065
0.951854 0.929091 0.920535
0.915315 0.969313 0.948824
0.916587 0.969042 0.948740
0.926368 0.966470 0.947394
0.947016 0.957249 0.940251
0.955064 0.954212 0.935971
0.086357 0.558128 0.921101
0.071057 0.548053 0.920549
0.267025 0.547394 0.913535
0.809978 0.345918 0.821877
0.878020 0.434878 0.781697
0.084797 0.557081 0.921042
0.062957 0.542946 0.920280
0.243747 0.526256 0.911838
0.799821 0.316126 0.814619
0.873685 0.409948 0.769480
0.184308 0.632122 0.925496
0.166465 0.620071 0.924852
0.312026 0.603456 0.918490
0.826273 0.400918 0.834706
0.884118 0.472108 0.795056
0.842547 0.948176 0.950536
0.843538 0.947975 0.950476
0.854411 0.943923 0.949232
0.935040 0.929202 0.936526
0.944602 0.918512 0.927229
0.919433 0.958811 0.948923
0.920327 0.958653 0.948860
0.926344 0.957165 0.948026
0.943717 0.949920 0.942719
0.949802 0.947404 0.939674
