luts/P4P_08_Golden_size33.cube
# POCKET 4P D-Log2 LUT pack v1.0 - Golden
# Warm golden-hour bias with amber highlights.
# Input:  DJI Osmo Pocket 4P D-Log2 / D-Gamut2, full range
# Output: Rec.709 / gamma 2.4 display
# Built on DJI's official D-Log2 to Rec.709 colorimetry with a
# scene-linear highlight shoulder so nothing clips at +7 stops.
TITLE "POCKET 4P Golden v1.0"
LUT_3D_SIZE 33
DOMAIN_MIN 0.0 0.0 0.0
DOMAIN_MAX 1.0 1.0 1.0
0.021606 0.016167 0.027096
0.021606 0.016167 0.027096
0.021606 0.016167 0.027096
0.040841 0.010703 0.023655
0.060382 0.009411 0.025274
0.081908 0.007866 0.027815
0.113010 0.006259 0.031782
0.153243 0.004659 0.037331
0.208122 0.003673 0.044560
0.278205 0.003298 0.052672
0.365886 0.004056 0.061422
0.469570 0.006744 0.071305
0.585635 0.011530 0.082772
0.707995 0.016827 0.096007
0.809892 0.018302 0.109116
0.875904 0.014482 0.120917
0.915327 0.014421 0.132357
0.933874 0.033705 0.146862
0.941592 0.096859 0.169737
0.944278 0.177652 0.197238
0.944962 0.245434 0.225486
0.945432 0.296439 0.251370
0.945809 0.335927 0.274973
0.946119 0.368584 0.296795
0.946382 0.396568 0.316895
0.946596 0.421503 0.336050
0.946796 0.444443 0.354008
0.946986 0.465720 0.371163
0.947161 0.485195 0.387178
0.947321 0.503037 0.402183
0.947464 0.519258 0.415862
0.947598 0.534777 0.429480
0.947717 0.548808 0.441787
0.021606 0.016167 0.027096
0.021606 0.016167 0.027096
0.021606 0.016167 0.027096
0.040841 0.010703 0.023655
0.060382 0.009411 0.025274
0.081908 0.007866 0.027815
0.113010 0.006259 0.031782
0.153243 0.004659 0.037331
0.208122 0.003673 0.044560
0.278205 0.003298 0.052672
0.365886 0.004056 0.061422
0.469570 0.006744 0.071305
0.585635 0.011530 0.082772
0.707995 0.016827 0.096007
0.809892 0.018302 0.109116
0.875904 0.014482 0.120917
0.915327 0.014421 0.132357
0.933874 0.033705 0.146862
0.941592 0.096859 0.169737
0.944278 0.177652 0.197238
0.944962 0.245434 0.225486
0.945432 0.296439 0.251370
0.945809 0.335927 0.274973
0.946119 0.368584 0.296795
0.946382 0.396568 0.316895
0.946596 0.421503 0.336050
0.946796 0.444443 0.354008
0.946986 0.465720 0.371163
0.947161 0.485195 0.387178
0.947321 0.503037 0.402183
0.947464 0.519258 0.415862
0.947598 0.534777 0.429480
0.947717 0.548808 0.441787
0.021606 0.016167 0.027096
0.021606 0.016167 0.027096
0.021606 0.016167 0.027096
0.040841 0.010703 0.023655
0.060382 0.009411 0.025274
0.081908 0.007866 0.027815
0.113010 0.006259 0.031782
0.153243 0.004659 0.037331
0.208122 0.003673 0.044560
0.278205 0.003298 0.052672
0.365886 0.004056 0.061422
0.469570 0.006744 0.071305
0.585635 0.011530 0.082772
0.707995 0.016827 0.096007
0.809892 0.018302 0.109116
0.875904 0.014482 0.120917
0.915327 0.014421 0.132357
0.933874 0.033705 0.146862
0.941592 0.096859 0.169737
0.944278 0.177652 0.197238
0.944962 0.245434 0.225486
0.945432 0.296439 0.251370
0.945809 0.335927 0.274973
0.946119 0.368584 0.296795
0.946382 0.396568 0.316895
0.946596 0.421503 0.336050
0.946796 0.444443 0.354008
0.946986 0.465720 0.371163
0.947161 0.485195 0.387178
0.947321 0.503037 0.402183
0.947464 0.519258 0.415862
0.947598 0.534777 0.429480
0.947717 0.548808 0.441787
0.013336 0.033551 0.027198
0.013336 0.033551 0.027198
0.013336 0.033551 0.027198
0.042526 0.039260 0.020345
0.072090 0.040104 0.014616
0.104743 0.036897 0.016599
0.143147 0.030948 0.020563
0.186718 0.025588 0.024857
0.239498 0.019038 0.031363
0.306079 0.013162 0.039745
0.388092 0.008928 0.050214
0.486215 0.008261 0.061971
0.595413 0.011212 0.075067
0.711809 0.016111 0.089933
0.809824 0.018316 0.104561
0.874764 0.015379 0.117306
0.914241 0.015453 0.129095
0.933016 0.032727 0.143433
0.941089 0.090731 0.165777
0.944102 0.169655 0.192794
0.944899 0.237298 0.220715
0.945365 0.289165 0.246642
0.945746 0.329173 0.270153
0.946058 0.362042 0.291819
0.946323 0.390121 0.311764
0.946536 0.414655 0.330455
0.946734 0.437205 0.347970
0.946920 0.458100 0.364696
0.947092 0.477363 0.380420
0.947251 0.495153 0.395264
0.947394 0.511282 0.408756
0.947524 0.526218 0.421754
0.947641 0.539721 0.433498
0.010581 0.053851 0.032350
0.010581 0.053851 0.032350
0.010581 0.053851 0.032350
0.036187 0.065008 0.021271
0.070165 0.070348 0.018490
0.111736 0.074857 0.008300
0.155258 0.074259 0.006623
0.208146 0.065516 0.010625
0.266802 0.053233 0.016744
0.334057 0.039832 0.024608
0.414844 0.026035 0.035367
0.509015 0.017131 0.049598
0.613473 0.014360 0.065116
0.724809 0.016270 0.082493
0.815215 0.017762 0.100127
0.877706 0.015253 0.114304
0.915370 0.016019 0.126860
0.933563 0.034399 0.141967
0.941224 0.092684 0.164690
0.944130 0.171126 0.192009
0.944908 0.237985 0.219980
0.945373 0.289670 0.246111
0.945749 0.329229 0.269511
0.946055 0.361436 0.290858
0.946317 0.389308 0.310720
0.946530 0.413674 0.329325
0.946727 0.436072 0.346749
0.946910 0.456828 0.363375
0.947080 0.475948 0.378994
0.947238 0.493591 0.393727
0.947380 0.509590 0.407120
0.947510 0.524431 0.420031
0.947626 0.537847 0.431697
0.007983 0.076096 0.038883
0.007983 0.076096 0.038883
0.007983 0.076096 0.038883
0.030164 0.094041 0.024707
0.062536 0.106724 0.017754
0.107392 0.113198 0.013420
0.162999 0.119296 0.003487
0.217693 0.118759 0.002036
0.281191 0.107744 0.004351
0.354217 0.087813 0.009807
0.438525 0.061791 0.019152
0.532971 0.038583 0.034272
0.634476 0.024452 0.052647
0.741465 0.019394 0.072673
0.823106 0.017849 0.094061
0.882268 0.014674 0.110465
0.917018 0.015967 0.124254
0.934312 0.035743 0.140466
0.941501 0.095899 0.164086
0.944212 0.175148 0.192224
0.944937 0.241182 0.220360
0.945395 0.291677 0.246305
0.945765 0.330629 0.269651
0.946065 0.362400 0.290930
0.946321 0.389963 0.310721
0.946536 0.414513 0.329556
0.946733 0.436830 0.346985
0.946913 0.457136 0.363306
0.947081 0.475997 0.378751
0.947239 0.493563 0.393434
0.947380 0.509491 0.406781
0.947510 0.524261 0.419646
0.947627 0.537615 0.431269
0.005812 0.108266 0.048227
0.005812 0.108266 0.048227
0.005812 0.108266 0.048227
0.021904 0.129505 0.033800
0.053122 0.146363 0.020659
0.095800 0.159268 0.014875
0.157580 0.168005 0.007128
0.225124 0.173776 0.000000
0.295218 0.170799 0.000000
0.371718 0.156989 0.000000
0.459150 0.130104 0.004952
0.555922 0.092645 0.015706
0.659865 0.053998 0.034081
0.764340 0.032070 0.058012
0.833473 0.021067 0.082577
0.888879 0.014413 0.103511
0.919873 0.015812 0.120238
0.935472 0.037691 0.138575
0.941972 0.101601 0.164024
0.944339 0.181100 0.193050
0.944982 0.246074 0.221480
0.945434 0.295390 0.247364
0.945798 0.333779 0.270816
0.946093 0.365150 0.292119
0.946338 0.391900 0.311536
0.946551 0.416239 0.330348
0.946745 0.438396 0.347759
0.946924 0.458597 0.364060
0.947092 0.477354 0.379484
0.947250 0.494819 0.394146
0.947391 0.510676 0.407491
0.947523 0.525629 0.420544
0.947641 0.539147 0.432339
0.004368 0.149378 0.060483
0.004368 0.149378 0.060483
0.004368 0.149378 0.060483
0.013879 0.172336 0.047251
0.039491 0.190652 0.028107
0.079175 0.207475 0.017411
0.142516 0.221986 0.011044
0.219366 0.231914 0.002288
0.299070 0.237094 0.000000
0.384720 0.231105 0.000000
0.477801 0.209945 0.000000
0.578896 0.174013 0.003149
0.685916 0.124998 0.016017
0.785570 0.067790 0.037280
0.847383 0.033708 0.063784
0.898201 0.016733 0.090307
0.924093 0.016944 0.113009
0.937215 0.042159 0.135689
0.942630 0.111512 0.164371
0.944501 0.190366 0.194728
0.945054 0.253814 0.223737
0.945493 0.301253 0.249475
0.945844 0.338233 0.272669
0.946128 0.368886 0.293865
0.946363 0.395197 0.313225
0.946576 0.419303 0.332011
0.946773 0.441409 0.349522
0.946954 0.461798 0.366096
0.947122 0.480472 0.381548
0.947276 0.497593 0.396003
0.947414 0.513157 0.409176
0.947545 0.528043 0.422233
0.947662 0.541501 0.434031
0.003201 0.202335 0.078009
0.003201 0.202335 0.078009
0.003201 0.202335 0.078009
0.007827 0.223726 0.065264
0.023555 0.242459 0.045671
0.055042 0.260527 0.027925
0.115856 0.279712 0.014509
0.196404 0.296152 0.007332
0.289559 0.305427 0.000000
0.380661 0.309259 0.000000
0.481977 0.297796 0.000000
0.591777 0.268262 0.000000
0.709735 0.219030 0.003762
0.803739 0.153696 0.018379
0.867244 0.075733 0.040324
0.909680 0.031002 0.066638
0.929846 0.024121 0.097310
0.939797 0.053518 0.129267
0.943617 0.129078 0.164059
0.944726 0.204813 0.196977
0.945159 0.264498 0.226714
0.945577 0.309387 0.252480
0.945909 0.344558 0.275441
0.946182 0.374379 0.296621
0.946407 0.400531 0.316198
0.946613 0.423957 0.334684
0.946806 0.445609 0.352030
0.946989 0.465841 0.368623
0.947156 0.484384 0.384092
0.947310 0.501399 0.398563
0.947448 0.516868 0.411751
0.947578 0.531691 0.424839
0.947694 0.545092 0.436665
0.003299 0.266652 0.100930
0.003299 0.266652 0.100930
0.003299 0.266652 0.100930
0.003937 0.284876 0.090694
0.010808 0.302221 0.070379
0.029750 0.319702 0.048541
0.075163 0.341545 0.027230
0.158779 0.361964 0.012042
0.259367 0.376958 0.004446
0.365590 0.385513 0.000000
0.470840 0.385601 0.000000
0.587614 0.368640 0.000000
0.712098 0.329762 0.000000
0.818935 0.260697 0.006233
0.885037 0.167532 0.019179
0.920551 0.077112 0.039919
0.935989 0.050760 0.073791
0.942669 0.086722 0.120923
0.944434 0.160198 0.164319
0.944900 0.227145 0.200725
0.945310 0.279371 0.230847
0.945687 0.320094 0.256574
0.945984 0.353102 0.279385
0.946231 0.381530 0.300306
0.946455 0.406951 0.319780
0.946663 0.430080 0.338283
0.946857 0.451497 0.355659
0.947039 0.471563 0.372295
0.947207 0.490113 0.387942
0.947363 0.507300 0.402719
0.947502 0.522887 0.416152
0.947628 0.537402 0.429100
0.947741 0.550522 0.440800
0.003268 0.342043 0.126569
0.003268 0.342043 0.126569
0.003268 0.342043 0.126569
0.002092 0.356913 0.119851
0.003813 0.371730 0.105242
0.012172 0.388329 0.082733
0.037520 0.408680 0.054189
0.101062 0.431330 0.026841
0.207382 0.451133 0.010732
0.326905 0.464560 0.003060
0.448430 0.470624 0.000000
0.566682 0.466143 0.000000
0.696526 0.441423 0.000000
0.812736 0.389911 0.000000
0.891583 0.300134 0.006606
0.928492 0.194806 0.023002
0.940834 0.146169 0.059675
0.944707 0.163462 0.119655
0.944927 0.212452 0.169696
0.945186 0.260721 0.208033
0.945534 0.301055 0.237547
0.945837 0.335069 0.262419
0.946086 0.364680 0.284657
0.946308 0.391244 0.305207
0.946531 0.415769 0.324614
0.946747 0.439062 0.343675
0.946942 0.460312 0.361275
0.947119 0.479741 0.377685
0.947283 0.497874 0.393246
0.947435 0.514854 0.408072
0.947571 0.530260 0.421553
0.947695 0.544693 0.434598
0.947806 0.557738 0.446385
0.003061 0.427520 0.154078
0.003061 0.427520 0.154078
0.003061 0.427520 0.154078
0.001592 0.438833 0.151494
0.001056 0.450636 0.143261
0.002816 0.464018 0.127761
0.012519 0.482014 0.100619
0.045761 0.504400 0.061169
0.132166 0.527085 0.029176
0.259353 0.546666 0.011297
0.398778 0.556918 0.002795
0.534175 0.558769 0.000000
0.666250 0.548038 0.000000
0.795955 0.513963 0.000000
0.883799 0.447342 0.000000
0.929093 0.356733 0.012264
0.943033 0.288302 0.062511
0.945577 0.269636 0.134670
0.945532 0.282898 0.184935
0.945645 0.304968 0.220609
0.945833 0.330327 0.248232
0.946032 0.355964 0.271557
0.946234 0.381254 0.292984
0.946443 0.405581 0.313186
0.946657 0.428377 0.332093
0.946866 0.450641 0.350839
0.947056 0.471205 0.368325
0.947230 0.490375 0.384882
0.947390 0.508302 0.400590
0.947538 0.525125 0.415561
0.947670 0.540397 0.429180
0.947790 0.554827 0.442413
0.947898 0.567869 0.454371
0.003022 0.520846 0.184423
0.003022 0.520846 0.184423
0.003022 0.520846 0.184423
0.001784 0.528166 0.183393
0.000724 0.536893 0.179618
0.000363 0.547300 0.171748
0.002341 0.562149 0.154475
0.014489 0.581902 0.121863
0.053981 0.605990 0.072784
0.160564 0.628779 0.032640
0.312983 0.645411 0.010688
0.471008 0.651615 0.001022
0.621504 0.648328 0.000000
0.766546 0.629595 0.000000
0.860799 0.584169 0.000000
0.923514 0.512505 0.000000
0.943036 0.443681 0.050750
0.946978 0.397291 0.141958
0.946524 0.373729 0.205108
0.946308 0.367321 0.241362
0.946296 0.374103 0.265102
0.946363 0.388026 0.285590
0.946483 0.406037 0.305017
0.946646 0.425967 0.324074
0.946833 0.446266 0.342539
0.947022 0.466593 0.360682
0.947198 0.485832 0.377874
0.947366 0.504444 0.394545
0.947518 0.521699 0.410129
0.947656 0.537737 0.424749
0.947781 0.552332 0.438079
0.947896 0.566521 0.451363
0.947999 0.579345 0.463367
0.004061 0.618426 0.217112
0.004061 0.618426 0.217112
0.004061 0.618426 0.217112
0.003214 0.622936 0.217047
0.002187 0.629270 0.215951
0.001294 0.637149 0.212697
0.001020 0.649508 0.204505
0.002546 0.665824 0.185050
0.014649 0.686327 0.146157
0.061223 0.710444 0.084799
0.186685 0.732711 0.032769
0.365107 0.746151 0.008029
0.543986 0.748055 0.000000
0.709924 0.737803 0.000000
0.833326 0.707191 0.000000
0.908097 0.656232 0.000000
0.939048 0.593236 0.022383
0.948053 0.538387 0.122639
0.947843 0.496764 0.212218
0.947372 0.465171 0.262170
0.947072 0.446647 0.289362
0.946944 0.442625 0.308742
0.946927 0.448427 0.325410
0.946985 0.459631 0.341502
0.947093 0.473944 0.358027
0.947245 0.490991 0.375266
0.947391 0.507454 0.391595
0.947535 0.523811 0.407400
0.947670 0.539634 0.422613
0.947798 0.555019 0.437331
0.947913 0.569002 0.450717
0.948021 0.582449 0.463697
0.948118 0.594599 0.475425
0.005929 0.718816 0.250404
0.005929 0.718816 0.250404
0.005929 0.718816 0.250404
0.005408 0.721552 0.250545
0.004702 0.725926 0.250570
0.003877 0.732353 0.250191
0.003349 0.740952 0.247362
0.003588 0.753585 0.238329
0.004509 0.768120 0.214832
0.015549 0.783822 0.167545
0.068236 0.800885 0.093493
0.215568 0.814470 0.031205
0.418508 0.820221 0.006079
0.615093 0.817256 0.000000
0.785985 0.805385 0.000000
0.879255 0.779168 0.000000
0.927672 0.735956 0.000000
0.945541 0.680987 0.068379
0.948848 0.633029 0.189314
0.948581 0.591523 0.273024
0.948191 0.557685 0.317651
0.947882 0.533432 0.340726
0.947678 0.519642 0.355400
0.947569 0.515488 0.368428
0.947532 0.518688 0.382057
0.947603 0.529299 0.397596
0.947685 0.540523 0.412290
0.947784 0.552948 0.426459
0.947887 0.565771 0.440444
0.947994 0.579029 0.454318
0.948091 0.591148 0.466975
0.948188 0.603624 0.479675
0.948276 0.614893 0.491149
0.007175 0.798761 0.276106
0.007175 0.798761 0.276106
0.007175 0.798761 0.276106
0.006910 0.799989 0.276638
0.006532 0.802234 0.277299
0.006052 0.804931 0.277753
0.005777 0.809101 0.277390
0.006033 0.815124 0.274431
0.006393 0.823250 0.264212
0.007193 0.833037 0.237414
0.021630 0.845603 0.180400
0.087820 0.862126 0.096784
0.259714 0.872583 0.028788
0.478497 0.874901 0.002437
0.688341 0.867366 0.000000
0.830606 0.849638 0.000000
0.906224 0.826075 0.000000
0.936856 0.797055 0.007997
0.947041 0.762604 0.120203
0.949313 0.717231 0.242510
0.949168 0.678013 0.324466
0.948887 0.645722 0.369863
0.948623 0.620518 0.393642
0.948412 0.602396 0.407629
0.948258 0.590428 0.417637
0.948175 0.588051 0.428176
0.948137 0.589169 0.439177
0.948156 0.594831 0.451290
0.948200 0.602441 0.463619
0.948268 0.611926 0.476209
0.948330 0.620737 0.487739
0.948410 0.631386 0.499814
0.948480 0.641001 0.510723
0.008523 0.851156 0.289401
0.008523 0.851156 0.289401
0.008523 0.851156 0.289401
0.008460 0.851706 0.290176
0.008397 0.853290 0.290936
0.008321 0.855509 0.291709
0.008512 0.859092 0.292665
0.008807 0.863705 0.292971
0.009244 0.870136 0.290250
0.009752 0.877531 0.278432
0.010821 0.886171 0.246902
0.029903 0.896159 0.181464
0.117728 0.904956 0.086591
0.317869 0.909340 0.019893
0.554720 0.908107 0.000000
0.757164 0.900593 0.000000
0.860166 0.886792 0.000000
0.920005 0.864499 0.000000
0.940337 0.836608 0.041948
0.947670 0.811486 0.162629
0.949492 0.783546 0.281509
0.949585 0.754586 0.365315
0.949415 0.724704 0.414924
0.949218 0.700804 0.443332
0.949035 0.681774 0.459751
0.948902 0.669253 0.469388
0.948794 0.660572 0.478140
0.948720 0.656459 0.486253
0.948679 0.655699 0.494813
0.948669 0.658086 0.503843
0.948664 0.660646 0.512248
0.948703 0.667383 0.522579
0.948738 0.673460 0.531911
0.011127 0.893492 0.295103
0.011127 0.893492 0.295103
0.011127 0.893492 0.295103
0.011129 0.893503 0.295888
0.011217 0.894461 0.296750
0.011330 0.895683 0.297710
0.011483 0.897286 0.299073
0.011704 0.899572 0.300713
0.012007 0.902638 0.301854
0.012412 0.906683 0.299940
0.012850 0.911151 0.287791
0.013476 0.916696 0.247775
0.044171 0.922674 0.169983
0.181731 0.927204 0.067559
0.421311 0.928157 0.014154
0.645785 0.925119 0.000000
0.806275 0.918612 0.000000
0.888107 0.908312 0.000000
0.927178 0.892441 0.000000
0.942280 0.871370 0.080457
0.948036 0.845930 0.202671
0.949633 0.825449 0.315936
0.949852 0.805116 0.400596
0.949784 0.786388 0.455746
0.949657 0.769804 0.489478
0.949532 0.755560 0.506010
0.949413 0.741902 0.518796
0.949316 0.731848 0.527441
0.949239 0.724802 0.534968
0.949183 0.720537 0.541489
0.949133 0.717075 0.547511
0.949114 0.718019 0.554551
0.949097 0.718870 0.560903
0.015703 0.916692 0.303083
0.015703 0.916692 0.303083
0.015703 0.916692 0.303083
0.015668 0.916674 0.303714
0.015850 0.917094 0.304596
0.016066 0.917699 0.305689
0.016397 0.918726 0.307339
0.016781 0.919995 0.309778
0.017249 0.921669 0.312754
0.017760 0.923890 0.315295
0.018277 0.926316 0.312445
0.020246 0.929377 0.295007
0.044026 0.933027 0.246345
0.143128 0.936417 0.166562
0.358305 0.937637 0.098653
0.572772 0.936600 0.065538
0.746979 0.933462 0.035896
0.844712 0.928339 0.007747
0.904971 0.920207 0.001355
0.931608 0.908817 0.041754
0.943005 0.894344 0.136216
0.947756 0.877606 0.246976
0.949483 0.858786 0.347784
0.949958 0.840076 0.428341
0.950014 0.826212 0.487233
0.949965 0.814525 0.520356
0.949887 0.804236 0.545306
0.949805 0.795782 0.560612
0.949728 0.788825 0.572104
0.949663 0.783378 0.580036
0.949601 0.778556 0.587137
0.949563 0.776243 0.593074
0.949528 0.774141 0.598424
0.043368 0.929807 0.321137
0.043368 0.929807 0.321137
0.043368 0.929807 0.321137
0.043046 0.929766 0.321511
0.043796 0.930050 0.322553
0.045403 0.930435 0.324126
0.047397 0.930989 0.326303
0.049835 0.931691 0.329453
0.052647 0.932642 0.333709
0.056164 0.933911 0.338942
0.061268 0.935323 0.342995
0.072516 0.936899 0.340098
0.115604 0.938811 0.319373
0.213622 0.940750 0.278363
0.387921 0.941423 0.240697
0.563259 0.941218 0.214945
0.712497 0.940127 0.177087
0.815550 0.937733 0.122770
0.877550 0.933551 0.079948
0.916758 0.927366 0.071523
0.934932 0.919034 0.115216
0.943582 0.908847 0.200915
0.947623 0.897396 0.298037
0.949369 0.885134 0.386377
0.949990 0.872388 0.460029
0.950116 0.859736 0.510418
0.950147 0.847369 0.550355
0.950115 0.838482 0.576902
0.950069 0.831891 0.596217
0.950020 0.826509 0.608889
0.949967 0.821649 0.620064
0.949928 0.818490 0.627220
0.949889 0.815602 0.633671
0.127611 0.937116 0.355199
0.127611 0.937116 0.355199
0.127611 0.937116 0.355199
0.126352 0.937060 0.355279
0.128417 0.937183 0.356546
0.132076 0.937418 0.358499
0.137821 0.937709 0.361538
0.146115 0.938137 0.366100
0.155232 0.938639 0.371841
0.167276 0.939259 0.379453
0.184375 0.940035 0.388319
0.207781 0.940782 0.394146
0.259233 0.941549 0.394166
0.345085 0.942221 0.384914
0.473419 0.942357 0.377766
0.603052 0.942372 0.369623
0.719444 0.942165 0.345018
0.804949 0.941480 0.295793
0.856777 0.939686 0.229387
0.901596 0.936529 0.177597
0.925108 0.931825 0.167725
0.937438 0.925609 0.208936
0.943909 0.918210 0.281907
0.947346 0.910118 0.362017
0.949157 0.901725 0.436693
0.949767 0.893635 0.493706
0.950116 0.885592 0.540956
0.950210 0.877838 0.576120
0.950251 0.870603 0.603450
0.950249 0.864015 0.623196
0.950226 0.857804 0.640671
0.950196 0.853272 0.651047
0.950161 0.849022 0.660436
0.263166 0.940714 0.405512
0.263166 0.940714 0.405512
0.263166 0.940714 0.405512
0.261100 0.940691 0.405175
0.265724 0.940749 0.407470
0.270600 0.940851 0.409879
0.278304 0.940983 0.413680
0.289031 0.941178 0.419092
0.301895 0.941402 0.426136
0.320390 0.941671 0.436193
0.343420 0.941975 0.448039
0.369593 0.942219 0.459079
0.411360 0.942436 0.469319
0.477201 0.942602 0.477429
0.570363 0.942638 0.489741
0.664827 0.942595 0.498849
0.752299 0.942517 0.491504
0.811586 0.942390 0.460178
0.852883 0.941921 0.399960
0.891750 0.940704 0.332639
0.916381 0.938278 0.288781
0.930907 0.934643 0.283648
0.939332 0.929966 0.315984
0.944248 0.924556 0.370837
0.947175 0.918695 0.434123
0.948475 0.912800 0.489842
0.949352 0.907062 0.537377
0.949745 0.901661 0.575255
0.950008 0.896601 0.605682
0.950147 0.891957 0.628918
0.950258 0.887553 0.649671
0.950310 0.883859 0.663333
0.950316 0.880352 0.675885
0.405231 0.942193 0.467032
0.405231 0.942193 0.467032
0.405231 0.942193 0.467032
0.403022 0.942186 0.466372
0.407737 0.942214 0.468818
0.413147 0.942246 0.471693
0.421807 0.942305 0.476340
0.432650 0.942358 0.482374
0.445885 0.942437 0.490054
0.464489 0.942533 0.500767
0.487254 0.942621 0.513803
0.511865 0.942681 0.527908
0.542736 0.942743 0.541454
0.591367 0.942749 0.557683
0.657238 0.942720 0.578363
0.728669 0.942676 0.597952
0.786791 0.942615 0.604476
0.826956 0.942537 0.591666
0.857843 0.942451 0.550956
0.889557 0.942181 0.490614
0.911066 0.941215 0.435103
0.925456 0.939310 0.401169
0.934807 0.936505 0.396835
0.940770 0.932989 0.418886
0.944608 0.928961 0.458610
0.946649 0.924568 0.505027
0.948078 0.920262 0.546516
0.948856 0.916124 0.582519
0.949359 0.912288 0.612441
0.949607 0.908806 0.636533
0.949819 0.905508 0.658169
0.949918 0.902671 0.673614
0.950002 0.900005 0.687679
0.531931 0.942723 0.531881
0.531931 0.942723 0.531881
0.531931 0.942723 0.531881
0.530471 0.942720 0.531400
0.533575 0.942726 0.533343
0.538621 0.942733 0.536436
0.547116 0.942743 0.541511
0.557465 0.942756 0.547953
0.570105 0.942766 0.556208
0.585328 0.942770 0.566544
0.604539 0.942773 0.579622
0.625968 0.942775 0.594860
0.649069 0.942773 0.608996
0.684484 0.942761 0.627026
0.731610 0.942737 0.649174
0.779998 0.942701 0.672980
0.815548 0.942652 0.688644
0.843580 0.942591 0.690213
0.869681 0.942510 0.667899
0.892442 0.942491 0.624126
0.909242 0.942312 0.571797
0.921839 0.941557 0.527727
0.930980 0.940051 0.501488
0.937381 0.937878 0.496102
0.941852 0.935193 0.510134
0.944505 0.931990 0.540720
0.946438 0.928780 0.570438
0.947663 0.925545 0.599754
0.948477 0.922513 0.625751
0.948928 0.919710 0.648606
0.949314 0.917069 0.669180
0.949458 0.914868 0.684709
0.949586 0.912806 0.698841
0.637297 0.942766 0.596345
0.637297 0.942766 0.596345
0.637297 0.942766 0.596345
0.637472 0.942767 0.596674
0.640281 0.942767 0.598657
0.644519 0.942767 0.601681
0.650553 0.942767 0.605980
0.658684 0.942767 0.611834
0.671056 0.942767 0.620823
0.684109 0.942766 0.630532
0.698904 0.942766 0.642150
0.715697 0.942764 0.655506
0.733000 0.942759 0.668122
0.759801 0.942747 0.685760
0.785982 0.942726 0.706938
0.813380 0.942695 0.730840
0.838147 0.942652 0.751157
0.858726 0.942600 0.760845
0.880830 0.942522 0.752926
0.897260 0.942486 0.727314
0.909841 0.942491 0.687328
0.919982 0.942433 0.644105
0.928088 0.941878 0.609862
0.934346 0.940691 0.589798
0.939086 0.939022 0.582409
0.942254 0.936761 0.592456
0.944612 0.934429 0.606526
0.946215 0.931954 0.626201
0.947352 0.929568 0.645664
0.948090 0.927278 0.664968
0.948718 0.925118 0.682467
0.948952 0.923202 0.697196
0.949163 0.921407 0.710592
0.714795 0.942762 0.653057
0.714795 0.942762 0.653057
0.714795 0.942762 0.653057
0.713747 0.942762 0.652392
0.716118 0.942762 0.654178
0.720928 0.942761 0.657848
0.726072 0.942760 0.661757
0.732846 0.942758 0.666937
0.742331 0.942755 0.674261
0.753292 0.942752 0.682857
0.764220 0.942749 0.692903
0.774702 0.942744 0.704293
0.784383 0.942735 0.714694
0.797600 0.942721 0.728438
0.814904 0.942701 0.746711
0.833754 0.942673 0.766178
0.851593 0.942638 0.780679
0.871025 0.942580 0.789287
0.887728 0.942515 0.789155
0.900734 0.942475 0.779350
0.911152 0.942473 0.759204
0.919654 0.942460 0.726269
0.926665 0.942267 0.695600
0.932341 0.941713 0.672629
0.936859 0.940766 0.657539
0.940183 0.939234 0.655431
0.942748 0.937592 0.658108
0.944634 0.935758 0.666577
0.946011 0.933932 0.677205
0.946962 0.932109 0.689896
0.947773 0.930392 0.701640
0.948184 0.928781 0.714234
0.948553 0.927276 0.725680
0.773988 0.942741 0.701025
0.773988 0.942741 0.701025
0.773988 0.942741 0.701025
0.772714 0.942742 0.699811
0.774175 0.942741 0.701350
0.777561 0.942739 0.704941
0.780775 0.942737 0.708459
0.785019 0.942735 0.713210
0.790129 0.942731 0.719138
0.796062 0.942726 0.726245
0.802248 0.942721 0.734381
0.809121 0.942714 0.743652
0.815361 0.942702 0.752162
0.823279 0.942686 0.762152
0.834794 0.942667 0.773873
