luts/P4P_10_Mono_size65.cube
# POCKET 4P D-Log2 LUT pack v1.0 - Mono
# Black and white, orange-filter response, warm print tone.
# Input:  DJI Osmo Pocket 4P D-Log2 / D-Gamut2, full range
# Output: Rec.709 / gamma 2.4 display
# Built on DJI's official D-Log2 to Rec.709 colorimetry with a
# scene-linear highlight shoulder so nothing clips at +7 stops.
TITLE "POCKET 4P Mono v1.0"
LUT_3D_SIZE 5
DOMAIN_MIN 0.0 0.0 0.0
DOMAIN_MAX 1.0 1.0 1.0
0.000916 0.000806 0.000567
0.072273 0.071458 0.069663
0.511968 0.506799 0.495427
0.775192 0.769335 0.755907
0.837199 0.832423 0.821417
0.083590 0.082662 0.080621
0.243925 0.241410 0.235876
0.539985 0.534539 0.522557
0.776612 0.770778 0.757400
0.835744 0.830940 0.819872
0.488177 0.483244 0.472390
0.511432 0.506269 0.494908
0.852204 0.847722 0.837378
0.873024 0.868977 0.859613
0.875124 0.871123 0.861862
0.877688 0.873743 0.864610
0.885552 0.881783 0.873048
0.923402 0.920564 0.913945
0.947352 0.945198 0.940145
0.947426 0.945274 0.940226
0.931278 0.928656 0.922528
0.932319 0.929725 0.923664
0.938598 0.936184 0.930533
0.952842 0.950859 0.946199
0.956517 0.954653 0.950265
0.012788 0.012562 0.012063
0.129260 0.127881 0.124845
0.544014 0.538527 0.526457
0.778015 0.772203 0.758876
0.837175 0.832398 0.821391
0.129237 0.127857 0.124822
0.264960 0.262237 0.256245
0.581337 0.575481 0.562598
0.779978 0.774197 0.760940
0.836754 0.831969 0.820944
0.504806 0.499708 0.488492
0.523415 0.518132 0.506511
0.855753 0.851344 0.841162
0.872820 0.868768 0.859395
0.876100 0.872120 0.862908
0.880396 0.876511 0.867513
0.884826 0.881040 0.872268
0.924220 0.921404 0.914835
0.947450 0.945299 0.940253
0.947529 0.945381 0.940340
0.931674 0.929063 0.922960
0.932254 0.929658 0.923593
0.938755 0.936346 0.930705
0.952903 0.950923 0.946267
0.956554 0.954691 0.950306
0.230099 0.227721 0.222488
0.238732 0.236268 0.230848
0.615995 0.609796 0.596158
0.826451 0.821472 0.810011
0.863013 0.858753 0.848909
0.236124 0.233687 0.228323
0.242403 0.239903 0.234403
0.614288 0.608106 0.594505
0.823959 0.818935 0.807371
0.860251 0.855934 0.845960
0.688863 0.681943 0.666718
0.709765 0.702638 0.686957
0.876207 0.872229 0.863022
0.896198 0.892675 0.884500
0.891259 0.887620 0.879182
0.882619 0.878784 0.869898
0.886680 0.882936 0.874259
0.917016 0.914009 0.907007
0.949735 0.947655 0.942770
0.949769 0.947690 0.942808
0.937373 0.934923 0.929190
0.938279 0.935855 0.930183
0.943988 0.941733 0.936446
0.954025 0.952080 0.947506
0.957023 0.955175 0.950825
0.430375 0.426014 0.416419
0.428248 0.423908 0.414360
0.714021 0.706852 0.691079
0.865136 0.860920 0.851177
0.884629 0.880839 0.872057
0.431687 0.427313 0.417689
0.424806 0.420500 0.411027
0.704292 0.697218 0.681657
0.861573 0.857283 0.847371
0.881701 0.877845 0.868914
0.596026 0.590025 0.576822
0.590545 0.584598 0.571515
0.796511 0.791003 0.778356
0.890132 0.886468 0.877970
0.896000 0.892473 0.884286
0.921060 0.918159 0.911398
0.921915 0.919037 0.912328
0.932154 0.929556 0.923484
0.950775 0.948727 0.943917
0.954399 0.952466 0.947920
0.935760 0.933264 0.927425
0.936538 0.934064 0.928276
0.942192 0.939883 0.934473
0.953853 0.951903 0.947317
0.958107 0.956295 0.952026
0.653084 0.646518 0.632073
0.644481 0.638000 0.623742
0.741511 0.734338 0.717961
0.899333 0.895885 0.887879
0.907764 0.904523 0.896985
0.652205 0.645647 0.631221
0.639954 0.633518 0.619358
0.727931 0.720624 0.704548
0.896078 0.892553 0.884371
0.905270 0.901967 0.894288
0.709337 0.702214 0.686543
0.699204 0.692181 0.676731
0.764561 0.758538 0.744738
0.904756 0.901441 0.893733
0.911442 0.908293 0.900964
0.923154 0.920309 0.913675
0.923476 0.920640 0.914026
0.926946 0.924204 0.917804
0.951225 0.949191 0.944414
0.954153 0.952212 0.947648
0.944476 0.942235 0.936982
0.944894 0.942666 0.937441
0.947562 0.945415 0.940377
0.955214 0.953307 0.948821
0.958061 0.956247 0.951975
