luts/P4P_10_Mono_size65.cube
# POCKET 4P D-Log2 LUT pack v1.0 - Mono
# Black and white, orange-filter response, warm print tone.
# Input:  DJI Osmo Pocket 4P D-Log2 / D-Gamut2, full range
# Output: Rec.709 / gamma 2.4 display
# Built on DJI's official D-Log2 to Rec.709 colorimetry with a
# scene-linear highlight shoulder so nothing clips at +7 stops.
TITLE "POCKET 4P Mono v1.0"
LUT_3D_SIZE 65
DOMAIN_MIN 0.0 0.0 0.0
DOMAIN_MAX 1.0 1.0 1.0
0.000916 0.000806 0.000567
0.000916 0.000806 0.000567
0.000916 0.000806 0.000567
0.000916 0.000806 0.000567
0.000916 0.000806 0.000567
0.001269 0.001156 0.000909
0.004760 0.004613 0.004289
0.007819 0.007642 0.007251
0.010968 0.010759 0.010300
0.014120 0.013880 0.013352
0.018170 0.017890 0.017274
0.023572 0.023239 0.022505
0.030209 0.029810 0.028932
0.038360 0.037880 0.036825
0.047626 0.047054 0.045797
0.059024 0.058340 0.056834
0.072273 0.071458 0.069663
0.087137 0.086174 0.084056
0.104686 0.103549 0.101049
0.124260 0.122930 0.120003
0.146477 0.144927 0.141516
0.171191 0.169396 0.165447
0.197602 0.195545 0.191021
0.226580 0.224236 0.219081
0.256787 0.254144 0.248331
0.288330 0.285375 0.278875
0.320760 0.317484 0.310277
0.352742 0.349150 0.341246
0.384618 0.380710 0.372112
0.414562 0.410358 0.401108
0.450701 0.446139 0.436101
0.483779 0.478889 0.468131
0.511968 0.506799 0.495427
0.536655 0.531242 0.519332
0.559483 0.553844 0.541437
0.582204 0.576340 0.563438
0.606422 0.600318 0.586889
0.632893 0.626527 0.612521
0.655464 0.648874 0.634377
0.676620 0.669821 0.654863
0.694007 0.687036 0.671699
0.710171 0.703039 0.687350
0.723488 0.716225 0.700246
0.736158 0.728769 0.712514
0.745939 0.739571 0.723078
0.754480 0.748303 0.733207
0.762006 0.755944 0.742056
0.768841 0.762884 0.749232
0.775192 0.769335 0.755907
0.781035 0.775272 0.762053
0.786472 0.780797 0.767776
0.791537 0.785946 0.773112
0.796439 0.790930 0.778280
0.801056 0.795626 0.783152
0.805363 0.800007 0.787699
0.809382 0.804096 0.791946
0.813249 0.808031 0.796034
0.816867 0.811714 0.799861
0.820249 0.815157 0.803441
0.823413 0.818378 0.806792
0.826407 0.821428 0.809965
0.829375 0.824451 0.813112
0.832154 0.827282 0.816060
0.834758 0.829935 0.818824
0.837199 0.832423 0.821417
0.000916 0.000806 0.000567
0.000916 0.000806 0.000567
0.000916 0.000806 0.000567
0.000916 0.000806 0.000567
0.000916 0.000806 0.000567
0.001269 0.001156 0.000909
0.004760 0.004613 0.004289
0.007819 0.007642 0.007251
0.010968 0.010759 0.010300
0.014120 0.013880 0.013352
0.018170 0.017890 0.017274
0.023572 0.023239 0.022505
0.030209 0.029810 0.028932
0.038360 0.037880 0.036825
0.047626 0.047054 0.045797
0.059024 0.058340 0.056834
0.072273 0.071458 0.069663
0.087137 0.086174 0.084056
0.104686 0.103549 0.101049
0.124260 0.122930 0.120003
0.146477 0.144927 0.141516
0.171191 0.169396 0.165447
0.197602 0.195545 0.191021
0.226580 0.224236 0.219081
0.256787 0.254144 0.248331
0.288330 0.285375 0.278875
0.320760 0.317484 0.310277
0.352742 0.349150 0.341246
0.384618 0.380710 0.372112
0.414562 0.410358 0.401108
0.450701 0.446139 0.436101
0.483779 0.478889 0.468131
0.511968 0.506799 0.495427
0.536655 0.531242 0.519332
0.559483 0.553844 0.541437
0.582204 0.576340 0.563438
0.606422 0.600318 0.586889
0.632893 0.626527 0.612521
0.655464 0.648874 0.634377
0.676620 0.669821 0.654863
0.694007 0.687036 0.671699
0.710171 0.703039 0.687350
0.723488 0.716225 0.700246
0.736158 0.728769 0.712514
0.745939 0.739571 0.723078
0.754480 0.748303 0.733207
0.762006 0.755944 0.742056
0.768841 0.762884 0.749232
0.775192 0.769335 0.755907
0.781035 0.775272 0.762053
0.786472 0.780797 0.767776
0.791537 0.785946 0.773112
0.796439 0.790930 0.778280
0.801056 0.795626 0.783152
0.805363 0.800007 0.787699
0.809382 0.804096 0.791946
0.813249 0.808031 0.796034
0.816867 0.811714 0.799861
0.820249 0.815157 0.803441
0.823413 0.818378 0.806792
0.826407 0.821428 0.809965
0.829375 0.824451 0.813112
0.832154 0.827282 0.816060
0.834758 0.829935 0.818824
0.837199 0.832423 0.821417
0.000916 0.000806 0.000567
0.000916 0.000806 0.000567
0.000916 0.000806 0.000567
0.000916 0.000806 0.000567
0.000916 0.000806 0.000567
0.001269 0.001156 0.000909
0.004760 0.004613 0.004289
0.007819 0.007642 0.007251
0.010968 0.010759 0.010300
0.014120 0.013880 0.013352
0.018170 0.017890 0.017274
0.023572 0.023239 0.022505
0.030209 0.029810 0.028932
0.038360 0.037880 0.036825
0.047626 0.047054 0.045797
0.059024 0.058340 0.056834
0.072273 0.071458 0.069663
0.087137 0.086174 0.084056
0.104686 0.103549 0.101049
0.124260 0.122930 0.120003
0.146477 0.144927 0.141516
0.171191 0.169396 0.165447
0.197602 0.195545 0.191021
0.226580 0.224236 0.219081
0.256787 0.254144 0.248331
0.288330 0.285375 0.278875
0.320760 0.317484 0.310277
0.352742 0.349150 0.341246
0.384618 0.380710 0.372112
0.414562 0.410358 0.401108
0.450701 0.446139 0.436101
0.483779 0.478889 0.468131
0.511968 0.506799 0.495427
0.536655 0.531242 0.519332
0.559483 0.553844 0.541437
0.582204 0.576340 0.563438
0.606422 0.600318 0.586889
0.632893 0.626527 0.612521
0.655464 0.648874 0.634377
0.676620 0.669821 0.654863
0.694007 0.687036 0.671699
0.710171 0.703039 0.687350
0.723488 0.716225 0.700246
0.736158 0.728769 0.712514
0.745939 0.739571 0.723078
0.754480 0.748303 0.733207
0.762006 0.755944 0.742056
0.768841 0.762884 0.749232
0.775192 0.769335 0.755907
0.781035 0.775272 0.762053
0.786472 0.780797 0.767776
0.791537 0.785946 0.773112
0.796439 0.790930 0.778280
0.801056 0.795626 0.783152
0.805363 0.800007 0.787699
0.809382 0.804096 0.791946
0.813249 0.808031 0.796034
0.816867 0.811714 0.799861
0.820249 0.815157 0.803441
0.823413 0.818378 0.806792
0.826407 0.821428 0.809965
0.829375 0.824451 0.813112
0.832154 0.827282 0.816060
0.834758 0.829935 0.818824
0.837199 0.832423 0.821417
0.000916 0.000806 0.000567
0.000916 0.000806 0.000567
0.000916 0.000806 0.000567
0.000916 0.000806 0.000567
0.000916 0.000806 0.000567
0.001269 0.001156 0.000909
0.004760 0.004613 0.004289
0.007819 0.007642 0.007251
0.010968 0.010759 0.010300
0.014120 0.013880 0.013352
0.018170 0.017890 0.017274
0.023572 0.023239 0.022505
0.030209 0.029810 0.028932
0.038360 0.037880 0.036825
0.047626 0.047054 0.045797
0.059024 0.058340 0.056834
0.072273 0.071458 0.069663
0.087137 0.086174 0.084056
0.104686 0.103549 0.101049
0.124260 0.122930 0.120003
0.146477 0.144927 0.141516
0.171191 0.169396 0.165447
0.197602 0.195545 0.191021
0.226580 0.224236 0.219081
0.256787 0.254144 0.248331
0.288330 0.285375 0.278875
0.320760 0.317484 0.310277
0.352742 0.349150 0.341246
0.384618 0.380710 0.372112
0.414562 0.410358 0.401108
0.450701 0.446139 0.436101
0.483779 0.478889 0.468131
0.511968 0.506799 0.495427
0.536655 0.531242 0.519332
0.559483 0.553844 0.541437
0.582204 0.576340 0.563438
0.606422 0.600318 0.586889
0.632893 0.626527 0.612521
0.655464 0.648874 0.634377
0.676620 0.669821 0.654863
0.694007 0.687036 0.671699
0.710171 0.703039 0.687350
0.723488 0.716225 0.700246
0.736158 0.728769 0.712514
0.745939 0.739571 0.723078
0.754480 0.748303 0.733207
0.762006 0.755944 0.742056
0.768841 0.762884 0.749232
0.775192 0.769335 0.755907
0.781035 0.775272 0.762053
0.786472 0.780797 0.767776
0.791537 0.785946 0.773112
0.796439 0.790930 0.778280
0.801056 0.795626 0.783152
0.805363 0.800007 0.787699
0.809382 0.804096 0.791946
0.813249 0.808031 0.796034
0.816867 0.811714 0.799861
0.820249 0.815157 0.803441
0.823413 0.818378 0.806792
0.826407 0.821428 0.809965
0.829375 0.824451 0.813112
0.832154 0.827282 0.816060
0.834758 0.829935 0.818824
0.837199 0.832423 0.821417
0.000916 0.000806 0.000567
0.000916 0.000806 0.000567
0.000916 0.000806 0.000567
0.000916 0.000806 0.000567
0.000916 0.000806 0.000567
0.001269 0.001156 0.000909
0.004760 0.004613 0.004289
0.007819 0.007642 0.007251
0.010968 0.010759 0.010300
0.014120 0.013880 0.013352
0.018170 0.017890 0.017274
0.023572 0.023239 0.022505
0.030209 0.029810 0.028932
0.038360 0.037880 0.036825
0.047626 0.047054 0.045797
0.059024 0.058340 0.056834
0.072273 0.071458 0.069663
0.087137 0.086174 0.084056
0.104686 0.103549 0.101049
0.124260 0.122930 0.120003
0.146477 0.144927 0.141516
0.171191 0.169396 0.165447
0.197602 0.195545 0.191021
0.226580 0.224236 0.219081
0.256787 0.254144 0.248331
0.288330 0.285375 0.278875
0.320760 0.317484 0.310277
0.352742 0.349150 0.341246
0.384618 0.380710 0.372112
0.414562 0.410358 0.401108
0.450701 0.446139 0.436101
0.483779 0.478889 0.468131
0.511968 0.506799 0.495427
0.536655 0.531242 0.519332
0.559483 0.553844 0.541437
0.582204 0.576340 0.563438
0.606422 0.600318 0.586889
0.632893 0.626527 0.612521
0.655464 0.648874 0.634377
0.676620 0.669821 0.654863
0.694007 0.687036 0.671699
0.710171 0.703039 0.687350
0.723488 0.716225 0.700246
0.736158 0.728769 0.712514
0.745939 0.739571 0.723078
0.754480 0.748303 0.733207
0.762006 0.755944 0.742056
0.768841 0.762884 0.749232
0.775192 0.769335 0.755907
0.781035 0.775272 0.762053
0.786472 0.780797 0.767776
0.791537 0.785946 0.773112
0.796439 0.790930 0.778280
0.801056 0.795626 0.783152
0.805363 0.800007 0.787699
0.809382 0.804096 0.791946
0.813249 0.808031 0.796034
0.816867 0.811714 0.799861
0.820249 0.815157 0.803441
0.823413 0.818378 0.806792
0.826407 0.821428 0.809965
0.829375 0.824451 0.813112
0.832154 0.827282 0.816060
0.834758 0.829935 0.818824
0.837199 0.832423 0.821417
0.001228 0.001116 0.000869
0.001228 0.001116 0.000869
0.001228 0.001116 0.000869
0.001228 0.001116 0.000869
0.001228 0.001116 0.000869
0.005441 0.005287 0.004949
0.010077 0.009877 0.009437
0.013934 0.013696 0.013173
0.017187 0.016917 0.016323
0.021461 0.021149 0.020461
0.026203 0.025844 0.025053
0.032450 0.032029 0.031102
0.039619 0.039126 0.038043
0.047396 0.046827 0.045574
0.056636 0.055975 0.054521
0.067496 0.066728 0.065038
0.079641 0.078752 0.076797
0.094167 0.093135 0.090864
0.110473 0.109280 0.106653
0.129367 0.127986 0.124948
0.150764 0.149171 0.145667
0.173955 0.172132 0.168123
0.200000 0.197920 0.193344
0.228083 0.225725 0.220537
0.257269 0.254622 0.248798
0.288347 0.285392 0.278891
0.319600 0.316336 0.309154
0.351692 0.348110 0.340230
0.383234 0.379340 0.370772
0.412506 0.408321 0.399116
0.448285 0.443747 0.433762
0.481175 0.476311 0.465610
0.509418 0.504275 0.492958
0.534258 0.528868 0.517011
0.556924 0.551310 0.538959
0.578761 0.572930 0.560104
0.601910 0.595851 0.582520
0.628302 0.621982 0.608076
0.651175 0.644628 0.630224
0.672608 0.665848 0.650978
0.689958 0.683027 0.667778
0.706201 0.699109 0.683506
0.719959 0.712731 0.696828
0.733015 0.725658 0.709471
0.743296 0.736437 0.720013
0.751909 0.745694 0.730122
0.759493 0.753392 0.739318
0.766379 0.760384 0.746647
0.772779 0.766884 0.753370
0.778701 0.772900 0.759597
0.784212 0.778500 0.765397
0.789347 0.783719 0.770804
0.794192 0.788646 0.775911
0.798728 0.793258 0.780695
0.802960 0.797563 0.785162
0.806913 0.801584 0.789336
0.810824 0.805564 0.793470
0.814489 0.809293 0.797345
0.817915 0.812781 0.800970
0.821120 0.816044 0.804364
0.824145 0.819124 0.807568
0.827101 0.822135 0.810701
0.829869 0.824955 0.813637
0.832464 0.827598 0.816389
0.834897 0.830077 0.818972
0.004736 0.004589 0.004265
0.004736 0.004589 0.004265
0.004736 0.004589 0.004265
0.004736 0.004589 0.004265
0.004736 0.004589 0.004265
0.009350 0.009157 0.008734
0.015034 0.014786 0.014238
0.019872 0.019576 0.018923
0.024568 0.024224 0.023469
0.029729 0.029334 0.028467
0.035367 0.034917 0.033927
0.042652 0.042129 0.040980
0.050106 0.049510 0.048198
0.058318 0.057641 0.056150
0.067701 0.066931 0.065236
0.077732 0.076862 0.074949
0.089761 0.088772 0.086597
0.103220 0.102098 0.099629
0.119109 0.117829 0.115015
0.137236 0.135777 0.132568
0.157153 0.155497 0.151854
0.179976 0.178094 0.173953
0.205027 0.202897 0.198212
0.231625 0.229232 0.223966
0.260608 0.257927 0.252031
0.290394 0.287419 0.280873
0.321695 0.318409 0.311182
0.353318 0.349720 0.341804
0.383960 0.380059 0.371475
0.413371 0.409178 0.399954
0.449083 0.444537 0.434535
0.481743 0.476873 0.466159
0.509854 0.504706 0.493380
0.534449 0.529057 0.517196
0.556626 0.551015 0.538670
0.578659 0.572830 0.560006
0.601858 0.595799 0.582469
0.628044 0.621726 0.607826
0.650549 0.644008 0.629618
0.671678 0.664928 0.650077
0.689261 0.682336 0.667103
0.705623 0.698536 0.682946
0.719123 0.711903 0.696019
0.731961 0.724614 0.708450
0.742466 0.735460 0.719057
0.751160 0.744934 0.729229
0.758799 0.752687 0.738463
0.765726 0.759721 0.745961
0.772164 0.766259 0.752724
0.777979 0.772166 0.758838
0.783389 0.777664 0.764531
0.788432 0.782789 0.769840
0.793306 0.787744 0.774976
0.797897 0.792413 0.779818
0.802181 0.796770 0.784339
0.806181 0.800840 0.788563
0.810086 0.804813 0.792690
0.813743 0.808534 0.796556
0.817162 0.812015 0.800174
0.820361 0.815271 0.803560
0.823372 0.818337 0.806749
0.826272 0.821290 0.809822
0.828989 0.824058 0.812703
0.831536 0.826652 0.815405
0.833925 0.829087 0.817940
0.008361 0.008178 0.007776
0.008361 0.008178 0.007776
0.008361 0.008178 0.007776
0.008361 0.008178 0.007776
0.008361 0.008178 0.007776
0.013217 0.012986 0.012478
0.018984 0.018696 0.018063
0.025125 0.024777 0.024009
0.030243 0.029844 0.028965
0.037176 0.036707 0.035678
0.044004 0.043468 0.042289
0.051805 0.051192 0.049844
0.060843 0.060140 0.058595
0.069709 0.068919 0.067181
0.078918 0.078036 0.076097
0.089554 0.088567 0.086396
0.101032 0.099931 0.097511
0.113850 0.112623 0.109923
0.128925 0.127548 0.124520
0.145652 0.144110 0.140718
0.165134 0.163399 0.159582
0.186785 0.184836 0.180547
0.210588 0.208403 0.203596
0.236835 0.234390 0.229011
0.264375 0.261657 0.255679
0.293988 0.290978 0.284354
0.324575 0.321261 0.313971
0.355039 0.351424 0.343471
0.385766 0.381846 0.373224
0.414349 0.410146 0.400901
0.450133 0.445577 0.435552
0.482833 0.477952 0.467215
0.510523 0.505368 0.494028
0.534725 0.529330 0.517463
0.557131 0.551515 0.539159
0.578904 0.573072 0.560242
0.601900 0.595841 0.582510
0.627910 0.621593 0.607696
0.650637 0.644095 0.629703
0.671953 0.665200 0.650344
0.689203 0.682279 0.667047
0.705341 0.698257 0.682673
0.718969 0.711751 0.695870
0.731912 0.724566 0.708403
0.742372 0.735349 0.718949
0.751020 0.744791 0.729062
0.758545 0.752430 0.738153
0.765343 0.759332 0.745559
0.771664 0.765751 0.752198
0.777555 0.771735 0.758391
0.783040 0.777309 0.764163
0.788151 0.782504 0.769544
0.793017 0.787450 0.774672
0.797582 0.792092 0.779486
0.801842 0.796425 0.783981
0.805821 0.800473 0.788182
0.809669 0.804388 0.792249
0.813272 0.808055 0.796058
0.816642 0.811485 0.799623
0.819796 0.814696 0.802961
0.822779 0.817733 0.806120
0.825723 0.820731 0.809240
0.828481 0.823540 0.812164
0.831066 0.826174 0.814906
0.833490 0.828644 0.817479
0.012050 0.011831 0.011349
0.012050 0.011831 0.011349
0.012050 0.011831 0.011349
0.012050 0.011831 0.011349
0.012050 0.011831 0.011349
0.016769 0.016503 0.015917
0.022984 0.022657 0.021936
0.029586 0.029193 0.028328
0.036134 0.035677 0.034670
0.043458 0.042927 0.041761
0.052417 0.051798 0.050436
0.061223 0.060517 0.058963
0.070440 0.069643 0.067888
0.080181 0.079287 0.077320
0.090414 0.089419 0.087229
0.100826 0.099728 0.097312
0.112654 0.111439 0.108765
0.125567 0.124223 0.121268
0.139427 0.137947 0.134690
0.155785 0.154142 0.150529
0.173658 0.171839 0.167836
0.194288 0.192264 0.187812
0.217417 0.215165 0.210209
0.242159 0.239661 0.234167
0.269344 0.266577 0.260490
0.298118 0.295067 0.288353
0.327411 0.324069 0.316717
0.357855 0.354212 0.346197
0.387558 0.383621 0.374959
0.416098 0.411878 0.402594
0.452331 0.447752 0.437680
0.484266 0.479371 0.468603
0.511817 0.506650 0.495281
0.536099 0.530691 0.518794
0.558310 0.552682 0.540301
0.579869 0.574028 0.561177
0.602896 0.596826 0.583474
0.628909 0.622583 0.608664
0.651204 0.644656 0.630252
0.672122 0.665367 0.650507
0.689515 0.682588 0.667349
0.705746 0.698659 0.683066
0.719315 0.712093 0.696205
0.732183 0.724834 0.708665
0.742420 0.735406 0.719005
0.750898 0.744668 0.728918
0.758448 0.752331 0.738033
0.765337 0.759326 0.745553
0.771741 0.765829 0.752279
0.777530 0.771710 0.758365
0.782917 0.777184 0.764034
0.787939 0.782288 0.769321
0.792791 0.787220 0.774433
0.797361 0.791867 0.779252
0.801625 0.796205 0.783753
0.805609 0.800257 0.787958
0.809493 0.804209 0.792063
0.813131 0.807911 0.795909
0.816533 0.811374 0.799507
0.819716 0.814614 0.802877
0.822713 0.817666 0.806051
0.825604 0.820610 0.809114
0.828314 0.823370 0.811986
0.830854 0.825957 0.814681
0.833236 0.828385 0.817209
0.015772 0.015516 0.014953
0.015772 0.015516 0.014953
0.015772 0.015516 0.014953
0.015772 0.015516 0.014953
0.015772 0.015516 0.014953
0.021107 0.020798 0.020118
0.027646 0.027272 0.026450
0.034892 0.034446 0.033466
0.042043 0.041526 0.040391
0.050108 0.049512 0.048200
0.059562 0.058872 0.057355
0.071040 0.070237 0.068470
0.081895 0.080984 0.078980
0.091999 0.090988 0.088764
0.102277 0.101164 0.098716
0.113499 0.112275 0.109583
0.125205 0.123866 0.120918
0.137332 0.135872 0.132661
0.151290 0.149692 0.146177
0.167010 0.165256 0.161398
0.184108 0.182185 0.177955
0.203665 0.201548 0.196892
0.224888 0.222562 0.217443
0.248943 0.246378 0.240736
0.274975 0.272152 0.265942
0.302221 0.299129 0.292326
0.331270 0.327890 0.320454
0.360461 0.356792 0.348721
0.390163 0.386200 0.377482
0.418290 0.414049 0.404717
0.454314 0.449716 0.439600
0.485866 0.480955 0.470152
0.512970 0.507791 0.496397
0.536786 0.531372 0.519459
0.558794 0.553162 0.540770
0.580641 0.574792 0.561924
0.603810 0.597732 0.584360
0.629448 0.623116 0.609185
0.651938 0.645383 0.630962
0.673061 0.666297 0.651416
0.690246 0.683312 0.668057
0.706269 0.699176 0.683572
0.719628 0.712403 0.696508
0.732324 0.724973 0.708801
0.742634 0.735657 0.719251
0.751194 0.744968 0.729270
0.758673 0.752560 0.738310
0.765441 0.759431 0.745662
0.771734 0.765822 0.752272
0.777568 0.771749 0.758406
0.783001 0.777269 0.764121
0.788063 0.782415 0.769452
0.792910 0.787342 0.774560
0.797465 0.791973 0.779362
0.801715 0.796296 0.783847
0.805685 0.800334 0.788039
0.809500 0.804217 0.792070
0.813072 0.807851 0.795846
0.816413 0.811252 0.799381
0.819540 0.814435 0.802690
0.822500 0.817449 0.805825
0.825428 0.820431 0.808928
0.828172 0.823226 0.811837
0.830744 0.825846 0.814565
0.833157 0.828304 0.817125
0.020710 0.020405 0.019734
0.020710 0.020405 0.019734
0.020710 0.020405 0.019734
0.020710 0.020405 0.019734
0.020710 0.020405 0.019734
0.026379 0.026018 0.025223
0.033229 0.032800 0.031856
0.041357 0.040848 0.039727
0.049161 0.048574 0.047283
0.057847 0.057174 0.055694
0.068338 0.067561 0.065852
0.080828 0.079928 0.077947
0.094095 0.093064 0.090794
0.106112 0.104962 0.102430
0.117383 0.116121 0.113344
0.129064 0.127686 0.124655
0.140628 0.139136 0.135852
0.152843 0.151230 0.147681
0.165509 0.163770 0.159945
0.179862 0.177981 0.173843
0.196057 0.194016 0.189525
0.214043 0.211824 0.206942
0.234547 0.232125 0.226796
0.257040 0.254395 0.248576
0.281566 0.278678 0.272325
0.308204 0.305053 0.298119
0.335632 0.332209 0.324678
0.364522 0.360813 0.352652
0.393487 0.389491 0.380700
0.421595 0.417321 0.407918
0.457535 0.452905 0.442719
0.487979 0.483048 0.472199
0.514538 0.509343 0.497916
0.538297 0.532867 0.520922
0.560374 0.554726 0.542300
0.581747 0.575887 0.562995
0.604951 0.598862 0.585464
0.630981 0.624634 0.610670
0.653362 0.646793 0.632341
0.674295 0.667519 0.652612
0.691186 0.684243 0.668967
0.706989 0.699889 0.684270
0.720374 0.713142 0.697231
0.733066 0.725708 0.709520
0.743050 0.736146 0.719729
0.751400 0.745177 0.729515
0.758854 0.752743 0.738531
0.765662 0.759656 0.745894
0.771993 0.766085 0.752544
0.777822 0.772007 0.758673
0.783249 0.777522 0.764383
0.788307 0.782662 0.769708
0.793081 0.787516 0.774740
0.797552 0.792062 0.779454
0.801725 0.796307 0.783858
0.805624 0.800273 0.787975
0.809489 0.804205 0.792059
0.813112 0.807892 0.795889
0.816500 0.811340 0.799473
0.819670 0.814568 0.802828
0.822655 0.817607 0.805990
0.825536 0.820540 0.809042
0.828235 0.823289 0.811903
0.830765 0.825867 0.814587
0.833139 0.828286 0.817106
0.027110 0.026742 0.025931
0.027110 0.026742 0.025931
0.027110 0.026742 0.025931
0.027110 0.026742 0.025931
0.027110 0.026742 0.025931
0.033084 0.032657 0.031716
0.040453 0.039953 0.038852
0.048427 0.047847 0.046573
0.057172 0.056506 0.055041
0.065977 0.065224 0.063567
0.076897 0.076035 0.074140
0.091150 0.090147 0.087942
0.104932 0.103793 0.101287
0.119393 0.118111 0.115290
0.133016 0.131599 0.128481
0.145992 0.144447 0.141047
0.158519 0.156849 0.153176
0.171147 0.169353 0.165405
0.184688 0.182759 0.178516
0.198584 0.196517 0.191972
0.212453 0.210250 0.205402
0.228772 0.226407 0.221204
0.247233 0.244685 0.239080
0.267591 0.264841 0.258792
0.290608 0.287631 0.281081
0.315104 0.311884 0.304800
0.341772 0.338288 0.330624
0.369476 0.365718 0.357450
0.396908 0.392878 0.384013
0.426320 0.421999 0.412493
0.460547 0.455887 0.445635
0.490435 0.485479 0.474577
0.516604 0.511390 0.499917
0.539916 0.534470 0.522490
0.561541 0.555882 0.543430
0.583265 0.577391 0.564466
0.606859 0.600750 0.587311
0.632630 0.626266 0.612266
0.654651 0.648069 0.633589
0.675283 0.668497 0.653568
0.692308 0.685354 0.670054
0.708133 0.701021 0.685377
0.721177 0.713936 0.698007
0.733579 0.726216 0.710017
0.743561 0.736750 0.720319
0.751971 0.745756 0.730195
0.759390 0.753288 0.739191
0.766134 0.760135 0.746389
0.772405 0.766504 0.752977
0.778138 0.772328 0.759005
0.783476 0.777752 0.764622
0.788452 0.782810 0.769861
0.793258 0.787695 0.774926
0.797784 0.792298 0.779699
0.802010 0.796596 0.784158
0.805956 0.800610 0.788325
0.809774 0.804495 0.792360
0.813349 0.808134 0.796140
0.816693 0.811537 0.799677
0.819823 0.814724 0.802990
0.822780 0.817734 0.806122
0.825680 0.820688 0.809195
0.828398 0.823455 0.812076
0.830945 0.826050 0.814778
0.833335 0.828485 0.817313
0.035260 0.034811 0.033823
0.035260 0.034811 0.033823
0.035260 0.034811 0.033823
0.035260 0.034811 0.033823
0.035260 0.034811 0.033823
0.041692 0.041179 0.040051
0.048468 0.047888 0.046612
0.056571 0.055911 0.054458
0.065303 0.064557 0.062914
0.074747 0.073907 0.072059
0.085986 0.085034 0.082941
0.100297 0.099204 0.096799
0.116143 0.114893 0.112143
0.131732 0.130328 0.127239
0.147727 0.146165 0.142727
0.163296 0.161579 0.157802
0.177198 0.175343 0.171264
0.191211 0.189218 0.184833
0.205478 0.203344 0.198648
0.219320 0.217048 0.212051
0.234119 0.231701 0.226381
0.249231 0.246663 0.241014
0.264340 0.261623 0.255645
0.282346 0.279451 0.273081
0.302460 0.299366 0.292557
0.325560 0.322237 0.314925
0.350248 0.346680 0.338831
0.375753 0.371933 0.363528
0.402423 0.398339 0.389353
0.432409 0.428027 0.418389
0.465507 0.460798 0.450438
0.494353 0.489358 0.478370
0.519452 0.514209 0.502674
0.542045 0.536578 0.524551
0.563627 0.557946 0.545449
0.585066 0.579173 0.566209
0.608894 0.602766 0.589282
0.634605 0.628222 0.614179
0.656648 0.650047 0.635524
0.677233 0.670428 0.655456
0.693816 0.686847 0.671514
0.709317 0.702194 0.686523
0.722427 0.715175 0.699218
0.734875 0.727499 0.711272
0.744553 0.737924 0.721467
0.752843 0.746642 0.731239
0.760111 0.754020 0.740068
0.766700 0.760710 0.746984
0.772829 0.766935 0.753423
0.778595 0.772793 0.759486
0.783967 0.778251 0.765139
0.788974 0.783340 0.770411
0.793711 0.788156 0.775404
0.798149 0.792669 0.780084
0.802293 0.796884 0.784457
0.806164 0.800822 0.788545
0.810001 0.804726 0.792600
0.813598 0.808387 0.796403
0.816963 0.811811 0.799962
0.820111 0.815016 0.803295
0.823084 0.818043 0.806443
0.825994 0.821007 0.809527
0.828720 0.823784 0.812418
0.831276 0.826388 0.815129
0.833673 0.828830 0.817673
0.044962 0.044417 0.043217
0.044962 0.044417 0.043217
0.044962 0.044417 0.043217
0.044962 0.044417 0.043217
0.044962 0.044417 0.043217
0.050992 0.050387 0.049056
0.057735 0.057063 0.055586
0.065432 0.064684 0.063039
0.073805 0.072975 0.071147
0.083406 0.082480 0.080443
0.094881 0.093842 0.091555
0.109947 0.108759 0.106144
0.126407 0.125056 0.122082
0.144064 0.142538 0.139180
0.161966 0.160263 0.156515
0.178910 0.177039 0.172922
0.195755 0.193717 0.189233
0.211412 0.209219 0.204394
0.226491 0.224149 0.218995
0.242099 0.239602 0.234108
0.257061 0.254416 0.248596
0.272298 0.269502 0.263351
0.287784 0.284835 0.278346
0.302722 0.299625 0.292811
0.319212 0.315952 0.308778
0.338882 0.335427 0.327825
0.360565 0.356895 0.348821
0.384384 0.380478 0.371885
