luts/P4P_02_FlatBase_size33.cube
# POCKET 4P D-Log2 LUT pack v1.0 - FlatBase
# Low-contrast base to grade on top of. Not a finished look.
# Input:  DJI Osmo Pocket 4P D-Log2 / D-Gamut2, full range
# Output: Rec.709 / gamma 2.4 display
# Built on DJI's official D-Log2 to Rec.709 colorimetry with a
# scene-linear highlight shoulder so nothing clips at +7 stops.
TITLE "POCKET 4P FlatBase v1.0"
LUT_3D_SIZE 33
DOMAIN_MIN 0.0 0.0 0.0
DOMAIN_MAX 1.0 1.0 1.0
0.155348 0.155343 0.155354
0.155348 0.155343 0.155354
0.155348 0.155343 0.155354
0.187093 0.139896 0.146093
0.208795 0.135756 0.151255
0.226526 0.129945 0.157929
0.247658 0.122798 0.166890
0.273004 0.115049 0.177464
0.304841 0.110037 0.189362
0.341904 0.108531 0.201074
0.384294 0.114249 0.212777
0.430309 0.129824 0.225247
0.477461 0.150623 0.238298
0.522689 0.167345 0.250969
0.563514 0.172125 0.262067
0.602354 0.163158 0.270668
0.635929 0.163893 0.279497
0.660257 0.203938 0.293314
0.675689 0.266333 0.314082
0.683816 0.322080 0.336380
0.687905 0.362679 0.356548
0.690498 0.390413 0.373424
0.692409 0.410656 0.387846
0.693935 0.426707 0.400538
0.695208 0.440018 0.411792
0.696293 0.451563 0.422158
0.697276 0.461939 0.431648
0.698183 0.471368 0.440502
0.699003 0.479842 0.448601
0.699748 0.487482 0.456045
0.700416 0.494328 0.462735
0.701047 0.500793 0.469268
0.701610 0.506569 0.475102
0.155348 0.155343 0.155354
0.155348 0.155343 0.155354
0.155348 0.155343 0.155354
0.187093 0.139896 0.146093
0.208795 0.135756 0.151255
0.226526 0.129945 0.157929
0.247658 0.122798 0.166890
0.273004 0.115049 0.177464
0.304841 0.110037 0.189362
0.341904 0.108531 0.201074
0.384294 0.114249 0.212777
0.430309 0.129824 0.225247
0.477461 0.150623 0.238298
0.522689 0.167345 0.250969
0.563514 0.172125 0.262067
0.602354 0.163158 0.270668
0.635929 0.163893 0.279497
0.660257 0.203938 0.293314
0.675689 0.266333 0.314082
0.683816 0.322080 0.336380
0.687905 0.362679 0.356548
0.690498 0.390413 0.373424
0.692409 0.410656 0.387846
0.693935 0.426707 0.400538
0.695208 0.440018 0.411792
0.696293 0.451563 0.422158
0.697276 0.461939 0.431648
0.698183 0.471368 0.440502
0.699003 0.479842 0.448601
0.699748 0.487482 0.456045
0.700416 0.494328 0.462735
0.701047 0.500793 0.469268
0.701610 0.506569 0.475102
0.155348 0.155343 0.155354
0.155348 0.155343 0.155354
0.155348 0.155343 0.155354
0.187093 0.139896 0.146093
0.208795 0.135756 0.151255
0.226526 0.129945 0.157929
0.247658 0.122798 0.166890
0.273004 0.115049 0.177464
0.304841 0.110037 0.189362
0.341904 0.108531 0.201074
0.384294 0.114249 0.212777
0.430309 0.129824 0.225247
0.477461 0.150623 0.238298
0.522689 0.167345 0.250969
0.563514 0.172125 0.262067
0.602354 0.163158 0.270668
0.635929 0.163893 0.279497
0.660257 0.203938 0.293314
0.675689 0.266333 0.314082
0.683816 0.322080 0.336380
0.687905 0.362679 0.356548
0.690498 0.390413 0.373424
0.692409 0.410656 0.387846
0.693935 0.426707 0.400538
0.695208 0.440018 0.411792
0.696293 0.451563 0.422158
0.697276 0.461939 0.431648
0.698183 0.471368 0.440502
0.699003 0.479842 0.448601
0.699748 0.487482 0.456045
0.700416 0.494328 0.462735
0.701047 0.500793 0.469268
0.701610 0.506569 0.475102
0.135690 0.188161 0.159501
0.135690 0.188161 0.159501
0.135690 0.188161 0.159501
0.194646 0.197813 0.146715
0.223952 0.199886 0.125959
0.247408 0.196435 0.134115
0.272233 0.188379 0.147861
0.298029 0.179993 0.160116
0.326536 0.167272 0.174320
0.359294 0.152687 0.188713
0.396221 0.138956 0.203165
0.437582 0.137282 0.217543
0.480902 0.149701 0.232234
0.523762 0.165551 0.246524
0.563430 0.172186 0.258950
0.601712 0.165688 0.268476
0.635060 0.166800 0.277621
0.659023 0.202405 0.290982
0.674589 0.261664 0.311193
0.683154 0.316962 0.333282
0.687471 0.358057 0.353467
0.690134 0.386573 0.370523
0.692085 0.407260 0.385026
0.693631 0.423537 0.397735
0.694916 0.436985 0.408991
0.695992 0.448420 0.419183
0.696966 0.458689 0.428509
0.697859 0.468012 0.437209
0.698674 0.476451 0.445224
0.699419 0.484120 0.452648
0.700085 0.490972 0.459300
0.700698 0.497237 0.465587
0.701245 0.502835 0.471203
0.126805 0.213390 0.173599
0.126805 0.213390 0.173599
0.126805 0.213390 0.173599
0.189459 0.225764 0.151289
0.226436 0.231460 0.149594
0.255529 0.235905 0.110112
0.282826 0.236330 0.097464
0.313293 0.230081 0.121262
0.344119 0.219220 0.146233
0.376246 0.204461 0.167665
0.411252 0.184198 0.187769
0.448910 0.166266 0.207394
0.488244 0.159895 0.224761
0.528134 0.166168 0.241492
0.566012 0.170946 0.255867
0.603785 0.165430 0.266526
0.636303 0.168387 0.276363
0.659902 0.204991 0.290343
0.674872 0.263159 0.310719
0.683244 0.317910 0.332957
0.687502 0.358447 0.353121
0.690155 0.386839 0.370287
0.692084 0.407287 0.384714
0.693601 0.423241 0.397236
0.694877 0.436599 0.408453
0.695950 0.447967 0.418606
0.696919 0.458178 0.427894
0.697805 0.467449 0.436552
0.698613 0.475836 0.444524
0.699353 0.483451 0.451903
0.700015 0.490257 0.458515
0.700625 0.496491 0.464771
0.701169 0.502062 0.470358
0.116098 0.233639 0.187266
0.116098 0.233639 0.187266
0.116098 0.233639 0.187266
0.182819 0.248749 0.164333
0.222612 0.259071 0.146180
0.256635 0.264480 0.141087
0.291206 0.269567 0.101191
0.321726 0.270298 0.091625
0.354115 0.263809 0.106531
0.388282 0.250366 0.131579
0.424308 0.230259 0.161657
0.460990 0.205408 0.191273
0.497588 0.183754 0.214905
0.534266 0.174102 0.234694
0.570104 0.171334 0.251811
0.607001 0.163943 0.263930
0.637938 0.168321 0.274720
0.660991 0.207014 0.289635
0.675431 0.265607 0.310645
0.683535 0.320488 0.333392
0.687666 0.360265 0.353539
0.690250 0.387898 0.370523
0.692148 0.407991 0.384878
0.693641 0.423708 0.397335
0.694900 0.436908 0.408497
0.695981 0.448352 0.418766
0.696947 0.458518 0.428048
0.697816 0.467584 0.436542
0.698614 0.475856 0.444424
0.699351 0.483438 0.451779
0.700010 0.490215 0.458368
0.700619 0.496420 0.464603
0.701162 0.501965 0.470171
0.105700 0.257519 0.203124
0.105700 0.257519 0.203124
0.105700 0.257519 0.203124
0.169852 0.273990 0.186130
0.216324 0.286429 0.160462
0.251755 0.295714 0.143533
0.292384 0.302072 0.126522
0.330114 0.306708 0.102471
0.364974 0.306234 0.101955
0.399643 0.298827 0.107887
0.436029 0.282334 0.127780
0.473040 0.256794 0.162162
0.509431 0.225192 0.196293
0.543976 0.198345 0.224193
0.576274 0.179030 0.244701
0.611988 0.163430 0.259336
0.640831 0.168035 0.272169
0.662673 0.209849 0.288780
0.676404 0.269898 0.311113
0.683978 0.324270 0.334319
0.687917 0.363029 0.354467
0.690430 0.389853 0.371318
0.692294 0.409573 0.385664
0.693764 0.425041 0.398087
0.694980 0.437820 0.409004
0.696050 0.449145 0.419239
0.697008 0.459223 0.428494
0.697872 0.468229 0.436965
0.698666 0.476446 0.444825
0.699400 0.483975 0.452159
0.700058 0.490715 0.458738
0.700673 0.496990 0.465057
0.701223 0.502597 0.470700
0.098603 0.285778 0.220122
0.098603 0.285778 0.220122
0.098603 0.285778 0.220122
0.151428 0.301892 0.208743
0.203648 0.314385 0.182625
0.243004 0.325427 0.158344
0.286458 0.334910 0.138207
0.331641 0.341472 0.121088
0.371682 0.345590 0.109306
0.409881 0.343776 0.112158
0.447593 0.333129 0.119899
0.485339 0.312803 0.140894
0.522159 0.281784 0.173467
0.556029 0.239873 0.205645
0.585964 0.202120 0.231979
0.620069 0.170147 0.251052
0.645573 0.171224 0.267840
0.665390 0.215918 0.287648
0.677867 0.277212 0.312182
0.684611 0.330077 0.335972
0.688314 0.367360 0.356194
0.690713 0.392923 0.372793
0.692501 0.411800 0.386876
0.693929 0.426846 0.399169
0.695111 0.439368 0.410006
0.696175 0.450550 0.420194
0.697132 0.460575 0.429472
0.698004 0.469640 0.438058
0.698794 0.477797 0.445907
0.699513 0.485160 0.453116
0.700157 0.491760 0.459594
0.700769 0.497995 0.465900
0.701316 0.503567 0.471531
0.092758 0.318997 0.239506
0.092758 0.318997 0.239506
0.092758 0.318997 0.239506
0.130046 0.332522 0.231086
0.181399 0.344401 0.213215
0.225577 0.355413 0.189129
0.272413 0.366840 0.157827
0.322568 0.376601 0.134489
0.371914 0.382416 0.123264
0.413442 0.385723 0.124389
0.454328 0.381578 0.133018
0.494624 0.367735 0.144583
0.534443 0.341752 0.162252
0.568688 0.302681 0.187196
0.601800 0.247982 0.213261
0.632480 0.199330 0.236306
0.653335 0.187561 0.258963
0.669830 0.229338 0.285063
0.680157 0.289767 0.313501
0.685587 0.338915 0.338295
0.688854 0.373258 0.358501
0.691103 0.397144 0.374872
0.692794 0.414944 0.388660
0.694173 0.429486 0.400845
0.695333 0.441863 0.411735
0.696361 0.452676 0.421706
0.697298 0.462454 0.430854
0.698166 0.471416 0.439415
0.698952 0.479487 0.447242
0.699666 0.486780 0.454432
0.700306 0.493320 0.460894
0.700914 0.499510 0.467192
0.701457 0.505042 0.472818
0.102928 0.356095 0.260478
0.102928 0.356095 0.260478
0.102928 0.356095 0.260478
0.110855 0.366039 0.254558
0.150255 0.376092 0.241297
0.197418 0.386134 0.222581
0.247491 0.398232 0.195029
0.303754 0.409488 0.159228
0.360516 0.417899 0.137111
0.411674 0.423090 0.135620
0.455422 0.424627 0.145581
0.498499 0.418518 0.160203
0.540259 0.401416 0.172587
0.580851 0.366916 0.182204
0.618971 0.313196 0.193970
0.646893 0.250443 0.215420
0.663689 0.226362 0.246451
0.675911 0.258676 0.283086
0.682761 0.310860 0.316237
0.686847 0.352144 0.341953
0.689593 0.381321 0.361697
0.691612 0.402636 0.377666
0.693169 0.419155 0.391157
0.694459 0.432900 0.403064
0.695591 0.444847 0.413808
0.696610 0.455458 0.423726
0.697538 0.465076 0.432835
0.698398 0.473918 0.441370
0.699183 0.481952 0.449243
0.699903 0.489283 0.456544
0.700548 0.495840 0.463087
0.701141 0.501873 0.469283
0.701671 0.507265 0.474818
0.111377 0.395577 0.282362
0.111377 0.395577 0.282362
0.111377 0.395577 0.282362
0.100018 0.402521 0.278416
0.118536 0.410109 0.269881
0.161219 0.419037 0.256305
0.213751 0.429701 0.234775
0.270118 0.441329 0.201614
0.336014 0.451700 0.165029
0.397718 0.458966 0.148143
0.451323 0.462892 0.154964
0.496331 0.462502 0.169974
0.540287 0.453580 0.184621
0.582933 0.432029 0.190710
0.629487 0.389599 0.192740
0.661324 0.331572 0.206979
0.675524 0.301176 0.244667
0.682757 0.312887 0.288976
0.685914 0.343417 0.323369
0.688577 0.371143 0.348268
0.690647 0.392793 0.366681
0.692305 0.410199 0.381609
0.693670 0.424796 0.394486
0.694858 0.437496 0.406014
0.695955 0.448916 0.416604
0.696987 0.459511 0.426726
0.697910 0.468976 0.435867
0.698740 0.477472 0.444213
0.699504 0.485273 0.451979
0.700213 0.492469 0.459248
0.700847 0.498911 0.465766
0.701433 0.504874 0.471964
0.701958 0.510206 0.477501
0.118156 0.436399 0.304435
0.118156 0.436399 0.304435
0.118156 0.436399 0.304435
0.104020 0.441090 0.302994
0.096471 0.446097 0.298225
0.119055 0.452542 0.289621
0.168109 0.461568 0.273766
0.228501 0.472472 0.247195
0.294889 0.483559 0.212526
0.367655 0.493329 0.176196
0.433503 0.498821 0.162679
0.488279 0.500764 0.172840
0.534727 0.497966 0.188867
0.579481 0.485885 0.198344
0.628152 0.459421 0.198831
0.667763 0.419198 0.214019
0.684493 0.385504 0.260426
0.688579 0.375844 0.306800
0.689532 0.383103 0.337172
0.690747 0.394788 0.358129
0.692026 0.407791 0.374178
0.693237 0.420535 0.387545
0.694385 0.432752 0.399587
0.695478 0.444199 0.410683
0.696504 0.454674 0.420833
0.697488 0.464686 0.430662
0.698379 0.473753 0.439638
0.699194 0.482058 0.447968
0.699945 0.489701 0.455725
0.700640 0.496769 0.462990
0.701263 0.503103 0.469508
0.701842 0.509018 0.475737
0.702361 0.514307 0.481301
0.125896 0.477386 0.327131
0.125896 0.477386 0.327131
0.125896 0.477386 0.327131
0.115831 0.480149 0.326569
0.103055 0.483383 0.324391
0.096311 0.487429 0.320024
0.123311 0.494136 0.311032
0.179289 0.503441 0.292884
0.241278 0.514271 0.262024
0.315621 0.524759 0.223841
0.396552 0.532837 0.183628
0.466168 0.536542 0.171835
0.523043 0.536533 0.184152
0.571256 0.530991 0.197984
0.616823 0.515311 0.203566
0.665900 0.488495 0.218821
0.688749 0.460273 0.266622
0.694317 0.439851 0.321562
0.693728 0.428951 0.354982
0.693629 0.425972 0.373329
0.694024 0.429283 0.385648
0.694670 0.435938 0.396533
0.695469 0.444391 0.406928
0.696356 0.453564 0.417043
0.697265 0.462725 0.426700
0.698159 0.471726 0.436025
0.698988 0.480096 0.444694
0.699775 0.488060 0.452952
0.700493 0.495333 0.460540
0.701151 0.502001 0.467546
0.701742 0.507996 0.473849
0.702306 0.513759 0.480031
0.702810 0.518913 0.485554
0.136179 0.517105 0.349837
0.136179 0.517105 0.349837
0.136179 0.517105 0.349837
0.129933 0.518669 0.349803
0.120510 0.520832 0.349189
0.108012 0.523475 0.347364
0.095037 0.527757 0.342956
0.118005 0.534432 0.333237
0.178527 0.543511 0.312615
0.249621 0.553817 0.275536
0.332890 0.563680 0.230367
0.422712 0.570373 0.185620
0.496986 0.572483 0.175434
0.555979 0.570092 0.187594
0.605138 0.560662 0.197486
0.654938 0.544059 0.212541
0.687154 0.521825 0.258812
0.699294 0.501084 0.322260
0.698715 0.484242 0.368256
0.697736 0.470843 0.390790
0.697128 0.462766 0.402430
0.697030 0.461024 0.411169
0.697292 0.463646 0.419172
0.697774 0.468631 0.427136
0.698398 0.474919 0.435357
0.699141 0.482298 0.443921
0.699847 0.489322 0.451913
0.700536 0.496205 0.459553
0.701190 0.502775 0.466802
0.701813 0.509084 0.473722
0.702373 0.514753 0.479935
0.702905 0.520147 0.485880
0.703382 0.524975 0.491195
0.136581 0.554715 0.371644
0.136581 0.554715 0.371644
0.136581 0.554715 0.371644
0.132419 0.555586 0.371707
0.125786 0.556974 0.371705
0.115191 0.558981 0.371462
0.099771 0.561604 0.369896
0.093901 0.565877 0.365493
0.112091 0.572164 0.354045
0.176120 0.581023 0.329848
0.256768 0.591177 0.286468
0.350673 0.600423 0.234704
0.447919 0.605673 0.190360
0.525319 0.605480 0.179063
0.585676 0.600283 0.182745
0.636037 0.588938 0.196725
0.677395 0.573830 0.239341
0.699002 0.555587 0.300976
0.703351 0.538666 0.367334
0.702468 0.523090 0.405487
0.701458 0.509816 0.423406
0.700670 0.500010 0.431888
0.700205 0.494340 0.437319
0.700071 0.492640 0.442640
0.700202 0.494010 0.448645
0.700660 0.498457 0.455857
0.701137 0.503115 0.462654
0.701655 0.508218 0.469222
0.702181 0.513431 0.475657
0.702717 0.518766 0.481995
0.703202 0.523596 0.487710
0.703693 0.528522 0.493402
0.704133 0.532934 0.498491
0.129198 0.587617 0.388255
0.129198 0.587617 0.388255
0.129198 0.587617 0.388255
0.126264 0.588164 0.388508
0.121252 0.589180 0.388828
0.112853 0.590348 0.388976
0.098801 0.592150 0.388649
0.096513 0.595320 0.387478
0.096868 0.599811 0.382855
0.112351 0.605815 0.370091
0.188901 0.615397 0.341840
0.273206 0.628124 0.294160
0.375606 0.637972 0.238725
0.474570 0.641787 0.190935
0.552870 0.637498 0.165970
0.609317 0.626372 0.164708
0.659749 0.613902 0.209441
0.690826 0.600138 0.266672
0.703823 0.585354 0.339526
0.706467 0.569991 0.400615
0.705647 0.556182 0.435283
0.704756 0.544344 0.452369
0.703990 0.534828 0.460448
0.703413 0.527851 0.464910
0.703024 0.523187 0.468151
0.702939 0.522277 0.472228
0.702994 0.522746 0.476683
0.703235 0.525007 0.481832
0.703550 0.528021 0.487137
0.703937 0.531747 0.492606
0.704294 0.535185 0.497571
0.704712 0.539306 0.502809
0.705088 0.543002 0.507497
0.116332 0.617474 0.397968
0.116332 0.617474 0.397968
0.116332 0.617474 0.397968
0.114628 0.617791 0.398342
0.111317 0.618750 0.398743
0.104340 0.620040 0.399098
0.101488 0.622401 0.399771
0.099290 0.625557 0.400237
0.099692 0.630201 0.399467
0.100135 0.635752 0.394314
0.117599 0.643014 0.379638
0.203787 0.653663 0.347622
0.294368 0.663645 0.292453
0.405602 0.670403 0.232945
0.505687 0.671090 0.171131
0.577335 0.664871 0.133980
0.628658 0.653932 0.159043
0.675224 0.638789 0.226095
0.697537 0.622203 0.297160
0.706926 0.609217 0.368210
0.708825 0.596014 0.424318
0.708291 0.583878 0.458301
0.707541 0.573538 0.476388
0.706877 0.565037 0.485894
0.706313 0.558127 0.490935
0.705933 0.553520 0.493780
0.705666 0.550305 0.496532
0.705538 0.548784 0.499332
0.705528 0.548522 0.502504
0.705630 0.549442 0.506035
0.705738 0.550425 0.509320
0.706005 0.552972 0.513560
0.706245 0.555260 0.517359
0.102815 0.649025 0.404156
0.102815 0.649025 0.404156
0.102815 0.649025 0.404156
0.102563 0.649031 0.404532
0.102455 0.649873 0.405048
0.101572 0.650933 0.405619
0.101707 0.652379 0.406455
0.101901 0.654474 0.407503
0.102162 0.657344 0.408405
0.102501 0.661237 0.407963
0.102843 0.665669 0.402609
0.111890 0.671582 0.383464
0.227339 0.681067 0.345210
0.334758 0.688681 0.283551
0.453238 0.692450 0.230244
0.540462 0.690510 0.192672
0.600485 0.683876 0.167478
0.649916 0.674153 0.185060
0.685108 0.661074 0.257574
0.702496 0.645612 0.326305
0.709377 0.629368 0.392966
0.710912 0.617879 0.444146
0.710528 0.607344 0.477488
0.709906 0.598284 0.497203
0.709337 0.590703 0.508371
0.708866 0.584848 0.513323
0.708478 0.580074 0.517077
0.708188 0.576525 0.519545
0.707985 0.574027 0.521798
0.707866 0.572513 0.523863
0.707770 0.571282 0.525795
0.707812 0.571642 0.528366
0.707850 0.571966 0.530675
0.139564 0.672591 0.411785
0.139564 0.672591 0.411785
0.139564 0.672591 0.411785
0.139274 0.672566 0.412077
0.140388 0.673055 0.412588
0.141578 0.673753 0.413227
0.143254 0.674935 0.414202
0.145028 0.676407 0.415589
0.146984 0.678367 0.417292
0.148718 0.680993 0.418860
0.150316 0.683907 0.417909
0.160100 0.687863 0.410297
0.225953 0.694118 0.388598
0.312639 0.700397 0.349290
0.426759 0.704798 0.310847
0.515161 0.705452 0.290839
0.576851 0.702404 0.270567
0.622690 0.696457 0.250834
0.665516 0.687781 0.260474
0.691883 0.676809 0.301873
0.705444 0.664376 0.362053
0.711139 0.651555 0.418497
0.712577 0.638646 0.461852
0.712347 0.627084 0.492435
0.711891 0.619220 0.513251
0.711432 0.612898 0.524073
0.711032 0.607571 0.531910
0.710700 0.603336 0.536455
0.710431 0.599949 0.539800
0.710222 0.597354 0.542047
0.710041 0.595098 0.544067
0.709962 0.594038 0.545905
0.709891 0.593081 0.547557
0.225226 0.690286 0.424813
0.225226 0.690286 0.424813
0.225226 0.690286 0.424813
0.224696 0.690221 0.424965
0.225899 0.690614 0.425536
0.228429 0.691175 0.426415
0.231427 0.691967 0.427617
0.234909 0.692970 0.429309
0.238701 0.694318 0.431560
0.243156 0.696122 0.434327
0.249182 0.698183 0.436624
0.260946 0.700622 0.435986
0.294547 0.704022 0.428078
0.356046 0.708014 0.411834
0.442115 0.711035 0.396613
0.513270 0.712530 0.385517
0.566457 0.712171 0.366253
0.608041 0.709423 0.337595
0.645463 0.704264 0.316567
0.678091 0.697121 0.318478
0.697446 0.688215 0.350030
0.707846 0.678299 0.398427
0.712636 0.668158 0.444679
0.714318 0.658286 0.481365
0.714382 0.648858 0.508847
0.713822 0.640157 0.525936
0.713263 0.632229 0.538635
0.712862 0.626842 0.546784
0.712575 0.622998 0.552613
0.712338 0.619934 0.556283
0.712128 0.617229 0.559494
0.711994 0.615501 0.561539
0.711873 0.613941 0.563376
0.302861 0.701979 0.444578
0.302861 0.701979 0.444578
0.302861 0.701979 0.444578
0.302006 0.701883 0.444568
0.303409 0.702090 0.445218
0.305880 0.702482 0.446241
0.309717 0.702987 0.447817
0.315174 0.703728 0.450162
0.321062 0.704590 0.453052
0.328675 0.705673 0.456847
0.339176 0.707053 0.461326
0.353003 0.708463 0.464630
0.381506 0.710198 0.466217
0.424533 0.712046 0.464812
0.480132 0.713623 0.464255
0.529727 0.714972 0.462575
0.570585 0.715806 0.452786
0.604257 0.715595 0.431065
0.632946 0.713356 0.401000
0.665796 0.709403 0.378821
0.688114 0.703631 0.377880
0.701999 0.696505 0.402281
0.709866 0.688638 0.438592
0.713926 0.680652 0.473874
0.715718 0.672947 0.503610
0.715785 0.665949 0.524485
0.715635 0.659454 0.540606
0.715242 0.653530 0.551825
0.714867 0.648261 0.560128
0.714511 0.643650 0.565824
0.714186 0.639464 0.570754
0.713949 0.636491 0.573548
0.713732 0.633769 0.576052
0.383590 0.709057 0.471011
0.383590 0.709057 0.471011
0.383590 0.709057 0.471011
0.382495 0.708999 0.470807
0.384945 0.709144 0.471916
0.387513 0.709357 0.473087
0.391533 0.709648 0.474922
0.397059 0.710069 0.477519
0.403582 0.710560 0.480841
0.412767 0.711183 0.485538
0.423906 0.711905 0.491042
0.436186 0.712558 0.496234
0.455016 0.713300 0.501462
0.483046 0.714141 0.506442
0.519080 0.715207 0.512792
0.553364 0.716209 0.517560
0.583130 0.717021 0.515637
0.608932 0.717583 0.503880
0.631787 0.717324 0.480342
0.658969 0.715923 0.454166
0.680578 0.712783 0.437465
0.695744 0.708161 0.437767
0.705579 0.702515 0.454077
0.711588 0.696367 0.478428
0.715080 0.690104 0.504185
0.716279 0.684116 0.525197
0.716904 0.678599 0.542086
0.716870 0.673634 0.554846
0.716714 0.669176 0.564649
0.716449 0.665222 0.571827
0.716201 0.661601 0.578067
0.715976 0.658649 0.581982
0.715768 0.655941 0.585485
0.452293 0.712874 0.500348
0.452293 0.712874 0.500348
0.452293 0.712874 0.500348
0.451312 0.712841 0.500026
0.453407 0.712933 0.501127
0.455798 0.713040 0.502413
0.459597 0.713221 0.504484
0.464306 0.713417 0.507146
0.469986 0.713677 0.510499
0.477844 0.714019 0.515137
0.487268 0.714387 0.520720
0.497232 0.714729 0.526681
0.509400 0.715124 0.532507
0.527739 0.715700 0.539294
0.551653 0.716448 0.547766
0.576351 0.717213 0.555757
0.598359 0.717856 0.558869
0.618071 0.718369 0.554897
0.635928 0.718710 0.540620
0.658269 0.718704 0.519745
0.676589 0.717537 0.500212
0.690862 0.715021 0.488523
0.701252 0.711361 0.488417
0.708373 0.706961 0.498330
0.713085 0.702155 0.514397
0.715414 0.697132 0.531952
0.716927 0.692439 0.546850
0.717533 0.688107 0.559186
0.717786 0.684241 0.569042
0.717718 0.680840 0.576703
0.717640 0.677722 0.583401
0.717460 0.675096 0.588020
0.717294 0.672688 0.592151
0.505173 0.714970 0.528685
0.505173 0.714970 0.528685
0.505173 0.714970 0.528685
0.504600 0.714952 0.528469
0.505819 0.714993 0.529271
0.507776 0.715060 0.530531
0.511051 0.715171 0.532595
0.515014 0.715306 0.535195
0.519840 0.715472 0.538481
0.525636 0.715672 0.542528
0.532853 0.715921 0.547600
0.540785 0.716198 0.553433
0.549165 0.716483 0.558821
0.561698 0.716898 0.565681
0.577892 0.717429 0.574021
0.595995 0.718018 0.582880
0.612929 0.718547 0.588815
0.628214 0.718983 0.589888
0.644540 0.719372 0.582869
0.661324 0.719709 0.568971
0.675716 0.719653 0.552057
0.687929 0.718707 0.537601
0.697730 0.716689 0.529217
0.705121 0.713799 0.528296
0.710540 0.710350 0.534134
0.713720 0.706365 0.545540
0.715995 0.702524 0.556156
0.717302 0.698785 0.566211
0.718064 0.695397 0.574828
0.718334 0.692355 0.582176
0.718545 0.689575 0.588631
0.718459 0.687301 0.593376
0.718378 0.685218 0.597620
0.544842 0.716318 0.554108
0.544842 0.716318 0.554108
0.544842 0.716318 0.554108
0.544909 0.716321 0.554230
0.545930 0.716356 0.554983
0.547468 0.716410 0.556129
0.549649 0.716486 0.557753
0.552573 0.716589 0.559955
0.556991 0.716744 0.563317
0.561611 0.716907 0.566918
0.566805 0.717092 0.571185
0.572637 0.717301 0.576043
0.578563 0.717510 0.580605
0.587589 0.717822 0.586946
0.598988 0.718211 0.594484
0.612215 0.718660 0.602886
0.625589 0.719101 0.610008
0.637996 0.719482 0.613663
0.653021 0.719881 0.611579
0.665825 0.720167 0.604023
0.676856 0.720357 0.591989
0.686674 0.720401 0.578694
0.695209 0.719703 0.568084
0.702251 0.718099 0.562064
0.707858 0.715847 0.560254
0.711664 0.712857 0.564107
0.714521 0.709866 0.569137
0.716396 0.706782 0.575852
0.717664 0.703896 0.582295
0.718391 0.701198 0.588518
0.718990 0.698722 0.594035
0.719047 0.696559 0.598561
0.719095 0.694576 0.602612
0.572306 0.717284 0.575181
0.572306 0.717284 0.575181
0.572306 0.717284 0.575181
0.571945 0.717271 0.574937
0.572763 0.717300 0.575586
0.574419 0.717359 0.576916
0.576184 0.717422 0.578329
0.578499 0.717504 0.580195
0.581723 0.717619 0.582821
0.585426 0.717751 0.585884
0.589465 0.717898 0.589431
0.594007 0.718062 0.593423
0.598350 0.718215 0.597049
0.604529 0.718429 0.601820
0.613127 0.718729 0.608113
0.623273 0.719083 0.615306
0.633767 0.719441 0.621818
0.646386 0.719833 0.626076
0.658520 0.720176 0.626466
0.669073 0.720435 0.622728
0.678422 0.720626 0.615358
0.686715 0.720734 0.605802
0.694065 0.720558 0.596800
0.700386 0.719849 0.590087
0.705654 0.718574 0.585785
0.709609 0.716491 0.585578
0.712724 0.714306 0.586716
0.714996 0.711913 0.589621
0.716625 0.709582 0.593115
0.717683 0.707303 0.597170
0.718578 0.705208 0.600852
0.718920 0.703273 0.604724
0.719223 0.701501 0.608193
0.593667 0.718042 0.592314
0.593667 0.718042 0.592314
0.593667 0.718042 0.592314
0.593110 0.718023 0.591887
0.593751 0.718046 0.592426
0.595250 0.718099 0.593684
0.596691 0.718151 0.594912
0.598619 0.718221 0.596565
0.600984 0.718306 0.598619
0.603789 0.718408 0.601070
0.606790 0.718517 0.603856
0.610214 0.718641 0.607012
0.613408 0.718749 0.609895
0.617585 0.718891 0.613451
0.623933 0.719114 0.618541
