luts/P4P_01_Neutral_size33.cube
# POCKET 4P D-Log2 LUT pack v1.0 - Neutral
# Reference. DJI colour science with the clipped highlights recovered.
# Input:  DJI Osmo Pocket 4P D-Log2 / D-Gamut2, full range
# Output: Rec.709 / gamma 2.4 display
# Built on DJI's official D-Log2 to Rec.709 colorimetry with a
# scene-linear highlight shoulder so nothing clips at +7 stops.
TITLE "POCKET 4P Neutral v1.0"
LUT_3D_SIZE 33
DOMAIN_MIN 0.0 0.0 0.0
DOMAIN_MAX 1.0 1.0 1.0
0.029380 0.029377 0.029384
0.029380 0.029377 0.029384
0.029380 0.029377 0.029384
0.055281 0.021134 0.024331
0.079901 0.019068 0.027113
0.104158 0.016559 0.031247
0.134432 0.013880 0.037517
0.172934 0.011123 0.046000
0.224083 0.009341 0.056742
0.287577 0.008597 0.068509
0.364741 0.009853 0.081222
0.453378 0.014347 0.094450
0.549920 0.021928 0.108207
0.649244 0.029862 0.122390
0.746192 0.031957 0.136341
0.846109 0.026227 0.148764
0.934189 0.026078 0.160724
0.990309 0.053317 0.175768
1.000000 0.125889 0.199617
1.000000 0.204232 0.228148
1.000000 0.267372 0.256516
1.000000 0.313312 0.282018
1.000000 0.348235 0.304963
1.000000 0.376746 0.325913
1.000000 0.400937 0.345019
1.000000 0.422314 0.363052
1.000000 0.441845 0.379857
1.000000 0.459847 0.395808
1.000000 0.476235 0.410618
1.000000 0.491175 0.424420
1.000000 0.504700 0.436957
1.000000 0.517586 0.449362
1.000000 0.529196 0.460539
0.029380 0.029377 0.029384
0.029380 0.029377 0.029384
0.029380 0.029377 0.029384
0.055281 0.021134 0.024331
0.079901 0.019068 0.027113
0.104158 0.016559 0.031247
0.134432 0.013880 0.037517
0.172934 0.011123 0.046000
0.224083 0.009341 0.056742
0.287577 0.008597 0.068509
0.364741 0.009853 0.081222
0.453378 0.014347 0.094450
0.549920 0.021928 0.108207
0.649244 0.029862 0.122390
0.746192 0.031957 0.136341
0.846109 0.026227 0.148764
0.934189 0.026078 0.160724
0.990309 0.053317 0.175768
1.000000 0.125889 0.199617
1.000000 0.204232 0.228148
1.000000 0.267372 0.256516
1.000000 0.313312 0.282018
1.000000 0.348235 0.304963
1.000000 0.376746 0.325913
1.000000 0.400937 0.345019
1.000000 0.422314 0.363052
1.000000 0.441845 0.379857
1.000000 0.459847 0.395808
1.000000 0.476235 0.410618
1.000000 0.491175 0.424420
1.000000 0.504700 0.436957
1.000000 0.517586 0.449362
1.000000 0.529196 0.460539
0.029380 0.029377 0.029384
0.029380 0.029377 0.029384
0.029380 0.029377 0.029384
0.055281 0.021134 0.024331
0.079901 0.019068 0.027113
0.104158 0.016559 0.031247
0.134432 0.013880 0.037517
0.172934 0.011123 0.046000
0.224083 0.009341 0.056742
0.287577 0.008597 0.068509
0.364741 0.009853 0.081222
0.453378 0.014347 0.094450
0.549920 0.021928 0.108207
0.649244 0.029862 0.122390
0.746192 0.031957 0.136341
0.846109 0.026227 0.148764
0.934189 0.026078 0.160724
0.990309 0.053317 0.175768
1.000000 0.125889 0.199617
1.000000 0.204232 0.228148
1.000000 0.267372 0.256516
1.000000 0.313312 0.282018
1.000000 0.348235 0.304963
1.000000 0.376746 0.325913
1.000000 0.400937 0.345019
1.000000 0.422314 0.363052
1.000000 0.441845 0.379857
1.000000 0.459847 0.395808
1.000000 0.476235 0.410618
1.000000 0.491175 0.424420
1.000000 0.504700 0.436957
1.000000 0.517586 0.449362
1.000000 0.529196 0.460539
0.017842 0.053432 0.030521
0.017842 0.053432 0.030521
0.017842 0.053432 0.030521
0.057694 0.061017 0.021953
0.092840 0.062452 0.012973
0.125249 0.058386 0.015811
0.162351 0.050406 0.021936
0.203430 0.043002 0.028743
0.252228 0.033560 0.038679
0.312065 0.024732 0.051176
0.383757 0.018043 0.066291
0.467243 0.016891 0.083064
0.557834 0.021489 0.099835
0.652223 0.028846 0.116255
0.746041 0.032013 0.131784
0.843926 0.027601 0.145186
0.931217 0.027653 0.157515
0.987352 0.052020 0.172384
1.000000 0.119806 0.195646
1.000000 0.196644 0.223716
1.000000 0.259943 0.251872
1.000000 0.306824 0.277435
1.000000 0.342300 0.300340
1.000000 0.371062 0.321186
1.000000 0.395385 0.340184
1.000000 0.416460 0.357815
1.000000 0.435698 0.374240
1.000000 0.453414 0.389824
1.000000 0.469656 0.404397
1.000000 0.484583 0.418081
1.000000 0.498058 0.430474
1.000000 0.510486 0.442343
1.000000 0.521683 0.453035
0.013608 0.079679 0.039004
0.013608 0.079679 0.039004
0.013608 0.079679 0.039004
0.050363 0.093182 0.023117
0.092170 0.099033 0.021531
0.132158 0.104101 0.006770
0.172709 0.103825 0.003570
0.221592 0.094608 0.009750
0.275148 0.079708 0.019025
0.335256 0.062382 0.030881
0.405769 0.043598 0.046658
0.485852 0.030675 0.066867
0.572347 0.026415 0.088304
0.662494 0.029153 0.108963
0.752756 0.031240 0.127376
0.849389 0.027440 0.142242
0.934204 0.028517 0.155347
0.989153 0.054290 0.171005
1.000000 0.121766 0.194662
1.000000 0.198058 0.223032
1.000000 0.260577 0.251213
1.000000 0.307279 0.276971
1.000000 0.342352 0.299765
1.000000 0.370538 0.320302
1.000000 0.394685 0.339223
1.000000 0.415622 0.356776
1.000000 0.434735 0.373120
1.000000 0.452339 0.388616
1.000000 0.468467 0.403095
1.000000 0.483276 0.416682
1.000000 0.496648 0.428988
1.000000 0.509002 0.440783
1.000000 0.520132 0.451409
0.009430 0.105238 0.049157
0.009430 0.105238 0.049157
0.009430 0.105238 0.049157
0.042860 0.122700 0.029499
0.084020 0.135222 0.018857
0.129750 0.141340 0.016144
0.181061 0.147514 0.003701
0.230100 0.147472 0.001797
0.286468 0.137176 0.004631
0.350877 0.117703 0.011932
0.424247 0.090510 0.025224
0.504522 0.060763 0.046997
0.588846 0.041269 0.072422
0.675511 0.033850 0.098436
0.762914 0.031427 0.121356
0.858130 0.026607 0.138475
0.938652 0.028463 0.152808
0.991669 0.056109 0.169591
1.000000 0.124979 0.194180
1.000000 0.201895 0.223373
1.000000 0.263506 0.251656
1.000000 0.309075 0.277225
1.000000 0.343587 0.299950
1.000000 0.371379 0.320410
1.000000 0.395252 0.339255
1.000000 0.416341 0.357020
1.000000 0.435381 0.373363
1.000000 0.452601 0.388572
1.000000 0.468509 0.402889
1.000000 0.483254 0.416430
1.000000 0.496566 0.428695
1.000000 0.508862 0.440447
1.000000 0.519940 0.451035
0.005908 0.136806 0.063152
0.005908 0.136806 0.063152
0.005908 0.136806 0.063152
0.031748 0.157254 0.043932
0.072732 0.173423 0.024836
0.118958 0.185699 0.016091
0.178106 0.193635 0.009613
0.238587 0.199307 0.003107
0.299264 0.197156 0.002844
0.364790 0.184709 0.003994
0.439334 0.159316 0.009385
0.521285 0.122656 0.023581
0.607865 0.081016 0.048828
0.693836 0.051832 0.081257
0.776777 0.036230 0.110157
0.871353 0.026286 0.131629
0.946572 0.028272 0.148896
0.995626 0.058727 0.167821
1.000000 0.130652 0.194294
1.000000 0.207556 0.224358
1.000000 0.267974 0.252841
1.000000 0.312392 0.278334
1.000000 0.346360 0.301134
1.000000 0.373773 0.321595
1.000000 0.396925 0.340067
1.000000 0.417821 0.357800
1.000000 0.436715 0.374117
1.000000 0.453837 0.389301
1.000000 0.469652 0.403592
1.000000 0.484306 0.417108
1.000000 0.497555 0.429365
1.000000 0.509999 0.441286
1.000000 0.521210 0.452026
0.003681 0.176404 0.081023
0.003681 0.176404 0.081023
0.003681 0.176404 0.081023
0.020170 0.198058 0.063810
0.056123 0.215087 0.037726
0.103153 0.230782 0.021624
0.164472 0.244079 0.012602
0.235739 0.252782 0.006737
0.304992 0.257780 0.003590
0.376821 0.253110 0.004019
0.454029 0.234464 0.005833
0.537739 0.201401 0.012421
0.626147 0.154571 0.028002
0.714503 0.097380 0.055324
0.796322 0.054062 0.089702
0.891208 0.029910 0.118593
0.958739 0.030030 0.141852
1.000000 0.064653 0.165157
1.000000 0.140461 0.194935
1.000000 0.216334 0.226262
1.000000 0.275017 0.255175
1.000000 0.317618 0.280486
1.000000 0.350276 0.302993
1.000000 0.377023 0.323322
1.000000 0.399768 0.341716
1.000000 0.420444 0.359409
1.000000 0.439278 0.375805
1.000000 0.456545 0.391229
1.000000 0.472276 0.405533
1.000000 0.486630 0.418847
1.000000 0.499625 0.430937
1.000000 0.512005 0.442852
1.000000 0.523160 0.453588
0.002040 0.226111 0.103408
0.002040 0.226111 0.103408
0.002040 0.226111 0.103408
0.010961 0.245819 0.089103
0.035165 0.262847 0.063832
0.076267 0.279217 0.039535
0.139255 0.296577 0.019323
0.215466 0.311124 0.009845
0.299338 0.318915 0.006101
0.376352 0.322602 0.006042
0.458892 0.313371 0.008231
0.547439 0.287901 0.011969
0.642652 0.243595 0.019256
0.732284 0.182350 0.034968
0.826768 0.105930 0.061210
0.917642 0.050457 0.094232
0.976150 0.040571 0.126525
1.000000 0.079365 0.159240
1.000000 0.157715 0.195213
1.000000 0.229897 0.228842
1.000000 0.284699 0.258285
1.000000 0.324848 0.283545
1.000000 0.355824 0.305760
1.000000 0.381792 0.326027
1.000000 0.404361 0.344596
1.000000 0.424423 0.361981
1.000000 0.442846 0.378201
1.000000 0.459960 0.393625
1.000000 0.475564 0.407929
1.000000 0.489815 0.421243
1.000000 0.502718 0.433334
1.000000 0.515034 0.445265
1.000000 0.526132 0.456015
0.003235 0.284893 0.128097
0.003235 0.284893 0.128097
0.003235 0.284893 0.128097
0.004742 0.301282 0.118099
0.016727 0.316756 0.097073
0.044475 0.332166 0.069899
0.100117 0.351463 0.040806
0.180610 0.369420 0.017953
0.273364 0.382201 0.009242
0.366403 0.389121 0.008262
0.453086 0.389529 0.010984
0.545815 0.375916 0.015968
0.643750 0.343016 0.021631
0.748394 0.281950 0.027916
0.856693 0.195670 0.038295
0.944708 0.107441 0.062050
0.995456 0.076504 0.103781
1.000000 0.116199 0.152154
1.000000 0.187872 0.196572
1.000000 0.250648 0.233034
1.000000 0.298103 0.262629
1.000000 0.334332 0.287701
1.000000 0.363300 0.309678
1.000000 0.387989 0.329636
1.000000 0.409879 0.348064
1.000000 0.429650 0.365435
1.000000 0.447841 0.381656
1.000000 0.464787 0.397096
1.000000 0.480373 0.411541
1.000000 0.494746 0.425115
1.000000 0.507728 0.437409
1.000000 0.519771 0.449193
1.000000 0.530621 0.459810
0.004222 0.352024 0.155103
0.004222 0.352024 0.155103
0.004222 0.352024 0.155103
0.001969 0.365075 0.148694
0.005611 0.378016 0.134382
0.019736 0.392420 0.112266
0.055618 0.409874 0.079773
0.126016 0.429418 0.042627
0.226225 0.446398 0.018526
0.333825 0.457425 0.011342
0.437600 0.462026 0.013110
0.532383 0.458547 0.018475
0.632866 0.438709 0.025583
0.739209 0.395825 0.029632
0.866579 0.317775 0.032537
0.964627 0.221502 0.046673
1.000000 0.175055 0.092125
1.000000 0.191240 0.153693
1.000000 0.237143 0.203436
1.000000 0.281366 0.240913
1.000000 0.317497 0.269619
1.000000 0.347536 0.293631
1.000000 0.373396 0.314922
1.000000 0.396385 0.334442
1.000000 0.417442 0.352750
1.000000 0.437300 0.370597
1.000000 0.455304 0.386984
1.000000 0.471673 0.402175
1.000000 0.486876 0.416508
1.000000 0.501048 0.430094
1.000000 0.513855 0.442405
1.000000 0.525808 0.454252
1.000000 0.536577 0.464925
0.004894 0.426261 0.183557
0.004894 0.426261 0.183557
0.004894 0.426261 0.183557
0.002031 0.435961 0.181212
0.000931 0.446050 0.173355
0.004804 0.457449 0.158338
0.021126 0.472693 0.131691
0.066987 0.491415 0.091055
0.156479 0.510577 0.048277
0.273623 0.526975 0.021677
0.395415 0.534710 0.014969
0.507610 0.535363 0.018370
0.610932 0.526679 0.025890
0.719000 0.499562 0.031583
0.847000 0.444951 0.032591
0.960985 0.367674 0.046055
1.000000 0.307049 0.103317
1.000000 0.289834 0.172449
1.000000 0.301505 0.220374
1.000000 0.321068 0.254300
1.000000 0.343420 0.280601
1.000000 0.365840 0.302798
1.000000 0.387782 0.323124
1.000000 0.408727 0.342193
1.000000 0.428218 0.359941
1.000000 0.447132 0.377432
1.000000 0.464500 0.393657
1.000000 0.480605 0.408936
1.000000 0.495593 0.423358
1.000000 0.509596 0.437036
1.000000 0.522260 0.449435
1.000000 0.534181 0.461419
1.000000 0.544922 0.472217
0.005841 0.505456 0.214233
0.005841 0.505456 0.214233
0.005841 0.505456 0.214233
0.003511 0.511599 0.213337
0.001313 0.518908 0.209828
0.000519 0.527606 0.202395
0.004897 0.539981 0.185883
0.024836 0.556353 0.154250
0.077583 0.576007 0.105878
0.182381 0.594590 0.055047
0.319057 0.607847 0.023338
0.454441 0.611874 0.016872
0.576808 0.608193 0.021784
0.689557 0.593191 0.029018
0.805257 0.557406 0.032716
0.939352 0.499570 0.045071
1.000000 0.442104 0.102785
1.000000 0.402262 0.186732
1.000000 0.381631 0.243616
1.000000 0.375895 0.276194
1.000000 0.381691 0.297899
1.000000 0.393684 0.316888
1.000000 0.409154 0.335013
1.000000 0.426189 0.352799
1.000000 0.443444 0.369988
1.000000 0.460628 0.386810
1.000000 0.476807 0.402674
1.000000 0.492383 0.417986
1.000000 0.506758 0.432233
1.000000 0.520065 0.445540
1.000000 0.532130 0.457631
1.000000 0.543819 0.469620
1.000000 0.554350 0.480422
0.007581 0.586430 0.246319
0.007581 0.586430 0.246319
0.007581 0.586430 0.246319
0.005891 0.590118 0.246305
0.003693 0.595291 0.245343
0.001481 0.601715 0.242367
0.000153 0.611769 0.234781
0.002990 0.625000 0.216502
0.022520 0.641526 0.179379
0.083890 0.660614 0.119732
0.204143 0.678329 0.057765
0.361846 0.688657 0.022346
0.512699 0.688958 0.016747
0.645458 0.679651 0.021631
0.765972 0.655452 0.026675
0.897227 0.615889 0.036562
0.988134 0.565810 0.085116
1.000000 0.521103 0.179246
1.000000 0.486450 0.258097
1.000000 0.459767 0.300550
1.000000 0.443971 0.323450
1.000000 0.440475 0.340264
1.000000 0.445350 0.355178
1.000000 0.454802 0.369814
1.000000 0.466854 0.384922
1.000000 0.481158 0.400724
1.000000 0.494915 0.415640
1.000000 0.508530 0.430039
1.000000 0.521648 0.443848
1.000000 0.534357 0.457162
1.000000 0.545869 0.469230
1.000000 0.556903 0.480887
1.000000 0.566845 0.491389
0.006737 0.667580 0.278882
0.006737 0.667580 0.278882
0.006737 0.667580 0.278882
0.005652 0.669773 0.279052
0.004092 0.673275 0.279139
0.002060 0.678416 0.278882
0.000244 0.685283 0.276386
0.000001 0.695355 0.268176
0.001443 0.708674 0.246425
0.019727 0.725323 0.201855
0.088793 0.744453 0.130529
0.227781 0.760973 0.058481
0.404823 0.767875 0.022874
0.568407 0.762629 0.016764
0.709918 0.746560 0.017843
0.837959 0.716963 0.024441
0.949586 0.679337 0.056983
1.000000 0.636415 0.139613
1.000000 0.598269 0.248103
1.000000 0.564655 0.319141
1.000000 0.536857 0.355429
1.000000 0.516739 0.373662
1.000000 0.505221 0.385387
1.000000 0.501714 0.396306
1.000000 0.504341 0.408159
1.000000 0.513137 0.422037
1.000000 0.522422 0.435175
1.000000 0.532679 0.447890
1.000000 0.543235 0.460427
1.000000 0.554119 0.472854
1.000000 0.564040 0.484154
1.000000 0.574226 0.495477
1.000000 0.583403 0.505679
0.004215 0.742224 0.304196
0.004215 0.742224 0.304196
0.004215 0.742224 0.304196
0.003586 0.743671 0.304714
0.002611 0.746339 0.305377
0.001287 0.749584 0.305861
0.000050 0.754683 0.305638
0.000000 0.762238 0.303088
0.000000 0.772817 0.293911
0.001071 0.786206 0.269354
0.024471 0.804483 0.216120
0.106322 0.830401 0.136468
0.264327 0.848576 0.058613
0.452302 0.852234 0.021253
0.624875 0.837118 0.010803
0.762695 0.806678 0.010233
0.893760 0.772879 0.030264
0.979115 0.737612 0.086421
1.000000 0.701455 0.194933
1.000000 0.665578 0.302414
1.000000 0.634532 0.370529
1.000000 0.608617 0.406640
1.000000 0.588188 0.424819
1.000000 0.573399 0.435291
1.000000 0.563583 0.442878
1.000000 0.561608 0.451563
1.000000 0.562496 0.460847
1.000000 0.567107 0.471329
1.000000 0.573305 0.482082
1.000000 0.581024 0.493138
1.000000 0.588180 0.503241
1.000000 0.596816 0.513881
1.000000 0.604598 0.523468
0.001424 0.812999 0.318010
0.001424 0.812999 0.318010
0.001424 0.812999 0.318010
0.001193 0.813861 0.318738
0.000791 0.816364 0.319492
0.000191 0.819913 0.320281
0.000048 0.825756 0.321296
0.000000 0.833490 0.321763
0.000000 0.844707 0.319551
0.000000 0.858291 0.309061
0.001312 0.875211 0.280383
0.031147 0.896298 0.219586
0.131509 0.916153 0.128708
0.312647 0.926716 0.049535
0.512816 0.922904 0.011969
0.677277 0.903268 0.002055
0.805313 0.872132 0.007641
0.928681 0.830621 0.040203
0.991432 0.787972 0.125706
1.000000 0.755356 0.238962
1.000000 0.723560 0.342474
1.000000 0.695299 0.411540
1.000000 0.671798 0.450734
1.000000 0.652812 0.472399
1.000000 0.637584 0.484487
1.000000 0.627515 0.491492
1.000000 0.620507 0.498064
1.000000 0.617172 0.504443
1.000000 0.616542 0.511418
1.000000 0.618451 0.518986
1.000000 0.620500 0.526038
1.000000 0.625914 0.534935
1.000000 0.630792 0.542950
0.000018 0.890467 0.325131
0.000018 0.890467 0.325131
0.000018 0.890467 0.325131
0.000013 0.890492 0.325849
0.000010 0.892568 0.326687
0.000000 0.895242 0.327631
0.000000 0.898797 0.328964
0.000000 0.903962 0.330592
0.000000 0.911069 0.331814
0.000000 0.920784 0.330324
0.000000 0.932011 0.319533
0.000415 0.946751 0.283075
0.046883 0.963573 0.210661
0.188892 0.976856 0.111476
0.399519 0.979336 0.044428
0.585324 0.969058 0.019289
0.728368 0.948537 0.009604
0.854707 0.920164 0.015511
0.949228 0.883525 0.068315
0.998684 0.842968 0.165929
1.000000 0.802015 0.279095
1.000000 0.773640 0.377187
1.000000 0.748373 0.446753
1.000000 0.727105 0.490295
1.000000 0.709603 0.516059
1.000000 0.696274 0.528122
1.000000 0.685481 0.537398
1.000000 0.677506 0.543608
1.000000 0.671899 0.549154
1.000000 0.668496 0.554098
1.000000 0.665728 0.558700
1.000000 0.666470 0.564445
1.000000 0.667138 0.569621
0.004814 0.946669 0.333890
0.004814 0.946669 0.333890
0.004814 0.946669 0.333890
0.004747 0.946619 0.334462
0.004994 0.947767 0.335296
0.005259 0.949434 0.336336
0.005638 0.952290 0.337913
0.006046 0.955866 0.340225
0.006501 0.960668 0.343055
0.006895 0.967199 0.345534
0.007261 0.974553 0.343153
0.010054 0.984177 0.327584
0.044422 0.996077 0.283521
0.152667 1.000000 0.211009
0.344953 1.000000 0.145485
0.524456 1.000000 0.113148
0.665404 0.995077 0.083741
0.778759 0.976987 0.059324
0.890614 0.951600 0.069585
0.962752 0.921109 0.125895
1.000000 0.887829 0.220575
1.000000 0.854691 0.322256
1.000000 0.822401 0.408902
1.000000 0.794162 0.474589
1.000000 0.775185 0.521219
1.000000 0.760193 0.546509
1.000000 0.747672 0.565239
1.000000 0.737811 0.576438
1.000000 0.729966 0.584783
1.000000 0.723982 0.590480
1.000000 0.718796 0.595601
1.000000 0.716342 0.600073
1.000000 0.714131 0.604101
0.043837 0.985379 0.351644
0.043837 0.985379 0.351644
0.043837 0.985379 0.351644
0.043409 0.985248 0.351974
0.044361 0.986158 0.352950
0.046436 0.987397 0.354427
0.048975 0.989189 0.356469
0.052042 0.991480 0.359407
0.055515 0.994625 0.363366
0.059791 0.998893 0.368239
0.066007 1.000000 0.372088
0.079736 1.000000 0.369827
0.124998 1.000000 0.352206
0.218442 1.000000 0.317747
0.371715 1.000000 0.285299
0.517189 1.000000 0.262072
0.637005 1.000000 0.226669
0.737665 1.000000 0.178689
0.833336 0.993811 0.145689
0.920416 0.973089 0.148214
0.973991 0.948291 0.197778
1.000000 0.921432 0.281359
1.000000 0.894749 0.369591
1.000000 0.869459 0.445436
1.000000 0.845838 0.505802
1.000000 0.824485 0.545259
1.000000 0.805278 0.575551
1.000000 0.792336 0.595360
1.000000 0.783148 0.609676
1.000000 0.775875 0.618886
1.000000 0.769477 0.626990
1.000000 0.765400 0.632173
1.000000 0.761727 0.636843
0.136916 1.000000 0.384411
0.136916 1.000000 0.384411
0.136916 1.000000 0.384411
0.135696 1.000000 0.384451
0.137686 1.000000 0.385635
0.141204 1.000000 0.387475
0.146726 1.000000 0.390331
0.154663 1.000000 0.394608
0.163335 1.000000 0.399952
0.174731 1.000000 0.407024
0.190807 1.000000 0.415324
0.212658 1.000000 0.421094
0.260041 1.000000 0.422535
0.337014 1.000000 0.417071
0.445732 1.000000 0.412746
0.551177 1.000000 0.406515
0.644093 1.000000 0.384652
0.725035 1.000000 0.340730
0.797468 1.000000 0.283994
0.883569 1.000000 0.244093
0.944341 0.987620 0.242351
0.983164 0.967781 0.285728
1.000000 0.946360 0.354441
1.000000 0.925114 0.425939
1.000000 0.905038 0.489851
1.000000 0.887200 0.536919
1.000000 0.870856 0.574533
1.000000 0.856145 0.601540
1.000000 0.843180 0.621999
1.000000 0.831934 0.636387
1.000000 0.821778 0.648978
1.000000 0.814612 0.656283
1.000000 0.808071 0.662865
0.263736 1.000000 0.432488
0.263736 1.000000 0.432488
0.263736 1.000000 0.432488
0.261856 1.000000 0.432134
0.266056 1.000000 0.434271
0.270468 1.000000 0.436520
0.277427 1.000000 0.440060
0.287078 1.000000 0.445092
0.298598 1.000000 0.451598
0.315071 1.000000 0.460867
0.335433 1.000000 0.471792
0.358392 1.000000 0.482085
0.394650 1.000000 0.492154
0.450856 1.000000 0.501223
0.526817 1.000000 0.512855
0.602911 1.000000 0.521202
0.672068 1.000000 0.515133
0.734460 1.000000 0.488028
0.791878 1.000000 0.437098
0.862458 1.000000 0.382857
0.920549 1.000000 0.349691
0.962459 0.997282 0.350292
0.990260 0.981648 0.382604
1.000000 0.964908 0.432642
1.000000 0.948129 0.487924
1.000000 0.932428 0.534977
1.000000 0.918144 0.574053
1.000000 0.905459 0.604416
1.000000 0.894172 0.628263
1.000000 0.884253 0.646084
1.000000 0.875214 0.661766
1.000000 0.867899 0.671820
1.000000 0.861209 0.680878
0.389396 1.000000 0.489982
0.389396 1.000000 0.489982
0.389396 1.000000 0.489982
0.387487 1.000000 0.489349
0.391556 1.000000 0.491588
0.396217 1.000000 0.494215
0.403660 1.000000 0.498455
0.412953 1.000000 0.503939
0.424249 1.000000 0.510889
0.440052 1.000000 0.520564
0.459271 1.000000 0.532301
0.479906 1.000000 0.544951
0.505559 1.000000 0.557265
0.545148 1.000000 0.571466
0.598355 1.000000 0.589303
0.655172 1.000000 0.606169
0.707460 1.000000 0.611968
0.755700 1.000000 0.601445
0.800680 1.000000 0.567558
0.858482 1.000000 0.519593
0.907332 1.000000 0.476439
0.946393 1.000000 0.451394
0.975455 1.000000 0.451277
0.995780 0.991798 0.472634
1.000000 0.978722 0.507916
1.000000 0.965292 0.547595
1.000000 0.952891 0.582205
1.000000 0.941587 0.611561
1.000000 0.931592 0.635488
1.000000 0.922876 0.654412
1.000000 0.914921 0.671155
1.000000 0.908275 0.682899
1.000000 0.902198 0.693480
0.496632 1.000000 0.548940
0.496632 1.000000 0.548940
0.496632 1.000000 0.548940
0.495420 1.000000 0.548490
0.497993 1.000000 0.550212
0.502134 1.000000 0.552919
0.509092 1.000000 0.557358
0.517553 1.000000 0.562979
0.527923 1.000000 0.570123
0.540471 1.000000 0.578974
0.556237 1.000000 0.590140
0.573748 1.000000 0.603101
0.592472 1.000000 0.615093
0.620909 1.000000 0.630358
0.658372 1.000000 0.649039
0.701201 1.000000 0.669036
0.742216 1.000000 0.682228
0.780078 1.000000 0.683788
0.821490 1.000000 0.665718
0.865066 1.000000 0.631498
0.903300 1.000000 0.591193
0.936450 1.000000 0.557693
0.963605 1.000000 0.538711
0.984474 1.000000 0.536794
1.000000 0.999509 0.550205
1.000000 0.988728 0.576638
1.000000 0.978446 0.601703
1.000000 0.968546 0.625867
1.000000 0.959651 0.646911
1.000000 0.951730 0.665110
1.000000 0.944520 0.681273
1.000000 0.938672 0.693307
1.000000 0.933328 0.704149
0.582829 1.000000 0.604402
0.582829 1.000000 0.604402
0.582829 1.000000 0.604402
0.582976 1.000000 0.604680
0.585258 1.000000 0.606362
0.588699 1.000000 0.608926
0.593591 1.000000 0.612567
0.600174 1.000000 0.617519
0.610167 1.000000 0.625107
0.620681 1.000000 0.633283
0.632571 1.000000 0.643037
0.646019 1.000000 0.654214
0.659798 1.000000 0.664745
0.681000 1.000000 0.679428
0.708141 1.000000 0.696991
0.740127 1.000000 0.716722
0.773031 1.000000 0.733457
0.804103 1.000000 0.741709
0.842505 1.000000 0.735445
0.875906 1.000000 0.715802
0.905216 1.000000 0.685561
0.931702 1.000000 0.652896
0.955111 1.000000 0.627351
0.974775 1.000000 0.613137
0.990703 1.000000 0.609034
1.000000 1.000000 0.618411
1.000000 0.997116 0.630671
1.000000 0.988870 0.647104
1.000000 0.981208 0.663036
1.000000 0.974093 0.678567
1.000000 0.967591 0.692469
1.000000 0.961964 0.704007
1.000000 0.956820 0.714402
0.645266 1.000000 0.652178
0.645266 1.000000 0.652178
0.645266 1.000000 0.652178
0.644431 1.000000 0.651621
0.646325 1.000000 0.653114
0.650163 1.000000 0.656181
0.654264 1.000000 0.659445
0.659656 1.000000 0.663765
0.667194 1.000000 0.669862
0.675887 1.000000 0.677004
0.685412 1.000000 0.685328
0.696181 1.000000 0.694740
0.706542 1.000000 0.703317
0.721387 1.000000 0.714626
0.742242 1.000000 0.729615
0.767138 1.000000 0.746863
0.793230 1.000000 0.762513
0.825127 1.000000 0.772402
0.856331 1.000000 0.772524
0.883929 1.000000 0.762301
0.908758 1.000000 0.743100
0.931085 1.000000 0.718748
0.951125 1.000000 0.696172
0.968595 1.000000 0.679581
0.983383 1.000000 0.669118
0.994738 1.000000 0.668810
1.000000 1.000000 0.671817
1.000000 1.000000 0.679206
1.000000 0.995645 0.688083
1.000000 0.989599 0.698400
1.000000 0.984059 0.707828
1.000000 0.978976 0.717772
1.000000 0.974333 0.726732
0.695392 1.000000 0.692059
0.695392 1.000000 0.692059
0.695392 1.000000 0.692059
0.694066 1.000000 0.691054
0.695590 1.000000 0.692326
0.699158 1.000000 0.695292
0.702593 1.000000 0.698195
0.707202 1.000000 0.702110
0.712866 1.000000 0.706989
0.719606 1.000000 0.712828
0.726839 1.000000 0.719498
0.735126 1.000000 0.727082
0.742890 1.000000 0.734031
0.753092 1.000000 0.742622
