luts/P4P_12_Punch_size33.cube
# POCKET 4P D-Log2 LUT pack v1.0 - Punch
# High contrast and saturation for social and vertical.
# Input:  DJI Osmo Pocket 4P D-Log2 / D-Gamut2, full range
# Output: Rec.709 / gamma 2.4 display
# Built on DJI's official D-Log2 to Rec.709 colorimetry with a
# scene-linear highlight shoulder so nothing clips at +7 stops.
TITLE "POCKET 4P Punch v1.0"
LUT_3D_SIZE 9
DOMAIN_MIN 0.0 0.0 0.0
DOMAIN_MAX 1.0 1.0 1.0
0.000270 0.000268 0.000271
0.016262 0.000000 0.000000
0.118217 0.000000 0.000000
0.445107 0.000000 0.000000
0.859729 0.000000 0.000000
0.931594 0.000000 0.000000
0.948920 0.202634 0.110054
0.955589 0.341940 0.229574
0.959512 0.441229 0.320082
0.014502 0.041479 0.021340
0.053733 0.057462 0.019993
0.188316 0.000000 0.000000
0.475094 0.000000 0.000000
0.860604 0.000000 0.000000
0.930782 0.000000 0.000000
0.948384 0.191719 0.100201
0.955016 0.327849 0.216435
0.958927 0.424507 0.303942
0.111679 0.266109 0.143072
0.174165 0.343037 0.162238
0.409030 0.429506 0.155919
0.713031 0.172864 0.000000
0.889553 0.000000 0.000000
0.935445 0.000000 0.000000
0.949648 0.211587 0.113165
0.955777 0.342491 0.227043
0.959478 0.436859 0.313585
0.357977 0.818279 0.469429
0.378131 0.839121 0.481499
0.550129 0.910001 0.490658
0.899209 0.912498 0.389144
0.971780 0.488315 0.025312
0.950915 0.192173 0.061343
0.954184 0.290441 0.168716
0.958704 0.405061 0.276299
0.961704 0.493158 0.361401
0.700512 0.987631 0.845899
0.704208 0.988011 0.848639
0.746189 0.990968 0.866282
0.914526 0.996309 0.857374
0.988134 0.991450 0.645050
0.986977 0.927649 0.475145
0.973381 0.731211 0.457675
0.968395 0.643178 0.452915
0.967553 0.654796 0.492573
0.897814 0.998042 0.942171
0.897768 0.998042 0.942363
0.903615 0.998051 0.944453
0.928260 0.997979 0.945659
0.983349 0.996936 0.923483
0.994968 0.996009 0.812103
0.991473 0.983503 0.801907
0.984643 0.954021 0.801618
0.979801 0.921933 0.789161
0.962438 0.995842 0.953242
0.962566 0.995811 0.953356
0.964054 0.995492 0.954365
0.966630 0.994736 0.956567
0.974029 0.992606 0.959292
0.986270 0.992511 0.946893
0.991687 0.992693 0.918784
0.990299 0.988040 0.911480
0.987865 0.981952 0.911422
0.970986 0.992631 0.961029
0.970984 0.992630 0.961034
0.971360 0.992320 0.961589
0.971774 0.991840 0.962429
0.974403 0.990400 0.963793
0.979328 0.988420 0.963805
0.985588 0.989416 0.955291
0.988066 0.989165 0.946480
0.988137 0.987498 0.941542
0.972639 0.991138 0.963421
0.972649 0.991136 0.963420
0.972979 0.990959 0.963571
0.973452 0.990643 0.963880
0.974473 0.989655 0.964944
0.977271 0.987585 0.966262
0.981022 0.986737 0.964528
0.984320 0.987152 0.960029
0.985912 0.987061 0.955732
0.000000 0.000000 0.003920
0.009761 0.000000 0.004209
0.125797 0.000000 0.000000
0.439534 0.000000 0.000000
0.859961 0.000000 0.000000
0.931158 0.000000 0.000000
0.948690 0.201486 0.111678
0.955423 0.340429 0.230025
0.959385 0.439648 0.319993
0.003166 0.037299 0.036722
0.038848 0.038848 0.038848
0.192213 0.000000 0.000000
0.472997 0.000000 0.000000
0.861471 0.000000 0.000000
0.930404 0.000000 0.000000
0.948138 0.190652 0.102062
0.954872 0.327129 0.217721
0.958812 0.423454 0.304467
0.102596 0.290133 0.185449
0.150078 0.363265 0.206205
0.393758 0.413203 0.164791
0.713542 0.108745 0.000000
0.889352 0.000000 0.000000
0.935256 0.000000 0.000000
0.949367 0.209952 0.114782
0.955593 0.340923 0.227674
0.959345 0.435422 0.313805
0.352466 0.825645 0.490836
0.369740 0.844799 0.504715
0.542349 0.915511 0.510070
0.898439 0.910940 0.392607
0.970703 0.458666 0.023953
0.950468 0.187474 0.060673
0.953929 0.287388 0.168063
0.958500 0.401691 0.274700
0.961518 0.489360 0.359006
0.700468 0.987852 0.849097
0.703124 0.988150 0.851418
0.744092 0.990998 0.868188
0.912635 0.996388 0.860121
0.988064 0.991345 0.644862
0.986682 0.924690 0.475102
0.972893 0.719092 0.452798
0.968149 0.638684 0.451750
0.967464 0.654862 0.494882
0.897507 0.998043 0.942380
0.897072 0.998044 0.942556
0.902396 0.998052 0.944551
0.928007 0.997968 0.945741
0.983266 0.996934 0.923648
0.994952 0.995995 0.811686
0.991460 0.983380 0.800299
0.984439 0.952505 0.798838
0.979523 0.919124 0.785566
0.962442 0.995820 0.953370
0.962339 0.995827 0.953376
0.963670 0.995541 0.954301
0.966509 0.994758 0.956537
0.973940 0.992647 0.959236
0.986267 0.992525 0.946856
0.991734 0.992741 0.918186
0.990363 0.988101 0.910552
0.987912 0.981971 0.910661
0.970952 0.992632 0.961046
0.970919 0.992652 0.961012
0.971250 0.992378 0.961512
0.971717 0.991876 0.962380
0.974354 0.990433 0.963763
0.979310 0.988427 0.963809
0.985605 0.989437 0.955228
0.988096 0.989197 0.946305
0.988184 0.987541 0.941190
0.972631 0.991134 0.963434
0.972618 0.991141 0.963428
0.972926 0.990977 0.963565
0.973412 0.990684 0.963828
0.974433 0.989686 0.964918
0.977247 0.987602 0.966256
0.981015 0.986740 0.964532
0.984341 0.987174 0.959972
0.985963 0.987113 0.955549
0.000000 0.000000 0.054469
0.000000 0.000000 0.070134
0.107845 0.000000 0.059777
0.409270 0.000000 0.018462
0.851382 0.000000 0.000000
0.928411 0.000000 0.000000
0.947779 0.199499 0.121890
0.954924 0.337866 0.234393
0.959004 0.436042 0.321404
0.000000 0.000000 0.076421
0.000000 0.000000 0.101166
0.123510 0.000000 0.073388
0.427905 0.000000 0.016957
0.853506 0.000000 0.000000
0.928149 0.000000 0.000000
0.947343 0.190388 0.113351
0.954379 0.324770 0.222259
0.958454 0.420782 0.306842
0.061630 0.284538 0.268060
0.065714 0.305882 0.292834
0.256264 0.256264 0.256264
0.581224 0.000000 0.034111
0.883034 0.000000 0.000000
0.933795 0.005496 0.000000
0.948787 0.211512 0.126201
0.955301 0.342158 0.234853
0.959138 0.436242 0.319131
0.297099 0.827732 0.585954
0.306915 0.841576 0.599444
0.402018 0.896204 0.622711
0.848267 0.860497 0.480555
0.967506 0.431131 0.082953
0.949682 0.189386 0.076297
0.953491 0.288017 0.176628
0.958248 0.402866 0.281365
0.961362 0.490982 0.364838
0.678139 0.988236 0.869168
0.682176 0.988588 0.871155
0.716176 0.990909 0.883194
0.902718 0.996635 0.876337
0.987588 0.990883 0.658717
0.985878 0.919108 0.492003
0.972312 0.713392 0.460806
0.967860 0.638926 0.459294
0.967320 0.655429 0.499280
0.895371 0.998022 0.944577
0.894739 0.998025 0.944809
0.897336 0.998032 0.946486
0.931190 0.997884 0.946621
0.982906 0.996818 0.925967
0.994798 0.995854 0.818277
0.991250 0.983038 0.806902
0.984004 0.950750 0.802746
0.979136 0.917184 0.788756
0.962539 0.995714 0.953919
0.962444 0.995720 0.953931
0.963376 0.995510 0.954608
0.966720 0.994658 0.956843
0.973953 0.992478 0.959674
0.986118 0.992391 0.947549
0.991620 0.992626 0.919344
0.990223 0.987939 0.912137
0.987787 0.981846 0.912087
0.971006 0.992534 0.961262
0.970975 0.992554 0.961231
0.971183 0.992370 0.961567
0.971696 0.991823 0.962498
0.974325 0.990326 0.963963
0.979216 0.988343 0.963994
0.985563 0.989391 0.955373
0.988036 0.989130 0.946583
0.988097 0.987451 0.941705
0.972707 0.991065 0.963523
0.972697 0.991071 0.963515
0.972892 0.990963 0.963609
0.973361 0.990646 0.963923
0.974413 0.989605 0.965055
0.977194 0.987533 0.966371
0.980935 0.986666 0.964685
0.984275 0.987101 0.960146
0.985860 0.987003 0.955866
0.000000 0.000000 0.264409
0.000000 0.000000 0.286347
0.000000 0.000000 0.300416
0.317794 0.000000 0.190594
0.795434 0.000000 0.047504
0.909066 0.000000 0.107362
0.940144 0.192135 0.212545
0.951188 0.334573 0.291469
0.956755 0.433315 0.358894
0.000000 0.000000 0.277657
0.000000 0.000000 0.294151
0.000000 0.000000 0.309032
0.319496 0.000000 0.192460
0.795470 0.000000 0.046688
0.908352 0.000000 0.101153
0.939665 0.183288 0.204164
0.950747 0.324167 0.281404
0.956292 0.420791 0.346707
0.000000 0.130377 0.376122
0.000000 0.097292 0.392872
0.000000 0.000000 0.396874
0.358400 0.000000 0.225947
0.818532 0.000000 0.051741
0.914286 0.000000 0.121921
0.941216 0.199850 0.211958
0.951593 0.335598 0.286708
0.956894 0.430332 0.351534
0.176118 0.769262 0.737841
0.177372 0.773199 0.742234
0.209802 0.792758 0.767072
0.630920 0.630920 0.630920
0.922867 0.232774 0.332432
0.935803 0.161711 0.213665
0.948234 0.284517 0.254865
0.955713 0.402514 0.326900
0.959877 0.490694 0.393769
0.543300 0.984886 0.918561
0.546958 0.985169 0.919214
0.574963 0.987380 0.925129
0.801310 0.989765 0.918057
0.966430 0.971999 0.827590
0.980637 0.886858 0.595320
0.970969 0.711355 0.495865
0.967280 0.642402 0.479307
0.966844 0.655628 0.510929
0.848591 0.997575 0.958023
0.848885 0.997585 0.958098
0.857713 0.997615 0.958674
0.906321 0.997510 0.956299
0.978854 0.996198 0.937456
0.991508 0.992872 0.874485
0.989715 0.979417 0.831103
0.983128 0.948012 0.814710
0.978745 0.918420 0.803807
0.960111 0.995343 0.956938
0.960064 0.995349 0.956931
0.961555 0.995128 0.957294
0.965026 0.994518 0.958218
0.974229 0.992236 0.960113
0.985616 0.992157 0.949126
0.991270 0.992137 0.920832
0.989859 0.987304 0.914318
0.987331 0.981047 0.914699
0.971123 0.992219 0.961960
0.971092 0.992235 0.961938
0.971313 0.992050 0.962242
0.971696 0.991630 0.962932
0.974536 0.990045 0.964329
0.979182 0.988195 0.964221
0.985853 0.989495 0.954722
0.988077 0.989036 0.946157
0.987938 0.987204 0.942274
0.973151 0.990789 0.963778
0.973131 0.990800 0.963769
0.973256 0.990673 0.963929
0.973364 0.990395 0.964345
0.974441 0.989359 0.965414
0.977142 0.987365 0.966602
0.980971 0.986573 0.964755
0.984469 0.987127 0.959766
0.985764 0.986828 0.956091
0.000000 0.072761 0.595524
0.000000 0.052255 0.603479
0.000000 0.000000 0.654953
0.000000 0.000000 0.607616
0.576951 0.000000 0.315899
0.843925 0.000000 0.253223
0.917527 0.138704 0.356173
0.936963 0.304927 0.426286
0.946424 0.413410 0.482263
0.000000 0.072472 0.592848
0.000000 0.051635 0.600399
0.000000 0.000000 0.646600
0.000000 0.000000 0.600122
0.571058 0.000000 0.312577
0.839441 0.000000 0.241914
0.916186 0.125112 0.346181
0.936002 0.290957 0.414996
0.945629 0.399014 0.470079
0.000000 0.084718 0.609648
0.000000 0.064099 0.616612
0.000000 0.000000 0.661851
0.000000 0.000000 0.605546
0.574810 0.000000 0.314435
0.841574 0.000000 0.246032
0.916459 0.127147 0.347092
0.936064 0.291208 0.414706
0.945633 0.398376 0.469044
0.000000 0.367650 0.809267
0.000000 0.347330 0.806801
0.000000 0.282298 0.824470
0.182008 0.163902 0.799984
0.660541 0.000000 0.407262
0.873222 0.000000 0.329859
0.923158 0.191971 0.390099
0.940334 0.346359 0.452435
0.948893 0.448766 0.504358
0.502234 0.954099 0.943056
0.504660 0.953652 0.942646
0.534298 0.954131 0.943040
0.695052 0.945007 0.934639
0.897454 0.895075 0.894779
0.958239 0.769881 0.799845
0.956518 0.627322 0.667048
0.956982 0.599462 0.617662
0.959239 0.627519 0.623622
0.790063 0.994359 0.970540
0.791736 0.994338 0.970460
0.809372 0.994230 0.970266
0.866243 0.993437 0.967937
0.948693 0.988159 0.954442
0.978131 0.980398 0.932961
0.982189 0.963480 0.901083
0.977914 0.933537 0.870217
0.974923 0.908159 0.849107
0.932470 0.994781 0.967728
0.932496 0.994782 0.967718
0.935674 0.994601 0.967613
0.942748 0.994139 0.967317
0.962304 0.992664 0.964509
0.981003 0.990794 0.957404
0.986664 0.987747 0.940516
0.986461 0.982831 0.933058
0.984409 0.976071 0.928359
0.962621 0.991975 0.966345
0.962574 0.991985 0.966342
0.962919 0.991767 0.966647
0.963438 0.991242 0.967436
0.968191 0.989876 0.967721
0.977935 0.987581 0.965858
0.984310 0.988473 0.958060
0.986708 0.987496 0.949391
0.986377 0.985185 0.946891
0.969043 0.989454 0.967962
0.969023 0.989463 0.967958
0.969340 0.989238 0.968132
0.969857 0.988801 0.968485
0.971927 0.987735 0.968850
0.976567 0.986324 0.968070
0.980212 0.985776 0.966229
0.983904 0.986392 0.960802
0.985044 0.985779 0.957096
0.000000 0.098323 0.826986
0.000000 0.097657 0.824661
0.000000 0.046387 0.838393
0.000000 0.000000 0.855991
0.263556 0.000000 0.681090
0.694274 0.000000 0.461892
0.877629 0.028030 0.466510
0.918112 0.247735 0.525190
0.933668 0.376463 0.576104
0.000000 0.097917 0.824412
0.000000 0.097128 0.821619
0.000000 0.044200 0.833340
0.000000 0.000000 0.852543
0.257456 0.000000 0.677342
0.689940 0.000000 0.456933
0.874562 0.010269 0.456069
0.916508 0.231996 0.514256
0.932458 0.360669 0.564287
0.000000 0.098799 0.830012
0.000000 0.097884 0.826370
0.000000 0.047278 0.836127
0.000000 0.000000 0.851258
0.255958 0.000000 0.675725
0.688673 0.000000 0.455062
0.873623 0.004838 0.452790
0.916037 0.227392 0.511023
0.932142 0.356579 0.561196
0.000000 0.139152 0.858571
0.000000 0.136009 0.854165
0.000000 0.101252 0.862663
0.000000 0.001455 0.872018
0.298709 0.000000 0.708856
0.704091 0.000000 0.470658
0.881011 0.047653 0.477531
0.919579 0.261213 0.533477
0.934604 0.387458 0.583161
0.265041 0.826756 0.956693
0.259827 0.821149 0.956117
0.260652 0.807496 0.955595
0.289667 0.764659 0.952359
0.751698 0.728636 0.929028
0.907502 0.493667 0.846566
0.929763 0.442426 0.720150
0.938779 0.478436 0.678262
0.945426 0.537171 0.687408
0.831139 0.976788 0.971474
0.830973 0.976715 0.971404
0.835805 0.976742 0.971587
0.851116 0.976231 0.971483
0.911812 0.968447 0.965112
0.954255 0.953782 0.953425
0.967978 0.933859 0.938352
0.967787 0.907146 0.916181
0.966574 0.885871 0.897055
0.909699 0.989471 0.975297
0.909674 0.989463 0.975268
0.911655 0.989336 0.975341
0.916848 0.988911 0.975320
0.937745 0.986065 0.972580
0.963849 0.979664 0.965638
0.973728 0.974806 0.960658
0.978097 0.970627 0.953732
0.977503 0.964131 0.948859
0.940619 0.990535 0.974430
0.940592 0.990539 0.974419
0.941487 0.990383 0.974486
0.943506 0.990013 0.974592
0.951210 0.988706 0.973806
0.967954 0.985286 0.969693
0.977198 0.983705 0.966270
0.979670 0.980673 0.961971
0.980646 0.978580 0.959358
0.953667 0.989245 0.973626
0.953669 0.989245 0.973625
0.954127 0.989081 0.973702
0.955468 0.988702 0.973777
0.960889 0.987635 0.973239
0.970301 0.985557 0.971165
0.977402 0.984303 0.969056
0.980174 0.983415 0.965807
0.981215 0.981950 0.963222
0.000000 0.209883 0.908888
0.000000 0.205862 0.907896
0.000000 0.198861 0.907939
0.000000 0.190115 0.906639
0.234847 0.143827 0.881178
0.629519 0.000000 0.723183
0.825820 0.000000 0.629828
0.896517 0.204580 0.625851
0.921303 0.348694 0.655539
0.000000 0.203759 0.907369
0.000000 0.199199 0.906221
0.000000 0.189375 0.905851
0.000000 0.175125 0.904785
0.221681 0.126881 0.878303
0.614887 0.000000 0.711842
0.819894 0.000000 0.618738
0.893917 0.185176 0.613106
0.919355 0.329542 0.643087
0.000000 0.211518 0.909285
0.000000 0.205776 0.907872
0.000000 0.194684 0.906988
0.000000 0.169136 0.904011
0.217637 0.120424 0.877126
0.610214 0.000000 0.707910
0.818113 0.000000 0.615325
0.893252 0.180220 0.609778
0.918890 0.324993 0.640087
0.000000 0.232766 0.912887
0.000000 0.222438 0.911292
0.000000 0.214736 0.911088
0.000000 0.189744 0.906686
0.227035 0.128931 0.878417
0.620531 0.000000 0.715126
0.822856 0.000000 0.623392
0.895285 0.194889 0.619084
0.920443 0.339965 0.649670
0.021987 0.522728 0.942843
0.004432 0.508713 0.941881
0.012077 0.493772 0.940195
0.067308 0.488107 0.938251
0.418569 0.485998 0.927407
0.792220 0.229354 0.851588
0.873703 0.191618 0.746698
0.911622 0.330007 0.709306
0.930138 0.445074 0.720459
0.773866 0.956969 0.973841
0.771828 0.956604 0.973738
0.776496 0.956494 0.973803
0.785768 0.955015 0.973661
0.831556 0.944037 0.970256
0.938576 0.933865 0.959568
0.956489 0.910011 0.946219
0.958810 0.879814 0.928976
0.958538 0.857002 0.913577
0.905536 0.979843 0.976576
0.905572 0.979824 0.976560
0.907173 0.979791 0.976583
0.911187 0.979612 0.976548
0.929095 0.977195 0.974591
0.955708 0.970654 0.969100
0.964795 0.964794 0.964783
0.970770 0.960585 0.961652
0.971943 0.955247 0.957136
0.931893 0.985186 0.977413
0.931844 0.985182 0.977400
0.932850 0.985090 0.977410
0.934884 0.984843 0.977369
0.944404 0.983299 0.976158
0.960708 0.978856 0.972246
0.968501 0.974782 0.969358
0.972623 0.973178 0.967663
0.975518 0.971729 0.965036
0.944093 0.986554 0.977125
0.944062 0.986559 0.977120
0.945145 0.986413 0.977068
0.947354 0.986087 0.976929
0.953188 0.985015 0.976137
0.963804 0.982039 0.973510
0.970208 0.978725 0.971145
0.974232 0.977824 0.969889
0.975511 0.976231 0.968524
0.000000 0.383777 0.929312
0.000000 0.378716 0.928890
0.000000 0.372573 0.928364
0.002282 0.378388 0.927520
0.230487 0.383166 0.921464
0.626004 0.196525 0.867286
0.818395 0.098280 0.789931
0.880271 0.223070 0.756164
0.908886 0.347111 0.755377
0.000000 0.374120 0.928512
0.000000 0.368328 0.928033
0.000000 0.359892 0.927306
0.000000 0.362360 0.926049
0.213897 0.365262 0.919590
0.610664 0.173935 0.862918
0.810694 0.072727 0.781442
0.876231 0.200131 0.745739
0.906271 0.325431 0.743680
0.000000 0.383250 0.929268
0.000000 0.374817 0.928569
0.000000 0.367131 0.927918
0.000000 0.356505 0.925494
0.208690 0.358953 0.918898
0.605860 0.166618 0.861461
0.808379 0.065064 0.778771
0.875184 0.194237 0.742929
0.905673 0.320501 0.740890
0.000000 0.403991 0.930991
0.000000 0.392401 0.930034
0.000000 0.388375 0.929695
0.000000 0.373780 0.927125
0.216482 0.364412 0.919396
0.614688 0.176230 0.863189
0.812860 0.078812 0.783189
0.877988 0.209628 0.749795
0.907531 0.335523 0.748972
0.098118 0.512424 0.940014
0.081024 0.498387 0.938988
0.087584 0.501034 0.939101
0.123909 0.507444 0.938880
0.308829 0.500572 0.933480
0.698153 0.335895 0.892460
0.847329 0.211586 0.824853
0.892619 0.299951 0.789160
0.915698 0.407657 0.785818
0.651494 0.922446 0.970923
0.642102 0.920063 0.970617
0.639690 0.916808 0.970183
0.637234 0.908196 0.968922
0.685571 0.894419 0.965904
0.905063 0.901570 0.959312
0.940683 0.854177 0.943152
0.944857 0.793224 0.921253
0.946106 0.765693 0.904475
0.897699 0.972901 0.977077
0.897288 0.972837 0.977052
0.898907 0.972833 0.977054
0.903002 0.972746 0.976999
0.915996 0.971138 0.975960
0.942723 0.963902 0.971915
0.962093 0.960925 0.967369
0.967094 0.957087 0.964251
0.968853 0.953275 0.961370
0.932309 0.979945 0.977508
0.932261 0.979937 0.977501
0.933550 0.979852 0.977453
0.936292 0.979619 0.977307
0.943928 0.978433 0.976357
0.958374 0.974669 0.973211
0.965598 0.971446 0.970851
0.969180 0.969076 0.969021
0.971752 0.967609 0.967837
0.945732 0.982369 0.977383
0.945637 0.982373 0.977382
0.946586 0.982264 0.977335
0.948247 0.982031 0.977216
0.952528 0.981149 0.976592
0.961730 0.978286 0.974301
0.967515 0.975465 0.972212
0.970671 0.973584 0.970944
0.972545 0.972733 0.970133
0.121117 0.508193 0.939026
0.114793 0.503085 0.938651
0.105916 0.496020 0.938131
0.137442 0.504445 0.938228
0.279033 0.517264 0.936040
0.618484 0.430601 0.913164
0.827672 0.279232 0.864228
0.881409 0.308698 0.831927
0.905684 0.389790 0.820481
0.109190 0.498650 0.938326
0.100782 0.492039 0.937840
0.088624 0.482571 0.937140
0.118465 0.488342 0.937002
0.260301 0.499145 0.934554
0.603200 0.409412 0.910548
0.819159 0.252497 0.858739
0.876688 0.283240 0.824748
0.902528 0.366333 0.812370
0.119561 0.506932 0.938933
0.108247 0.497861 0.938267
0.097928 0.489809 0.937675
0.111582 0.482327 0.936531
0.254114 0.492790 0.934014
0.597878 0.402125 0.909632
0.816731 0.244862 0.857106
0.875416 0.276479 0.822767
0.901800 0.360978 0.810427
0.145619 0.527833 0.940441
0.130435 0.515655 0.939567
0.125270 0.511510 0.939267
0.132214 0.500476 0.937945
0.261946 0.498826 0.934478
0.606734 0.411539 0.910718
0.822021 0.260044 0.860182
0.878650 0.293247 0.827446
0.904125 0.377859 0.816263
0.221059 0.596062 0.945301
0.200170 0.579441 0.944214
0.202999 0.581475 0.944342
0.226374 0.588224 0.944447
0.330362 0.580795 0.941352
0.656773 0.492499 0.920627
0.844981 0.343116 0.876763
0.890135 0.359912 0.845987
0.911120 0.432946 0.834949
0.562387 0.872693 0.965028
0.547602 0.866265 0.964409
0.545197 0.861237 0.963815
0.547089 0.849744 0.962370
0.607177 0.850299 0.961399
0.855928 0.869257 0.957865
0.923078 0.804573 0.941125
0.932523 0.718257 0.919141
0.937898 0.706476 0.905101
0.886180 0.967243 0.976896
0.885274 0.967108 0.976867
0.887006 0.967105 0.976852
0.890299 0.966695 0.976729
0.895804 0.964078 0.975884
0.926904 0.957639 0.972392
0.958050 0.956354 0.968081
0.964351 0.951847 0.964575
0.966265 0.946586 0.961112
0.932811 0.976287 0.977358
0.932565 0.976274 0.977356
0.933732 0.976204 0.977310
0.936212 0.976011 0.977176
0.941923 0.975225 0.976554
0.954711 0.972111 0.974154
0.961863 0.968503 0.972088
0.967926 0.967472 0.970089
0.970097 0.966221 0.968907
0.947120 0.979213 0.977183
0.947056 0.979209 0.977180
0.947835 0.979133 0.977139
0.949304 0.978954 0.977032
0.952568 0.978317 0.976571
0.960652 0.975978 0.974659
0.966258 0.973556 0.972832
0.969173 0.971918 0.971689
0.970925 0.970871 0.970779
