luts/P4P_07_NightNeon_size33.cube
# POCKET 4P D-Log2 LUT pack v1.0 - NightNeon
# Interiors and night. Open shadows, magenta/cyan separation.
# Input:  DJI Osmo Pocket 4P D-Log2 / D-Gamut2, full range
# Output: Rec.709 / gamma 2.4 display
# Built on DJI's official D-Log2 to Rec.709 colorimetry with a
# scene-linear highlight shoulder so nothing clips at +7 stops.
TITLE "POCKET 4P NightNeon v1.0"
LUT_3D_SIZE 9
DOMAIN_MIN 0.0 0.0 0.0
DOMAIN_MAX 1.0 1.0 1.0
0.036484 0.012580 0.062778
0.073947 0.000000 0.053772
0.194359 0.000000 0.044429
0.502146 0.000000 0.029601
0.843425 0.000000 0.006766
0.908368 0.163066 0.142467
0.918406 0.338865 0.266452
0.922369 0.435819 0.352807
0.924797 0.503714 0.418105
0.035797 0.070530 0.082506
0.101806 0.090903 0.066710
0.262400 0.047680 0.033261
0.528493 0.000000 0.014021
0.844194 0.000000 0.003433
0.907930 0.154593 0.135577
0.918103 0.331020 0.259042
0.922028 0.425997 0.343114
0.924437 0.492246 0.406311
0.073981 0.268064 0.167028
0.119224 0.326752 0.152933
0.379471 0.396384 0.108498
0.697949 0.249345 0.013675
0.869904 0.000000 0.000000
0.910666 0.188502 0.149717
0.918874 0.344404 0.267226
0.922515 0.435687 0.350059
0.924803 0.500345 0.412747
0.165239 0.675681 0.354402
0.170830 0.698239 0.356855
0.273375 0.790778 0.297819
0.769647 0.793510 0.198153
0.935424 0.491082 0.072947
0.920131 0.324658 0.217044
0.921698 0.397567 0.303804
0.924408 0.477386 0.383562
0.926273 0.537608 0.445745
0.278079 0.931763 0.576738
0.279013 0.932939 0.579551
0.293044 0.942544 0.593189
0.474547 0.965856 0.467915
0.932633 0.945417 0.283159
0.950265 0.830341 0.389238
0.935495 0.674584 0.478985
0.931200 0.629079 0.497183
0.930370 0.641074 0.532689
0.455611 0.974325 0.712587
0.456055 0.974320 0.713566
0.477424 0.974407 0.724052
0.565030 0.974181 0.734582
0.873682 0.970335 0.655334
0.959241 0.963177 0.476598
0.956068 0.925854 0.612564
0.945940 0.879307 0.692907
0.940690 0.844501 0.714882
0.806413 0.964303 0.817649
0.807626 0.964191 0.818468
0.819920 0.963071 0.825995
0.841917 0.960627 0.841200
0.885729 0.955366 0.862885
0.932107 0.954688 0.831661
0.952794 0.953391 0.774218
0.952790 0.941131 0.789904
0.949536 0.928906 0.809640
0.877946 0.955068 0.869075
0.877955 0.955064 0.869099
0.881397 0.954345 0.872232
0.885946 0.953254 0.876830
0.900633 0.950472 0.885564
0.922140 0.946959 0.891179
0.939692 0.947831 0.872638
0.947320 0.946532 0.857748
0.948956 0.942559 0.853753
0.892524 0.951799 0.882344
0.892562 0.951794 0.882350
0.894341 0.951455 0.883356
0.897167 0.950852 0.885235
0.904338 0.949015 0.891097
0.918897 0.945594 0.899446
0.932008 0.943923 0.898445
0.940675 0.943973 0.890525
0.944808 0.943429 0.883181
0.022573 0.000000 0.076369
0.068754 0.000000 0.087414
0.211631 0.000000 0.084519
0.503936 0.000000 0.067885
0.844041 0.000000 0.019548
0.908067 0.163825 0.147590
0.918238 0.338506 0.268496
0.922247 0.435081 0.353675
0.924704 0.502870 0.418430
0.025152 0.068408 0.113539
0.093924 0.074248 0.115567
0.275769 0.000000 0.076238
0.529965 0.000000 0.058893
0.845384 0.000000 0.016829
0.907659 0.156123 0.141426
0.917919 0.330742 0.261317
0.921917 0.425823 0.344630
0.924350 0.491778 0.407115
0.062477 0.292334 0.213173
0.093466 0.341652 0.212317
0.366309 0.381919 0.138821
0.707801 0.204218 0.025749
0.870187 0.000000 0.000000
0.910503 0.190928 0.155610
0.918668 0.343767 0.269397
0.922378 0.434946 0.351127
0.924702 0.499626 0.413342
0.161930 0.685269 0.373727
0.166406 0.706693 0.378784
0.260750 0.796930 0.320647
0.768109 0.790152 0.210571
0.934619 0.472597 0.085863
0.919821 0.321861 0.217681
0.921519 0.395780 0.303965
0.924266 0.475331 0.382838
0.926142 0.535245 0.444353
0.278188 0.932467 0.581481
0.278757 0.933401 0.584080
0.292057 0.942675 0.597220
0.466627 0.966166 0.473774
0.932347 0.944891 0.287032
0.949850 0.826900 0.392751
0.935076 0.667718 0.477352
0.930999 0.626615 0.497192
0.930291 0.641469 0.534894
0.455228 0.974328 0.713583
0.454372 0.974333 0.714400
0.474055 0.974407 0.724406
0.565121 0.974108 0.735405
0.873133 0.970328 0.656041
0.959172 0.963106 0.476181
0.956050 0.925536 0.610875
0.945703 0.877264 0.691585
0.940419 0.841606 0.712995
0.807045 0.964215 0.818427
0.806534 0.964239 0.818359
0.817690 0.963227 0.825235
0.841225 0.960690 0.840918
0.885154 0.955461 0.862514
0.932035 0.954724 0.831424
0.952869 0.953501 0.772297
0.952898 0.941203 0.787711
0.949604 0.928870 0.808194
0.877861 0.955066 0.869131
0.877610 0.955113 0.868931
0.880684 0.954471 0.871749
0.885558 0.953331 0.876541
0.900351 0.950532 0.885385
0.922062 0.946973 0.891164
0.939692 0.947870 0.872411
0.947355 0.946581 0.857258
0.949018 0.942607 0.852904
0.892536 0.951788 0.882402
0.892465 0.951801 0.882360
0.894114 0.951489 0.883284
0.896852 0.950932 0.884953
0.904104 0.949070 0.890940
0.918782 0.945621 0.899394
0.931981 0.943928 0.898441
0.940689 0.944006 0.890352
0.944859 0.943501 0.882682
0.000000 0.000000 0.155556
0.035287 0.000000 0.179560
0.225222 0.000000 0.194729
0.518037 0.000000 0.171898
0.845718 0.000000 0.097223
0.906341 0.173910 0.186052
0.917544 0.339180 0.279824
0.921860 0.434434 0.358821
0.924415 0.501211 0.420775
0.000000 0.037060 0.185457
0.027852 0.000000 0.215589
0.250067 0.000000 0.216898
0.535025 0.000000 0.172848
0.847107 0.000000 0.095849
0.906214 0.168976 0.180220
0.917301 0.332576 0.273345
0.921535 0.425313 0.349916
0.924073 0.490763 0.410192
0.031554 0.308598 0.315852
0.033182 0.327615 0.336674
0.298783 0.292776 0.305389
0.657469 0.077125 0.209811
0.870216 0.000000 0.092304
0.909363 0.202998 0.189277
0.918195 0.346627 0.281026
0.922127 0.436820 0.358142
0.924522 0.500937 0.418452
0.130663 0.704421 0.469374
0.134139 0.719004 0.476654
0.202717 0.772629 0.468190
0.715375 0.729814 0.377179
0.931576 0.462684 0.166534
0.919160 0.325583 0.234076
0.921157 0.397571 0.312738
0.924045 0.477057 0.389271
0.925999 0.537039 0.449703
0.268483 0.934265 0.620396
0.269558 0.935357 0.622479
0.280280 0.942829 0.633274
0.437152 0.967028 0.514701
0.930156 0.942376 0.324976
0.948685 0.821594 0.416817
0.934529 0.665961 0.486770
0.930731 0.627895 0.504483
0.930160 0.642442 0.538975
0.457011 0.974166 0.725361
0.455647 0.974185 0.726336
0.466860 0.974241 0.734513
0.585021 0.973598 0.743265
0.873158 0.969785 0.670051
0.958666 0.962494 0.491490
0.955624 0.925025 0.622115
0.945179 0.875437 0.699576
0.940032 0.840179 0.718340
0.810152 0.963813 0.821832
0.809722 0.963831 0.821810
0.817613 0.963094 0.826757
0.843467 0.960379 0.842836
0.886518 0.955042 0.864781
0.931979 0.954408 0.834241
0.952663 0.953219 0.776168
0.952662 0.940947 0.791696
0.949423 0.928775 0.811118
0.878827 0.954828 0.870278
0.878590 0.954872 0.870091
0.880598 0.954443 0.871974
0.885884 0.953205 0.877121
0.900822 0.950314 0.886312
0.922045 0.946832 0.891854
0.939672 0.947788 0.872908
0.947287 0.946465 0.858095
0.948903 0.942480 0.854217
0.893116 0.951650 0.882894
0.893058 0.951659 0.882853
0.894123 0.951454 0.883470
0.896949 0.950846 0.885372
0.904429 0.948913 0.891563
0.918857 0.945507 0.899849
0.931922 0.943823 0.898933
0.940643 0.943896 0.890889
0.944752 0.943339 0.883586
0.000000 0.096499 0.408014
0.000000 0.000000 0.437425
0.113493 0.000000 0.467026
0.509056 0.000000 0.400427
0.842137 0.000000 0.268140
0.899869 0.180456 0.325648
0.912442 0.351068 0.373903
0.918994 0.442647 0.417111
0.922625 0.506132 0.458528
0.000000 0.112165 0.417908
0.000000 0.017001 0.452956
0.118510 0.000000 0.476132
0.509555 0.000000 0.400785
0.841992 0.000000 0.267414
0.899574 0.174790 0.321184
0.912185 0.344650 0.367753
0.918736 0.435344 0.409777
0.922339 0.497528 0.449737
0.000000 0.224853 0.488307
0.000000 0.207884 0.514396
0.145844 0.097075 0.532971
0.562500 0.000000 0.445453
0.857997 0.000000 0.281614
0.901570 0.205660 0.332376
0.913003 0.355402 0.371611
0.919291 0.442340 0.412127
0.922753 0.503321 0.452065
0.081923 0.689391 0.656528
0.082343 0.692880 0.659827
0.095912 0.712540 0.684014
0.602097 0.593653 0.599986
0.898681 0.386749 0.472338
0.910345 0.333506 0.381571
0.917154 0.409470 0.393483
0.921998 0.484572 0.434857
0.924766 0.541673 0.478149
0.211331 0.930924 0.759333
0.214656 0.931537 0.759914
0.236096 0.936813 0.766731
0.481924 0.939101 0.742843
0.892122 0.899882 0.656984
0.941945 0.797711 0.548305
0.933230 0.670060 0.521613
0.930195 0.632764 0.523012
0.929740 0.644373 0.550069
0.419846 0.971822 0.797745
0.419973 0.971884 0.797864
0.438269 0.972024 0.800342
0.557063 0.971105 0.796873
0.860680 0.967009 0.739592
0.949168 0.951718 0.654893
0.952853 0.918802 0.675074
0.944153 0.873175 0.719637
0.939633 0.842800 0.735112
0.812861 0.962303 0.837194
0.812604 0.962321 0.837111
0.821402 0.961622 0.840543
0.841481 0.959816 0.848878
0.889072 0.954484 0.867284
0.930878 0.953914 0.839581
0.952129 0.951866 0.784013
0.952124 0.939709 0.798757
0.948804 0.927607 0.817736
0.881688 0.954068 0.873897
0.881486 0.954104 0.873760
0.883409 0.953690 0.875465
0.887274 0.952764 0.879219
0.902704 0.949781 0.888195
0.922410 0.946577 0.892843
0.940369 0.947936 0.871374
0.947500 0.946226 0.857635
0.948733 0.942048 0.856076
0.895687 0.951117 0.884510
0.895581 0.951138 0.884452
0.896565 0.950888 0.885320
0.898293 0.950331 0.887408
0.905574 0.948457 0.893240
0.919232 0.945234 0.900818
0.932252 0.943667 0.899367
0.941120 0.943910 0.890193
0.944731 0.943050 0.884483
0.000000 0.242331 0.721942
0.000000 0.232372 0.733110
0.000000 0.116308 0.800324
0.301973 0.003307 0.784298
0.792047 0.000000 0.585615
0.891377 0.082937 0.501236
0.906329 0.335546 0.517913
0.912610 0.445511 0.548257
0.916679 0.514888 0.577520
0.000000 0.241520 0.719594
0.000000 0.231266 0.730580
0.000000 0.113967 0.794928
0.299069 0.000000 0.779020
0.787835 0.000000 0.581772
0.890453 0.067587 0.495134
0.905842 0.325933 0.511569
0.912158 0.435962 0.540853
0.916246 0.505246 0.569464
0.000000 0.252618 0.731940
0.000000 0.242378 0.741873
0.000000 0.137125 0.801321
0.306144 0.021705 0.782098
0.789257 0.000000 0.581934
0.890860 0.074223 0.497006
0.905923 0.327329 0.511985
0.912173 0.436082 0.540549
0.916239 0.504756 0.568670
0.000000 0.463020 0.832385
0.000000 0.450940 0.833161
0.000000 0.418634 0.853416
0.394370 0.375802 0.821275
0.845933 0.000000 0.681880
0.897630 0.189607 0.540476
0.908270 0.372469 0.537933
0.914043 0.472834 0.563662
0.917916 0.537439 0.590361
0.345647 0.888311 0.872883
0.349140 0.887620 0.872363
0.381494 0.887921 0.872689
0.563255 0.873755 0.863008
0.838279 0.821459 0.831871
0.922191 0.745149 0.780915
0.922623 0.654930 0.698194
0.922570 0.633742 0.661051
0.923888 0.649109 0.660954
0.477560 0.960173 0.877726
0.480328 0.960069 0.877603
0.509300 0.959491 0.878026
0.622433 0.955869 0.876711
0.840516 0.940652 0.866166
0.926671 0.926229 0.844935
0.942550 0.900058 0.822341
0.938835 0.864351 0.805529
0.936096 0.840022 0.794145
0.763822 0.959868 0.875614
0.763851 0.959871 0.875580
0.775433 0.959272 0.876728
0.800484 0.957842 0.879304
0.859308 0.954353 0.880012
0.918560 0.951282 0.865760
0.943745 0.942431 0.847971
0.946934 0.932640 0.847507
0.945147 0.921114 0.850514
0.867275 0.952738 0.888259
0.867096 0.952760 0.888209
0.869629 0.952275 0.889902
0.874789 0.951133 0.893936
0.891667 0.948702 0.898903
0.920701 0.945589 0.898420
0.937741 0.946181 0.881222
0.945573 0.943314 0.868802
0.946684 0.938708 0.869877
0.895309 0.947980 0.900635
0.895232 0.947994 0.900604
0.896872 0.947607 0.901618
0.899767 0.946867 0.903571
0.907466 0.945273 0.906702
0.920773 0.943593 0.906684
0.931915 0.942542 0.904191
0.940762 0.942718 0.893966
0.944099 0.941271 0.888687
0.000000 0.317956 0.875684
0.000000 0.316711 0.874266
0.000000 0.293960 0.887117
0.055812 0.230522 0.890436
0.593823 0.002911 0.864129
0.870307 0.000000 0.747969
0.901301 0.265622 0.646097
0.909716 0.416764 0.648263
0.914039 0.501441 0.666602
0.000000 0.316761 0.874085
0.000000 0.315287 0.872384
0.000000 0.290690 0.884200
0.049919 0.221968 0.889306
0.586964 0.000000 0.862135
0.868310 0.000000 0.743478
0.900592 0.252877 0.640663
0.909182 0.405992 0.641812
0.913543 0.490910 0.659387
0.000000 0.319376 0.877568
0.000000 0.317480 0.875331
0.000000 0.293508 0.885663
0.049914 0.218989 0.888726
0.585117 0.000000 0.861366
0.867672 0.000000 0.741747
0.900374 0.248966 0.638917
0.909024 0.402832 0.639891
0.913413 0.488174 0.657488
0.000000 0.353365 0.892895
0.000000 0.349675 0.890233
0.000000 0.334680 0.898288
0.061475 0.280567 0.896649
0.612304 0.071496 0.868279
0.874365 0.000000 0.755494
0.902079 0.279626 0.651598
0.910175 0.425911 0.652806
0.914388 0.508681 0.670591
0.273498 0.783242 0.931055
0.271387 0.779176 0.930729
0.282853 0.769988 0.930850
0.340428 0.742465 0.928336
0.769443 0.739070 0.896021
0.906043 0.576428 0.858475
0.915746 0.548420 0.770292
0.917064 0.569897 0.733289
0.918932 0.605970 0.729970
0.680925 0.925713 0.919651
0.680838 0.925579 0.919542
0.688976 0.925690 0.920047
0.717078 0.924920 0.920490
0.830657 0.912679 0.913617
0.906719 0.894698 0.902848
0.929826 0.877551 0.891374
0.931443 0.851911 0.871359
0.930331 0.832981 0.854528
0.779585 0.948058 0.913623
0.779544 0.948030 0.913552
0.784606 0.947803 0.914125
0.797890 0.946957 0.915177
0.849172 0.940702 0.914111
0.904975 0.929898 0.909638
0.928451 0.924180 0.905625
0.937937 0.917816 0.899024
0.938392 0.909315 0.895955
0.838671 0.950040 0.911635
0.838575 0.950043 0.911592
0.841449 0.949743 0.912212
0.847802 0.949032 0.913495
0.868584 0.946278 0.914862
0.906290 0.940304 0.912709
0.926901 0.938749 0.906652
0.936706 0.933415 0.904215
0.940051 0.930081 0.902228
0.871437 0.947347 0.913838
0.871440 0.947347 0.913836
0.873110 0.947067 0.914399
0.877341 0.946410 0.915466
0.891071 0.944512 0.916765
0.911689 0.941573 0.916193
0.927469 0.940581 0.912478
0.935750 0.938398 0.908131
0.939559 0.935940 0.905917
0.000000 0.412561 0.920317
0.000000 0.410155 0.919993
0.000000 0.406171 0.920166
0.072924 0.397210 0.913381
0.481319 0.403084 0.889702
0.836483 0.135774 0.873148
0.894835 0.227883 0.801649
0.907481 0.389960 0.747786
0.912820 0.486626 0.740524
0.000000 0.408936 0.919838
0.000000 0.406203 0.919459
0.000000 0.400673 0.919614
0.061999 0.387578 0.912858
0.473317 0.392271 0.888818
0.832994 0.116933 0.871744
0.893781 0.212092 0.798737
0.906790 0.376637 0.741844
0.912199 0.473857 0.734549
0.000000 0.413542 0.920449
0.000000 0.410103 0.919984
0.000000 0.403760 0.919923
0.058306 0.383749 0.912610
0.471038 0.388146 0.888489
0.831925 0.110528 0.871230
0.893467 0.207363 0.797787
0.906613 0.373224 0.740242
0.912051 0.470815 0.733073
0.000000 0.425656 0.921157
0.000000 0.419842 0.920926
0.000000 0.415484 0.921021
0.069767 0.396862 0.913528
0.477273 0.393602 0.888963
0.834555 0.122977 0.872062
0.894302 0.219528 0.799728
0.907141 0.383311 0.744511
0.912539 0.480810 0.737664
0.152545 0.602324 0.930762
0.138108 0.593710 0.930602
0.153219 0.584652 0.929157
0.217940 0.582181 0.926023
0.568879 0.604461 0.906939
0.862415 0.414896 0.892914
0.904238 0.381956 0.832197
0.911747 0.474691 0.783523
0.915834 0.550126 0.770038
0.663700 0.900897 0.937412
0.661917 0.900425 0.937321
0.668222 0.900332 0.937488
0.683819 0.898595 0.937653
0.761682 0.885833 0.933729
0.896127 0.878973 0.919066
0.923931 0.853914 0.908553
0.928493 0.830018 0.892380
0.928284 0.812747 0.878157
0.806026 0.932895 0.931097
0.806124 0.932860 0.931075
0.809056 0.932849 0.931203
0.816553 0.932643 0.931381
0.851456 0.928752 0.929169
0.902908 0.919348 0.923194
0.921432 0.911748 0.919096
0.931717 0.908525 0.916760
0.934243 0.902508 0.912041
0.843265 0.941691 0.927646
0.843174 0.941677 0.927614
0.845356 0.941556 0.927813
0.849859 0.941186 0.928122
0.870751 0.938436 0.927314
0.905775 0.931150 0.923979
0.921772 0.925857 0.922376
0.930219 0.924398 0.920498
0.935411 0.922030 0.918081
0.863801 0.943903 0.925797
0.863723 0.943907 0.925773
0.866222 0.943664 0.925922
0.871316 0.943118 0.926179
0.884628 0.941201 0.926053
0.908271 0.936122 0.924490
0.921902 0.931654 0.923419
0.929414 0.931085 0.921412
0.933791 0.929020 0.920516
0.141711 0.517517 0.923173
0.136221 0.514319 0.923114
0.129954 0.510444 0.923024
0.188864 0.515599 0.920554
0.424239 0.533926 0.908475
0.776329 0.413810 0.899106
0.888001 0.322160 0.872121
0.905666 0.403154 0.833003
0.911838 0.485976 0.811267
0.130934 0.511407 0.923075
0.124223 0.507735 0.923028
0.115352 0.502403 0.922916
0.175170 0.505511 0.920173
0.413556 0.522972 0.907704
0.770245 0.399210 0.898140
0.886470 0.304774 0.870610
0.904763 0.387635 0.830148
0.911113 0.471583 0.806869
0.141159 0.517185 0.923166
0.131758 0.511849 0.923080
0.123451 0.506989 0.922989
0.170538 0.501833 0.920014
0.410401 0.519166 0.907396
0.768346 0.394449 0.897827
0.886031 0.299538 0.870120
0.904532 0.383636 0.829368
0.910948 0.468301 0.805817
0.162865 0.530262 0.923443
0.150749 0.522958 0.923288
0.146654 0.520421 0.923228
0.184029 0.512671 0.920490
0.416306 0.522782 0.907488
0.772484 0.400421 0.898261
0.886965 0.308891 0.870804
0.905153 0.394065 0.831135
0.911456 0.478292 0.808775
0.242421 0.597285 0.926365
0.229083 0.588591 0.926134
0.235282 0.590317 0.926014
0.272449 0.595152 0.924721
0.464332 0.602277 0.914855
0.797812 0.504941 0.904535
0.893698 0.398351 0.879274
0.908565 0.454684 0.842962
0.913803 0.525830 0.823386
0.602972 0.864550 0.939675
0.596760 0.862253 0.939530
0.598558 0.859230 0.939220
0.606146 0.851461 0.938127
0.665658 0.840150 0.934170
0.870696 0.854327 0.922481
0.915377 0.808051 0.915620
0.923412 0.766697 0.897281
0.924180 0.749924 0.881815
0.809273 0.923218 0.937884
0.808724 0.923112 0.937858
0.811352 0.923138 0.937885
0.818101 0.923075 0.937854
0.841138 0.920779 0.936535
0.890656 0.911600 0.931387
0.919951 0.908461 0.925903
0.929145 0.903724 0.922600
0.932300 0.900056 0.919312
0.854106 0.934102 0.934181
0.854029 0.934087 0.934169
0.856469 0.933982 0.934172
0.861715 0.933669 0.934115
0.876738 0.931859 0.933112
0.905595 0.926307 0.929606
0.920841 0.922139 0.926859
0.927901 0.918870 0.925526
0.932401 0.917836 0.924468
0.875074 0.937876 0.931774
0.874888 0.937878 0.931760
0.876831 0.937732 0.931808
0.880272 0.937405 0.931843
0.889325 0.936041 0.931425
0.908901 0.931685 0.929303
0.921169 0.927811 0.927691
0.927659 0.925512 0.926743
0.931403 0.924697 0.925989
0.269143 0.595493 0.924917
0.264239 0.592321 0.924832
0.257300 0.587925 0.924723
0.288137 0.593902 0.923808
0.429764 0.608756 0.917735
0.734244 0.577228 0.905710
0.878011 0.447975 0.897147
0.904702 0.461319 0.872155
0.911839 0.513912 0.852555
0.259852 0.589561 0.924765
0.253237 0.585443 0.924668
0.243608 0.579535 0.924534
0.273805 0.583916 0.923486
0.417069 0.597700 0.917159
0.726678 0.564254 0.904863
0.875752 0.430549 0.896037
0.903580 0.444515 0.870356
0.911017 0.498538 0.849800
0.267939 0.594710 0.924896
0.259129 0.589072 0.924750
0.250982 0.584052 0.924636
0.268654 0.580187 0.923355
0.412988 0.593842 0.916936
0.723975 0.559784 0.904568
0.875143 0.425547 0.895704
0.903285 0.440039 0.869857
0.910830 0.495018 0.849134
0.288121 0.607676 0.925233
0.276378 0.600126 0.925036
0.272374 0.597553 0.924969
0.284024 0.591424 0.923759
0.418815 0.597649 0.917050
0.728848 0.565429 0.904992
0.876628 0.435419 0.896280
0.904060 0.451124 0.870953
0.911431 0.506101 0.851056
0.342917 0.649415 0.926790
0.327000 0.639201 0.926531
0.329242 0.640461 0.926550
0.351369 0.645125 0.925956
0.459839 0.646336 0.920453
0.751102 0.615215 0.907996
0.882328 0.489435 0.899891
0.906819 0.494926 0.876072
0.913308 0.542027 0.857849
0.565611 0.822063 0.935863
0.555928 0.817079 0.935561
0.557236 0.813352 0.935047
0.566947 0.805189 0.933635
0.624584 0.806739 0.931423
0.835098 0.831098 0.922248
0.903066 0.776768 0.918658
0.917980 0.720795 0.903216
0.921493 0.714593 0.889200
0.803838 0.915507 0.940219
0.802720 0.915307 0.940208
0.805321 0.915330 0.940183
0.810987 0.914828 0.940088
0.823157 0.911385 0.939265
0.874077 0.904174 0.934056
0.916320 0.904398 0.928388
0.927379 0.897428 0.925526
0.931125 0.892193 0.921466
0.861199 0.928890 0.936964
0.860796 0.928863 0.936962
0.862887 0.928786 0.936937
0.867375 0.928551 0.936825
0.877992 0.927435 0.936077
0.902682 0.923055 0.933014
0.917509 0.919128 0.930257
0.927102 0.917063 0.928669
0.931180 0.915710 0.927159
0.881836 0.933480 0.934654
0.881723 0.933469 0.934647
0.883222 0.933382 0.934652
0.886083 0.933157 0.934622
0.892614 0.932243 0.934223
0.909085 0.928806 0.932124
0.921081 0.925451 0.930017
0.926926 0.923411 0.929164
0.930534 0.921915 0.928252
