luts/P4P_11_RetroFade_size33.cube
# POCKET 4P D-Log2 LUT pack v1.0 - RetroFade
# Faded stock. Lifted milky blacks, cyan shadows.
# Input:  DJI Osmo Pocket 4P D-Log2 / D-Gamut2, full range
# Output: Rec.709 / gamma 2.4 display
# Built on DJI's official D-Log2 to Rec.709 colorimetry with a
# scene-linear highlight shoulder so nothing clips at +7 stops.
TITLE "POCKET 4P RetroFade v1.0"
LUT_3D_SIZE 33
DOMAIN_MIN 0.0 0.0 0.0
DOMAIN_MAX 1.0 1.0 1.0
0.139934 0.140473 0.171825
0.139934 0.140473 0.171825
0.139934 0.140473 0.171825
0.155952 0.135536 0.169031
0.172323 0.134866 0.170936
0.189611 0.133964 0.173602
0.211887 0.133192 0.177627
0.240542 0.132676 0.183137
0.279170 0.133240 0.190372
0.327761 0.134896 0.198650
0.387737 0.138274 0.207886
0.457810 0.144141 0.218640
0.535166 0.152379 0.230293
0.614873 0.161072 0.242375
0.692571 0.165796 0.253933
0.758442 0.165304 0.264121
0.804934 0.168228 0.274121
0.831642 0.189082 0.287180
0.847234 0.244846 0.308632
0.855763 0.307817 0.333288
0.860340 0.359241 0.356640
0.863238 0.397252 0.377205
0.865438 0.426757 0.395564
0.867186 0.451067 0.412131
0.868644 0.471824 0.427154
0.869990 0.490265 0.441272
0.871214 0.507206 0.454429
0.872337 0.523089 0.466907
0.873350 0.537589 0.478492
0.874267 0.550844 0.489285
0.875093 0.562866 0.499307
0.875863 0.574352 0.509969
0.876555 0.584714 0.519585
0.139934 0.140473 0.171825
0.139934 0.140473 0.171825
0.139934 0.140473 0.171825
0.155952 0.135536 0.169031
0.172323 0.134866 0.170936
0.189611 0.133964 0.173602
0.211887 0.133192 0.177627
0.240542 0.132676 0.183137
0.279170 0.133240 0.190372
0.327761 0.134896 0.198650
0.387737 0.138274 0.207886
0.457810 0.144141 0.218640
0.535166 0.152379 0.230293
0.614873 0.161072 0.242375
0.692571 0.165796 0.253933
0.758442 0.165304 0.264121
0.804934 0.168228 0.274121
0.831642 0.189082 0.287180
0.847234 0.244846 0.308632
0.855763 0.307817 0.333288
0.860340 0.359241 0.356640
0.863238 0.397252 0.377205
0.865438 0.426757 0.395564
0.867186 0.451067 0.412131
0.868644 0.471824 0.427154
0.869990 0.490265 0.441272
0.871214 0.507206 0.454429
0.872337 0.523089 0.466907
0.873350 0.537589 0.478492
0.874267 0.550844 0.489285
0.875093 0.562866 0.499307
0.875863 0.574352 0.509969
0.876555 0.584714 0.519585
0.139934 0.140473 0.171825
0.139934 0.140473 0.171825
0.139934 0.140473 0.171825
0.155952 0.135536 0.169031
0.172323 0.134866 0.170936
0.189611 0.133964 0.173602
0.211887 0.133192 0.177627
0.240542 0.132676 0.183137
0.279170 0.133240 0.190372
0.327761 0.134896 0.198650
0.387737 0.138274 0.207886
0.457810 0.144141 0.218640
0.535166 0.152379 0.230293
0.614873 0.161072 0.242375
0.692571 0.165796 0.253933
0.758442 0.165304 0.264121
0.804934 0.168228 0.274121
0.831642 0.189082 0.287180
0.847234 0.244846 0.308632
0.855763 0.307817 0.333288
0.860340 0.359241 0.356640
0.863238 0.397252 0.377205
0.865438 0.426757 0.395564
0.867186 0.451067 0.412131
0.868644 0.471824 0.427154
0.869990 0.490265 0.441272
0.871214 0.507206 0.454429
0.872337 0.523089 0.466907
0.873350 0.537589 0.478492
0.874267 0.550844 0.489285
0.875093 0.562866 0.499307
0.875863 0.574352 0.509969
0.876555 0.584714 0.519585
0.135220 0.156988 0.173881
0.135220 0.156988 0.173881
0.135220 0.156988 0.173881
0.161759 0.163393 0.170527
0.186797 0.165256 0.165059
0.211632 0.163001 0.167068
0.238549 0.158462 0.171360
0.268409 0.154669 0.175911
0.304096 0.149863 0.182195
0.348932 0.145929 0.190215
0.403848 0.143923 0.200256
0.469350 0.146006 0.211895
0.541596 0.152155 0.225075
0.617304 0.160339 0.238412
0.692599 0.165727 0.250970
0.757368 0.166080 0.261821
0.803693 0.169122 0.272047
0.830384 0.188000 0.284791
0.846155 0.239917 0.305512
0.855097 0.301634 0.329776
0.859881 0.353122 0.352987
0.862846 0.391791 0.373566
0.865081 0.421705 0.391932
0.866852 0.446194 0.408435
0.868313 0.467039 0.423382
0.869627 0.485200 0.437189
0.870838 0.501836 0.450049
0.871944 0.517400 0.462240
0.872951 0.531756 0.473639
0.873869 0.544985 0.484340
0.874694 0.556950 0.494041
0.875443 0.568015 0.503945
0.876115 0.577998 0.513143
0.135569 0.175836 0.180391
0.135569 0.175836 0.180391
0.135569 0.175836 0.180391
0.160504 0.186898 0.173348
0.189466 0.192682 0.173836
0.220505 0.197857 0.164913
0.252998 0.198435 0.162474
0.290975 0.192097 0.166401
0.330538 0.182309 0.172849
0.374204 0.171953 0.180691
0.425820 0.161359 0.190697
0.486629 0.155403 0.203708
0.554186 0.155616 0.218177
0.625817 0.160693 0.233958
0.698058 0.165307 0.248218
0.760628 0.166074 0.260026
0.805233 0.169748 0.270758
0.831323 0.189613 0.284077
0.846495 0.241438 0.305000
0.855237 0.302738 0.329399
0.859951 0.353610 0.352565
0.862895 0.392149 0.373269
0.865101 0.421730 0.391528
0.866833 0.445730 0.407775
0.868282 0.466425 0.422655
0.869585 0.484467 0.436397
0.870788 0.500994 0.449190
0.871885 0.516444 0.461310
0.872883 0.530697 0.472634
0.873794 0.543820 0.483256
0.874613 0.555691 0.492887
0.875358 0.566689 0.502612
0.876026 0.576611 0.511752
0.136151 0.195582 0.188008
0.136151 0.195582 0.188008
0.136151 0.195582 0.188008
0.159185 0.210147 0.179010
0.187978 0.221177 0.175063
0.222514 0.227468 0.175059
0.262602 0.234003 0.166804
0.302363 0.235019 0.164483
0.347374 0.227742 0.165912
0.396376 0.213727 0.171229
0.449674 0.194469 0.180195
0.507474 0.176179 0.193856
0.570194 0.165823 0.209958
0.637341 0.164016 0.227730
0.705795 0.165604 0.244560
0.765683 0.165697 0.257730
0.807389 0.169791 0.269203
0.832521 0.190933 0.283327
0.847118 0.243970 0.304920
0.855595 0.305804 0.329874
0.860173 0.355979 0.353041
0.863032 0.393628 0.373563
0.865197 0.422757 0.391734
0.866897 0.446433 0.407900
0.868322 0.466900 0.422709
0.869637 0.485076 0.436611
0.870834 0.501544 0.449400
0.871907 0.516667 0.461292
0.872892 0.530727 0.472486
0.873799 0.543793 0.483072
0.874614 0.555612 0.492669
0.875356 0.566559 0.502335
0.876022 0.576435 0.511441
0.138034 0.220741 0.198464
0.138034 0.220741 0.198464
0.138034 0.220741 0.198464
0.156316 0.237607 0.189601
0.185176 0.251569 0.181122
0.219897 0.262790 0.178449
0.265013 0.271059 0.176611
0.312765 0.277631 0.170772
0.362347 0.277232 0.168445
0.415497 0.268242 0.168535
0.473225 0.249314 0.172681
0.532991 0.222560 0.182362
0.593303 0.193437 0.198085
0.655666 0.176492 0.218103
0.716498 0.169020 0.237893
0.773262 0.165727 0.253567
0.811155 0.169817 0.266826
0.834366 0.192854 0.282428
0.848177 0.248469 0.305421
0.856121 0.310347 0.330902
0.860495 0.359611 0.354119
0.863267 0.396382 0.374554
0.865389 0.425087 0.392738
0.867057 0.448460 0.408882
0.868431 0.468321 0.423383
0.869740 0.486339 0.437251
0.870925 0.502687 0.450014
0.871990 0.517747 0.461883
0.872968 0.531729 0.473055
0.873869 0.544718 0.483618
0.874680 0.556484 0.493207
0.875430 0.567564 0.503070
0.876104 0.577561 0.512306
0.141767 0.252646 0.211852
0.141767 0.252646 0.211852
0.141767 0.252646 0.211852
0.154165 0.270403 0.204029
0.179277 0.284952 0.191282
0.213776 0.298952 0.184722
0.261004 0.311637 0.182462
0.315907 0.321088 0.180752
0.371191 0.327494 0.175871
0.430335 0.325288 0.173060
0.493473 0.311265 0.172896
0.558355 0.285996 0.177675
0.622151 0.250921 0.188332
0.681683 0.209294 0.205128
0.732694 0.181370 0.225854
0.784678 0.168455 0.245755
0.816988 0.171211 0.262622
0.837287 0.197157 0.281201
0.849770 0.256256 0.306560
0.856879 0.317407 0.332743
0.860987 0.365357 0.356142
0.863628 0.400740 0.376397
0.865656 0.428385 0.394288
0.867270 0.451216 0.410298
0.868611 0.470744 0.424721
0.869917 0.488586 0.438550
0.871097 0.504892 0.451367
0.872170 0.520122 0.463419
0.873141 0.534038 0.474597
0.874021 0.546768 0.485000
0.874814 0.558314 0.494455
0.875559 0.569342 0.504437
0.876227 0.579292 0.513667
0.147215 0.293136 0.229964
0.147215 0.293136 0.229964
0.147215 0.293136 0.229964
0.154653 0.309286 0.222504
0.171690 0.323622 0.209649
0.200730 0.337976 0.198011
0.248688 0.354011 0.189795
0.307749 0.368339 0.187868
0.372787 0.377634 0.186859
0.434757 0.383315 0.182781
0.503063 0.377564 0.179776
0.575374 0.357900 0.180024
0.648973 0.323310 0.185210
0.710843 0.276292 0.195881
0.759673 0.219475 0.211670
0.800792 0.182695 0.231600
0.825799 0.178548 0.253637
0.842068 0.207753 0.278442
0.852329 0.269942 0.307944
0.858074 0.328324 0.335325
0.861663 0.373266 0.358854
0.864127 0.406783 0.378999
0.866031 0.433068 0.396577
0.867580 0.455270 0.412498
0.868920 0.474670 0.427037
0.870179 0.491999 0.440613
0.871329 0.508010 0.453284
0.872392 0.523119 0.465330
0.873355 0.536932 0.476503
0.874227 0.549579 0.486903
0.875013 0.561050 0.496357
0.875751 0.572028 0.506538
0.876414 0.581932 0.515779
0.155436 0.341562 0.250639
0.155436 0.341562 0.250639
0.155436 0.341562 0.250639
0.158203 0.354998 0.245618
0.167064 0.367859 0.233714
0.186422 0.381091 0.219155
0.226691 0.398432 0.205352
0.288734 0.415686 0.196248
0.360719 0.429228 0.195086
0.433390 0.438283 0.195009
0.503479 0.441629 0.191263
0.580023 0.432398 0.188849
0.660214 0.406457 0.189608
0.734294 0.357788 0.194015
0.787974 0.290681 0.201445
0.820102 0.224269 0.215001
0.837287 0.203681 0.241146
0.848872 0.236030 0.276303
0.855444 0.293876 0.310751
0.859685 0.345073 0.339396
0.862588 0.384244 0.362644
0.864780 0.414731 0.382508
0.866514 0.439389 0.399792
0.867953 0.460542 0.415419
0.869283 0.479390 0.429823
0.870524 0.496489 0.443377
0.871659 0.512384 0.456040
0.872708 0.527360 0.468092
0.873666 0.541171 0.479370
0.874543 0.553938 0.489968
0.875331 0.565490 0.499833
0.876048 0.576234 0.509949
0.876693 0.585926 0.519072
0.164672 0.397401 0.273709
0.164672 0.397401 0.273709
0.164672 0.397401 0.273709
0.164966 0.408137 0.270635
0.168464 0.418855 0.262578
0.178558 0.431005 0.249900
0.203590 0.446245 0.231801
0.255632 0.464378 0.213728
0.332855 0.481598 0.204409
0.416630 0.494298 0.204373
0.498033 0.501949 0.205096
0.574382 0.502353 0.201728
0.657428 0.487959 0.199488
0.737634 0.453440 0.198514
0.804420 0.390686 0.200918
0.839367 0.314831 0.210113
0.851685 0.280136 0.238275
0.857035 0.295243 0.281606
0.859459 0.333344 0.318170
0.861896 0.370044 0.346530
0.863918 0.400303 0.368726
0.865678 0.425828 0.387483
0.867165 0.447939 0.404097
0.868471 0.467693 0.419319
0.869794 0.485864 0.433594
0.871040 0.503071 0.447502
0.872159 0.518931 0.460280
0.873166 0.533419 0.472127
0.874093 0.546910 0.483308
0.874951 0.559515 0.493910
0.875722 0.570925 0.504175
0.876429 0.581600 0.514341
0.877064 0.591230 0.523509
0.174687 0.459725 0.298565
0.174687 0.459725 0.298565
0.174687 0.459725 0.298565
0.174267 0.467776 0.297829
0.174850 0.476147 0.293581
0.178240 0.485670 0.284911
0.189722 0.498650 0.269381
0.221531 0.515448 0.245893
0.288575 0.534288 0.224910
0.379078 0.551980 0.214651
0.474057 0.562785 0.215279
0.562061 0.567965 0.216496
0.645460 0.564484 0.213152
0.729953 0.543670 0.208903
0.803047 0.498498 0.205319
0.848313 0.435278 0.213516
0.862701 0.387089 0.250705
0.864291 0.374985 0.298904
0.864001 0.385770 0.333110
0.864613 0.402780 0.358111
0.865691 0.422026 0.377999
0.866877 0.441289 0.395032
0.868075 0.460170 0.410746
0.869316 0.478247 0.425541
0.870537 0.495122 0.439341
0.871713 0.511651 0.452948
0.872784 0.527012 0.465583
0.873765 0.541294 0.477488
0.874670 0.554618 0.488730
0.875506 0.567093 0.499634
0.876259 0.578393 0.510275
0.876956 0.589055 0.520556
0.877581 0.598673 0.529828
0.185541 0.527173 0.325608
0.185541 0.527173 0.325608
0.185541 0.527173 0.325608
0.184968 0.532389 0.325527
0.184636 0.538589 0.323844
0.185226 0.545982 0.319752
0.188983 0.556575 0.310176
0.202822 0.570892 0.291544
0.239441 0.588869 0.263457
0.318613 0.607953 0.237483
0.424619 0.624236 0.225049
0.530756 0.632784 0.226014
0.626444 0.634737 0.227221
0.715389 0.626064 0.222021
0.786596 0.597598 0.215159
0.847013 0.549386 0.217995
0.868728 0.501128 0.254654
0.872121 0.468981 0.313448
0.869580 0.452850 0.353443
0.868352 0.448903 0.376538
0.868282 0.454354 0.392369
0.868745 0.464919 0.406591
0.869555 0.478393 0.420403
0.870536 0.493205 0.434083
0.871578 0.508273 0.447375
0.872622 0.523488 0.460422
0.873600 0.537845 0.472745
0.874534 0.551695 0.484656
0.875390 0.564504 0.495748
0.876175 0.576384 0.507025
0.876883 0.587171 0.517394
0.877556 0.597643 0.527674
0.878161 0.607090 0.536945
0.197078 0.597493 0.354166
0.197078 0.597493 0.354166
0.197078 0.597493 0.354166
0.196548 0.600650 0.354472
0.195921 0.605074 0.354287
0.195461 0.610567 0.352900
0.195935 0.619208 0.348881
0.198942 0.630684 0.338291
0.212498 0.645356 0.316167
0.254808 0.663425 0.281084
0.346581 0.682719 0.248343
0.469119 0.697368 0.234106
0.587054 0.702979 0.235624
0.690842 0.700723 0.235760
0.769582 0.684197 0.227193
0.834217 0.652669 0.222968
0.867778 0.610248 0.247868
0.879020 0.572218 0.312064
0.876959 0.542866 0.367675
0.874487 0.520507 0.397641
0.872812 0.507442 0.413668
0.872122 0.504890 0.425711
0.872127 0.509478 0.436744
0.872528 0.517996 0.447803
0.873159 0.528774 0.459351
0.873980 0.541528 0.471533
0.874774 0.553807 0.483063
0.875566 0.565968 0.494226
0.876324 0.577702 0.505741
0.877054 0.589084 0.517127
0.877714 0.599408 0.527459
0.878341 0.609319 0.537447
0.878906 0.618258 0.546455
0.207677 0.669154 0.384003
0.207677 0.669154 0.384003
0.207677 0.669154 0.384003
0.207347 0.671068 0.384318
0.206933 0.674129 0.384704
0.206502 0.678628 0.385022
0.206467 0.684643 0.384041
0.207645 0.693476 0.379634
0.209939 0.704535 0.366649
0.222611 0.717357 0.339476
0.270129 0.732522 0.296846
0.376292 0.747325 0.257985
0.514060 0.756596 0.243842
0.641379 0.757729 0.244900
0.743126 0.751707 0.241743
0.811585 0.735410 0.232531
0.857693 0.710283 0.241837
0.879115 0.674997 0.290666
0.882965 0.641889 0.364491
0.881196 0.612760 0.414712
0.879111 0.588850 0.440466
0.877417 0.571644 0.453190
0.876316 0.561910 0.461364
0.875784 0.559149 0.469224
0.875692 0.561735 0.478016
0.876090 0.569723 0.488571
0.876546 0.578124 0.498781
0.877094 0.587365 0.509550
0.877668 0.596872 0.520204
0.878271 0.606672 0.530798
0.878819 0.615613 0.540444
0.879384 0.624796 0.550132
0.879892 0.633076 0.558869
0.216982 0.730522 0.408520
0.216982 0.730522 0.408520
0.216982 0.730522 0.408520
0.216836 0.731555 0.409001
0.216676 0.733451 0.409699
0.216421 0.735735 0.410330
0.216515 0.739295 0.410686
0.217533 0.744496 0.409768
0.218913 0.751558 0.404753
0.221020 0.760127 0.389849
0.237051 0.771640 0.357151
0.295660 0.788139 0.310083
0.416979 0.801230 0.268195
0.563206 0.807142 0.253095
0.696771 0.803057 0.251142
0.779458 0.790088 0.245161
0.839379 0.773920 0.242305
0.870500 0.753598 0.266426
0.883386 0.729615 0.334473
0.885927 0.702814 0.406944
0.884709 0.675822 0.454846
0.883117 0.653167 0.480595
0.881651 0.635390 0.493426
0.880488 0.622587 0.501071
0.879643 0.614157 0.506866
0.879297 0.612638 0.513848
0.879159 0.613644 0.521434
0.879298 0.617937 0.530163
0.879560 0.623627 0.539192
0.879939 0.630657 0.548545
0.880293 0.637177 0.557105
0.880750 0.645010 0.566180
0.881161 0.652072 0.574363
0.225723 0.777226 0.425014
0.225723 0.777226 0.425014
0.225723 0.777226 0.425014
0.225734 0.777745 0.425585
0.225895 0.779239 0.426340
0.226117 0.781336 0.427225
0.226908 0.784758 0.428506
0.228012 0.789204 0.429620
0.229606 0.795471 0.429307
0.231431 0.802759 0.423715
0.234154 0.811390 0.406411
0.254689 0.821921 0.369125
0.326861 0.832419 0.314697
0.465682 0.839987 0.272501
0.620825 0.841837 0.257263
0.740266 0.836340 0.255173
0.806510 0.824989 0.252692
0.855769 0.807488 0.255987
0.877038 0.785720 0.299130
0.886066 0.766988 0.370439
0.888057 0.746559 0.439560
0.887484 0.726736 0.487537
0.886359 0.709152 0.517261
0.885199 0.693622 0.534290
0.884154 0.680270 0.543685
0.883407 0.671483 0.549082
0.882824 0.665432 0.554218
0.882469 0.662635 0.559322
0.882291 0.662243 0.565016
0.882286 0.664104 0.571298
0.882301 0.666078 0.577165
0.882542 0.671059 0.584690
0.882759 0.675549 0.591474
0.236353 0.819315 0.437790
0.236353 0.819315 0.437790
0.236353 0.819315 0.437790
0.236364 0.819332 0.438272
0.236678 0.820351 0.439048
0.237079 0.821654 0.439957
0.237618 0.823373 0.441219
0.238398 0.825840 0.442844
0.239457 0.829172 0.444401
0.240863 0.833607 0.444415
0.242363 0.838535 0.438369
0.244218 0.844661 0.415623
0.274756 0.851833 0.370655
0.378884 0.858732 0.311574
0.541007 0.862695 0.277616
0.684900 0.861726 0.268126
0.774811 0.856209 0.265131
0.831973 0.847360 0.262567
0.865637 0.833795 0.280589
0.881795 0.815972 0.333953
0.888195 0.795218 0.403675
0.889862 0.779282 0.468615
0.889657 0.763842 0.518194
0.888932 0.750013 0.551954
0.888067 0.738083 0.572244
0.887292 0.728625 0.581678
0.886589 0.720765 0.588955
0.886032 0.714835 0.593809
0.885600 0.710629 0.598192
0.885302 0.708084 0.602153
0.885042 0.706015 0.605850
0.884994 0.706707 0.610620
0.884948 0.707331 0.614917
0.247347 0.844987 0.449594
0.247347 0.844987 0.449594
0.247347 0.844987 0.449594
0.247309 0.844969 0.449970
0.247633 0.845460 0.450654
0.248047 0.846169 0.451529
0.248712 0.847373 0.452891
0.249511 0.848870 0.454820
0.250529 0.850854 0.457227
0.251763 0.853502 0.459578
0.253035 0.856398 0.458756
0.255911 0.860064 0.449399
0.278973 0.864873 0.422093
0.357355 0.870454 0.378279
0.504640 0.874708 0.341563
0.643656 0.875833 0.325612
0.744206 0.873547 0.309846
0.803365 0.868403 0.296966
0.848439 0.860741 0.297128
0.872495 0.850472 0.323079
0.884710 0.837539 0.377711
0.889774 0.822992 0.440635
0.891269 0.807135 0.496257
0.891298 0.791905 0.544203
0.890942 0.781017 0.579831
0.890406 0.772003 0.599464
0.889822 0.764237 0.614253
0.889284 0.757950 0.623110
0.888806 0.752854 0.629737
0.888416 0.748906 0.634255
0.888055 0.745449 0.638326
0.887853 0.743832 0.641954
0.887663 0.742371 0.645221
0.277962 0.861094 0.466452
0.277962 0.861094 0.466452
0.277962 0.861094 0.466452
0.277665 0.861041 0.466649
0.278441 0.861403 0.467423
0.280017 0.861906 0.468595
0.281994 0.862625 0.470216
0.284416 0.863559 0.472504
0.287258 0.864907 0.475578
0.290828 0.866707 0.479407
0.295790 0.868728 0.482657
0.305904 0.871042 0.482059
0.339893 0.874138 0.472160
0.411031 0.877720 0.452410
0.529353 0.880594 0.435457
0.642414 0.882329 0.424255
0.730742 0.882461 0.404031
0.787091 0.880438 0.374673
0.829504 0.876217 0.353575
0.860839 0.870090 0.349708
0.878122 0.861676 0.374854
0.887130 0.852137 0.424343
0.891228 0.841648 0.479337
0.892797 0.830744 0.530997
0.893053 0.819683 0.574457
0.892714 0.808929 0.603173
0.892257 0.798694 0.625828
0.891818 0.791524 0.641133
0.891426 0.786314 0.652437
0.891066 0.782105 0.659737
0.890712 0.778354 0.666211
0.890467 0.775940 0.670371
0.890232 0.773751 0.674128
0.348339 0.872104 0.493493
0.348339 0.872104 0.493493
0.348339 0.872104 0.493493
0.347397 0.872014 0.493465
0.348970 0.872212 0.494363
0.351759 0.872585 0.495787
0.356100 0.873064 0.498069
0.362358 0.873766 0.501656
0.369238 0.874584 0.506092
0.378282 0.875605 0.511947
0.391002 0.876900 0.518932
0.408112 0.878207 0.524207
0.444813 0.879799 0.527056
0.504599 0.881539 0.525650
0.589051 0.883173 0.525962
0.671737 0.884703 0.524779
0.737862 0.885792 0.511565
0.783399 0.885946 0.482928
0.817036 0.884301 0.446531
0.850351 0.881300 0.419559
0.870251 0.876482 0.413626
0.882572 0.869947 0.436929
0.889181 0.862258 0.478370
0.892553 0.854573 0.525781
0.894116 0.846741 0.570821
0.894286 0.839267 0.604355
0.894292 0.832029 0.631508
0.894059 0.825178 0.651173
0.893786 0.818892 0.666312
0.893467 0.813252 0.677087
0.893113 0.808026 0.686753
0.892818 0.804257 0.692400
0.892517 0.800766 0.697551
0.447315 0.878735 0.534213
0.447315 0.878735 0.534213
0.447315 0.878735 0.534213
0.445853 0.878681 0.533882
0.449144 0.878818 0.535628
0.452628 0.879019 0.537483
0.458111 0.879295 0.540392
0.465734 0.879694 0.544526
0.474851 0.880161 0.549832
0.487886 0.880758 0.557379
0.504017 0.881453 0.566310
0.522151 0.882090 0.574833
0.550439 0.882836 0.583599
0.594344 0.883733 0.592232
0.654095 0.884924 0.603449
0.712637 0.886098 0.612229
0.756276 0.887094 0.609957
0.789884 0.887843 0.591677
0.816469 0.887854 0.555328
0.844558 0.886970 0.516754
0.864223 0.884621 0.490938
0.877617 0.880819 0.487479
0.886002 0.875816 0.505855
0.890932 0.870025 0.539139
0.893770 0.863803 0.577326
0.894768 0.858049 0.610325
0.895344 0.852578 0.637996
0.895397 0.847474 0.659670
0.895349 0.842748 0.676829
0.895194 0.838446 0.689720
0.895037 0.834417 0.701136
0.894867 0.831072 0.707696
0.894692 0.827956 0.713584
0.546199 0.882436 0.581699
0.546199 0.882436 0.581699
0.546199 0.882436 0.581699
0.544708 0.882401 0.581162
0.547906 0.882495 0.582980
0.551572 0.882605 0.585109
0.557436 0.882788 0.588547
0.564755 0.882991 0.592975
0.573676 0.883259 0.598582
0.586166 0.883616 0.606390
0.601370 0.884009 0.615862
0.617711 0.884388 0.626066
0.638022 0.884833 0.636190
0.669397 0.885493 0.648210
0.710373 0.886373 0.663449
0.747244 0.887298 0.678100
0.777041 0.888099 0.684232
0.801354 0.888757 0.677866
0.821499 0.889233 0.653734
0.844380 0.889473 0.619407
0.861180 0.888681 0.587703
0.873656 0.886779 0.566839
0.882681 0.883804 0.563401
0.888618 0.880027 0.575816
0.892444 0.875686 0.599129
0.894285 0.870910 0.626440
0.895504 0.866270 0.650478
0.896019 0.861955 0.671074
0.896268 0.858224 0.687976
0.896261 0.854857 0.701278
0.896252 0.851702 0.711868
0.896145 0.848995 0.719055
0.896046 0.846473 0.725456
0.630889 0.884658 0.629619
0.630889 0.884658 0.629619
0.630889 0.884658 0.629619
0.629931 0.884637 0.629240
0.631975 0.884684 0.630623
0.635268 0.884760 0.632800
0.640800 0.884886 0.636376
0.647535 0.885040 0.640896
0.655802 0.885230 0.646630
0.665818 0.885462 0.653731
0.678422 0.885752 0.662695
0.692450 0.886077 0.673084
0.706628 0.886415 0.682790
0.726008 0.886913 0.695313
0.749644 0.887560 0.709519
0.774241 0.888290 0.723665
0.795537 0.888959 0.732971
0.813369 0.889521 0.734929
0.830917 0.890008 0.724925
0.847492 0.890422 0.703948
0.860634 0.890491 0.675102
0.871247 0.889853 0.649576
0.879848 0.888321 0.633342
0.886056 0.885993 0.629263
0.890484 0.883090 0.636566
0.893044 0.879590 0.654001
0.894889 0.876104 0.670768
0.895979 0.872598 0.687234
0.896615 0.869305 0.701572
0.896849 0.866256 0.712740
0.897048 0.863405 0.722386
0.897006 0.861223 0.729386
0.896971 0.859203 0.735592
0.699654 0.886218 0.674369
0.699654 0.886218 0.674369
0.699654 0.886218 0.674369
0.699775 0.886222 0.674584
0.701442 0.886264 0.675934
0.703905 0.886328 0.677991
0.707374 0.886419 0.680912
0.711982 0.886541 0.684884
0.718843 0.886727 0.690972
0.725894 0.886924 0.697527
0.733668 0.887149 0.704759
0.742206 0.887403 0.712576
0.750670 0.887659 0.719789
0.763155 0.888045 0.729607
0.778243 0.888532 0.740961
0.794823 0.889099 0.753203
0.810592 0.889664 0.763281
0.824220 0.890114 0.768482
0.839616 0.890580 0.766081
0.851857 0.890924 0.756155
0.861781 0.891167 0.739467
0.870307 0.891285 0.719942
0.877857 0.890823 0.702665
0.883817 0.889606 0.690611
0.888418 0.887809 0.685412
0.891471 0.885319 0.690243
0.893751 0.882753 0.697449
0.895251 0.880029 0.707188
0.896284 0.877414 0.716316
0.896899 0.874911 0.725139
0.897425 0.872567 0.732855
0.897521 0.870479 0.739158
0.897613 0.868534 0.744744
0.741719 0.887382 0.711216
0.741719 0.887382 0.711216
0.741719 0.887382 0.711216
0.741198 0.887367 0.710825
0.742382 0.887402 0.711863
0.744767 0.887474 0.713982
0.747291 0.887551 0.716221
0.750575 0.887652 0.719157
0.755096 0.887794 0.723250
0.760212 0.887958 0.727966
0.765705 0.888139 0.733349
0.771769 0.888345 0.739312
0.777453 0.888537 0.744646
0.785350 0.888808 0.751547
0.795980 0.889189 0.760446
0.807997 0.889641 0.770324
0.819730 0.890064 0.779049
0.833024 0.890517 0.784755
0.845051 0.890918 0.785528
0.854927 0.891227 0.781062
0.863237 0.891462 0.771778
0.870447 0.891616 0.759214
0.876983 0.891546 0.746624
0.882368 0.891055 0.736252
0.886718 0.890085 0.728792
0.889901 0.888410 0.727184
0.892383 0.886609 0.727593
0.894183 0.884580 0.730777
0.895476 0.882558 0.734999
0.896326 0.880539 0.740173
0.897057 0.878648 0.744856
0.897356 0.876870 0.749929
0.897631 0.875218 0.754435
0.771309 0.888320 0.737686
0.771309 0.888320 0.737686
0.771309 0.888320 0.737686
0.770571 0.888295 0.737048
0.771420 0.888324 0.737852
0.773397 0.888391 0.739719
0.775285 0.888456 0.741531
0.777794 0.888543 0.743957
0.780841 0.888651 0.746946
0.784415 0.888779 0.750478
0.788190 0.888917 0.754442
0.792437 0.889076 0.758878
0.796337 0.889217 0.762876
0.801350 0.889401 0.767745
0.808786 0.889689 0.774586
