luts/P4P_01_Neutral_size65.cube
# POCKET 4P D-Log2 LUT pack v1.0 - Neutral
# Reference. DJI colour science with the clipped highlights recovered.
# Input:  DJI Osmo Pocket 4P D-Log2 / D-Gamut2, full range
# Output: Rec.709 / gamma 2.4 display
# Built on DJI's official D-Log2 to Rec.709 colorimetry with a
# scene-linear highlight shoulder so nothing clips at +7 stops.
TITLE "POCKET 4P Neutral v1.0"
LUT_3D_SIZE 65
DOMAIN_MIN 0.0 0.0 0.0
DOMAIN_MAX 1.0 1.0 1.0
0.029380 0.029377 0.029384
0.029380 0.029377 0.029384
0.029380 0.029377 0.029384
0.029380 0.029377 0.029384
0.029380 0.029377 0.029384
0.040213 0.021818 0.023140
0.055281 0.021134 0.024331
0.067832 0.020049 0.025601
0.079901 0.019068 0.027113
0.091544 0.017691 0.028944
0.104158 0.016559 0.031247
0.118904 0.015165 0.034219
0.134432 0.013880 0.037517
0.152668 0.012624 0.041544
0.172934 0.011123 0.046000
0.196963 0.010125 0.051174
0.224083 0.009341 0.056742
0.253668 0.008801 0.062359
0.287577 0.008597 0.068509
0.324327 0.008775 0.074705
0.364741 0.009853 0.081222
0.408261 0.011741 0.087934
0.453378 0.014347 0.094450
0.501329 0.017901 0.101360
0.549920 0.021928 0.108207
0.599386 0.026139 0.115223
0.649244 0.029862 0.122390
0.697905 0.032015 0.129344
0.746192 0.031957 0.136341
0.791629 0.029657 0.142863
0.846109 0.026227 0.148764
0.894777 0.023922 0.154597
0.934189 0.026078 0.160724
0.965599 0.035309 0.167644
0.990309 0.053317 0.175768
1.000000 0.087910 0.187058
1.000000 0.125889 0.199617
1.000000 0.166488 0.213297
1.000000 0.204232 0.228148
1.000000 0.239113 0.242535
1.000000 0.267372 0.256516
1.000000 0.292977 0.269717
1.000000 0.313312 0.282018
1.000000 0.332356 0.293711
1.000000 0.348235 0.304963
1.000000 0.363307 0.315643
1.000000 0.376746 0.325913
1.000000 0.389157 0.335715
1.000000 0.400937 0.345019
1.000000 0.411907 0.354265
1.000000 0.422314 0.363052
1.000000 0.432193 0.371392
1.000000 0.441845 0.379857
1.000000 0.451081 0.388041
1.000000 0.459847 0.395808
1.000000 0.468168 0.403181
1.000000 0.476235 0.410618
1.000000 0.483900 0.417699
1.000000 0.491175 0.424420
1.000000 0.498080 0.430799
1.000000 0.504700 0.436957
1.000000 0.511311 0.443321
1.000000 0.517586 0.449362
1.000000 0.523543 0.455096
1.000000 0.529196 0.460539
0.029380 0.029377 0.029384
0.029380 0.029377 0.029384
0.029380 0.029377 0.029384
0.029380 0.029377 0.029384
0.029380 0.029377 0.029384
0.040213 0.021818 0.023140
0.055281 0.021134 0.024331
0.067832 0.020049 0.025601
0.079901 0.019068 0.027113
0.091544 0.017691 0.028944
0.104158 0.016559 0.031247
0.118904 0.015165 0.034219
0.134432 0.013880 0.037517
0.152668 0.012624 0.041544
0.172934 0.011123 0.046000
0.196963 0.010125 0.051174
0.224083 0.009341 0.056742
0.253668 0.008801 0.062359
0.287577 0.008597 0.068509
0.324327 0.008775 0.074705
0.364741 0.009853 0.081222
0.408261 0.011741 0.087934
0.453378 0.014347 0.094450
0.501329 0.017901 0.101360
0.549920 0.021928 0.108207
0.599386 0.026139 0.115223
0.649244 0.029862 0.122390
0.697905 0.032015 0.129344
0.746192 0.031957 0.136341
0.791629 0.029657 0.142863
0.846109 0.026227 0.148764
0.894777 0.023922 0.154597
0.934189 0.026078 0.160724
0.965599 0.035309 0.167644
0.990309 0.053317 0.175768
1.000000 0.087910 0.187058
1.000000 0.125889 0.199617
1.000000 0.166488 0.213297
1.000000 0.204232 0.228148
1.000000 0.239113 0.242535
1.000000 0.267372 0.256516
1.000000 0.292977 0.269717
1.000000 0.313312 0.282018
1.000000 0.332356 0.293711
1.000000 0.348235 0.304963
1.000000 0.363307 0.315643
1.000000 0.376746 0.325913
1.000000 0.389157 0.335715
1.000000 0.400937 0.345019
1.000000 0.411907 0.354265
1.000000 0.422314 0.363052
1.000000 0.432193 0.371392
1.000000 0.441845 0.379857
1.000000 0.451081 0.388041
1.000000 0.459847 0.395808
1.000000 0.468168 0.403181
1.000000 0.476235 0.410618
1.000000 0.483900 0.417699
1.000000 0.491175 0.424420
1.000000 0.498080 0.430799
1.000000 0.504700 0.436957
1.000000 0.511311 0.443321
1.000000 0.517586 0.449362
1.000000 0.523543 0.455096
1.000000 0.529196 0.460539
0.029380 0.029377 0.029384
0.029380 0.029377 0.029384
0.029380 0.029377 0.029384
0.029380 0.029377 0.029384
0.029380 0.029377 0.029384
0.040213 0.021818 0.023140
0.055281 0.021134 0.024331
0.067832 0.020049 0.025601
0.079901 0.019068 0.027113
0.091544 0.017691 0.028944
0.104158 0.016559 0.031247
0.118904 0.015165 0.034219
0.134432 0.013880 0.037517
0.152668 0.012624 0.041544
0.172934 0.011123 0.046000
0.196963 0.010125 0.051174
0.224083 0.009341 0.056742
0.253668 0.008801 0.062359
0.287577 0.008597 0.068509
0.324327 0.008775 0.074705
0.364741 0.009853 0.081222
0.408261 0.011741 0.087934
0.453378 0.014347 0.094450
0.501329 0.017901 0.101360
0.549920 0.021928 0.108207
0.599386 0.026139 0.115223
0.649244 0.029862 0.122390
0.697905 0.032015 0.129344
0.746192 0.031957 0.136341
0.791629 0.029657 0.142863
0.846109 0.026227 0.148764
0.894777 0.023922 0.154597
0.934189 0.026078 0.160724
0.965599 0.035309 0.167644
0.990309 0.053317 0.175768
1.000000 0.087910 0.187058
1.000000 0.125889 0.199617
1.000000 0.166488 0.213297
1.000000 0.204232 0.228148
1.000000 0.239113 0.242535
1.000000 0.267372 0.256516
1.000000 0.292977 0.269717
1.000000 0.313312 0.282018
1.000000 0.332356 0.293711
1.000000 0.348235 0.304963
1.000000 0.363307 0.315643
1.000000 0.376746 0.325913
1.000000 0.389157 0.335715
1.000000 0.400937 0.345019
1.000000 0.411907 0.354265
1.000000 0.422314 0.363052
1.000000 0.432193 0.371392
1.000000 0.441845 0.379857
1.000000 0.451081 0.388041
1.000000 0.459847 0.395808
1.000000 0.468168 0.403181
1.000000 0.476235 0.410618
1.000000 0.483900 0.417699
1.000000 0.491175 0.424420
1.000000 0.498080 0.430799
1.000000 0.504700 0.436957
1.000000 0.511311 0.443321
1.000000 0.517586 0.449362
1.000000 0.523543 0.455096
1.000000 0.529196 0.460539
0.029380 0.029377 0.029384
0.029380 0.029377 0.029384
0.029380 0.029377 0.029384
0.029380 0.029377 0.029384
0.029380 0.029377 0.029384
0.040213 0.021818 0.023140
0.055281 0.021134 0.024331
0.067832 0.020049 0.025601
0.079901 0.019068 0.027113
0.091544 0.017691 0.028944
0.104158 0.016559 0.031247
0.118904 0.015165 0.034219
0.134432 0.013880 0.037517
0.152668 0.012624 0.041544
0.172934 0.011123 0.046000
0.196963 0.010125 0.051174
0.224083 0.009341 0.056742
0.253668 0.008801 0.062359
0.287577 0.008597 0.068509
0.324327 0.008775 0.074705
0.364741 0.009853 0.081222
0.408261 0.011741 0.087934
0.453378 0.014347 0.094450
0.501329 0.017901 0.101360
0.549920 0.021928 0.108207
0.599386 0.026139 0.115223
0.649244 0.029862 0.122390
0.697905 0.032015 0.129344
0.746192 0.031957 0.136341
0.791629 0.029657 0.142863
0.846109 0.026227 0.148764
0.894777 0.023922 0.154597
0.934189 0.026078 0.160724
0.965599 0.035309 0.167644
0.990309 0.053317 0.175768
1.000000 0.087910 0.187058
1.000000 0.125889 0.199617
1.000000 0.166488 0.213297
1.000000 0.204232 0.228148
1.000000 0.239113 0.242535
1.000000 0.267372 0.256516
1.000000 0.292977 0.269717
1.000000 0.313312 0.282018
1.000000 0.332356 0.293711
1.000000 0.348235 0.304963
1.000000 0.363307 0.315643
1.000000 0.376746 0.325913
1.000000 0.389157 0.335715
1.000000 0.400937 0.345019
1.000000 0.411907 0.354265
1.000000 0.422314 0.363052
1.000000 0.432193 0.371392
1.000000 0.441845 0.379857
1.000000 0.451081 0.388041
1.000000 0.459847 0.395808
1.000000 0.468168 0.403181
1.000000 0.476235 0.410618
1.000000 0.483900 0.417699
1.000000 0.491175 0.424420
1.000000 0.498080 0.430799
1.000000 0.504700 0.436957
1.000000 0.511311 0.443321
1.000000 0.517586 0.449362
1.000000 0.523543 0.455096
1.000000 0.529196 0.460539
0.029380 0.029377 0.029384
0.029380 0.029377 0.029384
0.029380 0.029377 0.029384
0.029380 0.029377 0.029384
0.029380 0.029377 0.029384
0.040213 0.021818 0.023140
0.055281 0.021134 0.024331
0.067832 0.020049 0.025601
0.079901 0.019068 0.027113
0.091544 0.017691 0.028944
0.104158 0.016559 0.031247
0.118904 0.015165 0.034219
0.134432 0.013880 0.037517
0.152668 0.012624 0.041544
0.172934 0.011123 0.046000
0.196963 0.010125 0.051174
0.224083 0.009341 0.056742
0.253668 0.008801 0.062359
0.287577 0.008597 0.068509
0.324327 0.008775 0.074705
0.364741 0.009853 0.081222
0.408261 0.011741 0.087934
0.453378 0.014347 0.094450
0.501329 0.017901 0.101360
0.549920 0.021928 0.108207
0.599386 0.026139 0.115223
0.649244 0.029862 0.122390
0.697905 0.032015 0.129344
0.746192 0.031957 0.136341
0.791629 0.029657 0.142863
0.846109 0.026227 0.148764
0.894777 0.023922 0.154597
0.934189 0.026078 0.160724
0.965599 0.035309 0.167644
0.990309 0.053317 0.175768
1.000000 0.087910 0.187058
1.000000 0.125889 0.199617
1.000000 0.166488 0.213297
1.000000 0.204232 0.228148
1.000000 0.239113 0.242535
1.000000 0.267372 0.256516
1.000000 0.292977 0.269717
1.000000 0.313312 0.282018
1.000000 0.332356 0.293711
1.000000 0.348235 0.304963
1.000000 0.363307 0.315643
1.000000 0.376746 0.325913
1.000000 0.389157 0.335715
1.000000 0.400937 0.345019
1.000000 0.411907 0.354265
1.000000 0.422314 0.363052
1.000000 0.432193 0.371392
1.000000 0.441845 0.379857
1.000000 0.451081 0.388041
1.000000 0.459847 0.395808
1.000000 0.468168 0.403181
1.000000 0.476235 0.410618
1.000000 0.483900 0.417699
1.000000 0.491175 0.424420
1.000000 0.498080 0.430799
1.000000 0.504700 0.436957
1.000000 0.511311 0.443321
1.000000 0.517586 0.449362
1.000000 0.523543 0.455096
1.000000 0.529196 0.460539
0.020444 0.038797 0.026692
0.020444 0.038797 0.026692
0.020444 0.038797 0.026692
0.020444 0.038797 0.026692
0.020444 0.038797 0.026692
0.039232 0.041056 0.023227
0.059396 0.041081 0.019736
0.075116 0.039828 0.020544
0.088216 0.038074 0.021748
0.102976 0.035831 0.023290
0.116788 0.034120 0.024862
0.132650 0.031601 0.026938
0.149560 0.029312 0.030128
0.167536 0.026733 0.033500
0.188397 0.023529 0.037774
0.211832 0.020738 0.042885
0.237207 0.018115 0.048165
0.266471 0.015829 0.054146
0.298311 0.013802 0.060386
0.333984 0.012310 0.067205
0.372981 0.011855 0.074434
0.413918 0.012559 0.081556
0.458380 0.014483 0.089012
0.504807 0.017520 0.096528
0.551685 0.021275 0.103847
0.600313 0.025456 0.111485
0.648256 0.029241 0.118879
0.696901 0.031774 0.126425
0.744496 0.032151 0.133709
0.788768 0.030280 0.140361
0.842601 0.027183 0.146596
0.891008 0.024992 0.152489
0.930634 0.026824 0.158647
0.962575 0.035188 0.165563
0.987665 0.051739 0.173555
1.000000 0.083402 0.184289
1.000000 0.119612 0.196486
1.000000 0.159663 0.210015
1.000000 0.197503 0.224770
1.000000 0.232552 0.239057
1.000000 0.260957 0.252863
1.000000 0.286863 0.265993
1.000000 0.308011 0.278539
1.000000 0.327754 0.290431
1.000000 0.343680 0.301571
1.000000 0.358796 0.312145
1.000000 0.372260 0.322320
1.000000 0.384688 0.332033
1.000000 0.396484 0.341253
1.000000 0.407523 0.350491
1.000000 0.417997 0.359273
1.000000 0.427939 0.367609
1.000000 0.437416 0.375865
1.000000 0.446423 0.383794
1.000000 0.454972 0.391321
1.000000 0.463086 0.398465
1.000000 0.471173 0.405872
1.000000 0.478868 0.412932
1.000000 0.486171 0.419634
1.000000 0.493104 0.425995
1.000000 0.499730 0.432118
1.000000 0.506252 0.438361
1.000000 0.512443 0.444287
1.000000 0.518319 0.449912
1.000000 0.523897 0.455251
0.017842 0.053432 0.030521
0.017842 0.053432 0.030521
0.017842 0.053432 0.030521
0.017842 0.053432 0.030521
0.017842 0.053432 0.030521
0.035497 0.059145 0.022778
0.057694 0.061017 0.021953
0.076468 0.061378 0.018439
0.092840 0.062452 0.012973
0.109118 0.061101 0.013997
0.125249 0.058386 0.015811
0.143611 0.054694 0.018827
0.162351 0.050406 0.021936
0.181657 0.047200 0.024989
0.203430 0.043002 0.028743
0.226306 0.038014 0.033186
0.252228 0.033560 0.038679
0.280300 0.029000 0.044462
0.312065 0.024732 0.051176
0.346911 0.020937 0.058574
0.383757 0.018043 0.066291
0.424281 0.016720 0.074587
0.467243 0.016891 0.083064
0.511327 0.018496 0.091328
0.557834 0.021489 0.099835
0.604373 0.025122 0.107991
0.652223 0.028846 0.116255
0.699980 0.031440 0.124289
0.746041 0.032013 0.131784
0.790336 0.030414 0.138821
0.843926 0.027601 0.145186
0.891875 0.025651 0.151223
0.931217 0.027653 0.157515
0.962795 0.035944 0.164480
0.987352 0.052020 0.172384
1.000000 0.083732 0.183335
1.000000 0.119806 0.195646
1.000000 0.159514 0.209175
1.000000 0.196644 0.223716
1.000000 0.231133 0.237841
1.000000 0.259943 0.251872
1.000000 0.286055 0.265115
1.000000 0.306824 0.277435
1.000000 0.326256 0.289141
1.000000 0.342300 0.300340
1.000000 0.357529 0.310970
1.000000 0.371062 0.321186
1.000000 0.383540 0.330932
1.000000 0.395385 0.340184
1.000000 0.406203 0.349226
1.000000 0.416460 0.357815
1.000000 0.426196 0.365968
1.000000 0.435698 0.374240
1.000000 0.444787 0.382235
1.000000 0.453414 0.389824
1.000000 0.461602 0.397027
1.000000 0.469656 0.404397
1.000000 0.477314 0.411417
1.000000 0.484583 0.418081
1.000000 0.491482 0.424406
1.000000 0.498058 0.430474
1.000000 0.504434 0.436563
1.000000 0.510486 0.442343
1.000000 0.516230 0.447828
1.000000 0.521683 0.453035
0.015520 0.067009 0.034698
0.015520 0.067009 0.034698
0.015520 0.067009 0.034698
0.015520 0.067009 0.034698
0.015520 0.067009 0.034698
0.032769 0.074191 0.025294
0.052928 0.078651 0.022049
0.074747 0.080325 0.022106
0.092226 0.082027 0.017077
0.111861 0.083957 0.009285
0.128779 0.084403 0.006570
0.147572 0.082289 0.007842
0.169658 0.078420 0.010926
0.191919 0.072805 0.015240
0.214518 0.066766 0.019648
0.239328 0.060875 0.024104
0.265263 0.054756 0.028699
0.293490 0.047756 0.034042
0.324934 0.041016 0.040817
0.358361 0.034583 0.048201
0.395419 0.028898 0.056789
0.434704 0.024724 0.065847
0.476083 0.022304 0.075210
0.519980 0.021820 0.084907
0.564427 0.023030 0.094314
0.610736 0.025656 0.103797
0.657456 0.028694 0.112975
0.703355 0.030968 0.121559
0.749397 0.031617 0.129808
0.792215 0.030246 0.137080
0.845755 0.027664 0.143713
0.893618 0.025944 0.150009
0.932270 0.028086 0.156356
0.963207 0.036519 0.163352
0.987928 0.052849 0.171488
1.000000 0.084230 0.182469
1.000000 0.120008 0.194811
1.000000 0.159482 0.208379
1.000000 0.196974 0.223177
1.000000 0.231735 0.237504
1.000000 0.259977 0.251334
1.000000 0.285718 0.264466
1.000000 0.306678 0.276947
1.000000 0.326261 0.288786
1.000000 0.342206 0.299953
1.000000 0.357341 0.310552
1.000000 0.370665 0.320621
1.000000 0.382896 0.330182
1.000000 0.394505 0.339257
1.000000 0.405446 0.348413
1.000000 0.415828 0.357118
1.000000 0.425683 0.365381
1.000000 0.435159 0.373631
1.000000 0.444186 0.381573
1.000000 0.452754 0.389111
1.000000 0.460886 0.396265
1.000000 0.468811 0.403515
1.000000 0.476342 0.410420
1.000000 0.483491 0.416973
1.000000 0.490277 0.423193
1.000000 0.496774 0.429190
1.000000 0.503232 0.435352
1.000000 0.509361 0.441200
1.000000 0.515178 0.446752
1.000000 0.520700 0.452022
0.013608 0.079679 0.039004
0.013608 0.079679 0.039004
0.013608 0.079679 0.039004
0.013608 0.079679 0.039004
0.013608 0.079679 0.039004
0.030033 0.087064 0.029837
0.050363 0.093182 0.023117
0.071439 0.096917 0.021891
0.092170 0.099033 0.021531
0.112427 0.100949 0.015643
0.132158 0.104101 0.006770
0.150731 0.105954 0.002271
0.172709 0.103825 0.003570
0.196685 0.099670 0.006578
0.221592 0.094608 0.009750
0.247274 0.087657 0.013636
0.275148 0.079708 0.019025
0.304803 0.070848 0.025355
0.335256 0.062382 0.030881
0.369750 0.052988 0.038039
0.405769 0.043598 0.046658
0.444628 0.036129 0.056375
0.485852 0.030675 0.066867
0.527978 0.027371 0.077403
0.572347 0.026415 0.088304
0.617616 0.027334 0.098976
0.662494 0.029153 0.108963
0.708330 0.030863 0.118645
0.752756 0.031240 0.127376
0.795344 0.029894 0.135250
0.849389 0.027440 0.142242
0.895964 0.025963 0.148719
0.934204 0.028517 0.155347
0.964996 0.037453 0.162660
0.989153 0.054290 0.171005
1.000000 0.085857 0.182147
1.000000 0.121766 0.194662
1.000000 0.161334 0.208419
1.000000 0.198058 0.223032
1.000000 0.232132 0.237197
1.000000 0.260577 0.251213
1.000000 0.286438 0.264483
1.000000 0.307279 0.276971
1.000000 0.326728 0.288795
1.000000 0.342352 0.299765
1.000000 0.357183 0.310178
1.000000 0.370538 0.320302
1.000000 0.382926 0.330009
1.000000 0.394685 0.339223
1.000000 0.405432 0.348225
1.000000 0.415622 0.356776
1.000000 0.425295 0.364893
1.000000 0.434735 0.373120
1.000000 0.443767 0.381070
1.000000 0.452339 0.388616
1.000000 0.460476 0.395778
1.000000 0.468467 0.403095
1.000000 0.476064 0.410066
1.000000 0.483276 0.416682
1.000000 0.490122 0.422962
1.000000 0.496648 0.428988
1.000000 0.502986 0.435039
1.000000 0.509002 0.440783
1.000000 0.514712 0.446234
1.000000 0.520132 0.451409
0.011511 0.091699 0.043708
0.011511 0.091699 0.043708
0.011511 0.091699 0.043708
0.011511 0.091699 0.043708
0.011511 0.091699 0.043708
0.026431 0.100786 0.035295
0.046800 0.107881 0.024962
0.067878 0.113387 0.020433
0.087933 0.117197 0.021920
0.110113 0.119127 0.019704
0.130707 0.122387 0.012063
0.154438 0.125113 0.004385
0.177090 0.126382 0.001691
0.199634 0.125398 0.001754
0.224668 0.121465 0.003507
0.252400 0.115669 0.006557
0.281467 0.108153 0.010105
0.311406 0.098885 0.014664
0.344253 0.088247 0.020610
0.379200 0.076550 0.028055
0.415588 0.064566 0.036661
0.454674 0.053315 0.046242
0.494599 0.043621 0.057010
0.537029 0.036383 0.068905
0.580525 0.032103 0.081103
0.624058 0.030416 0.092890
0.668857 0.030587 0.104433
0.712939 0.031168 0.114984
0.757320 0.031048 0.124770
0.799197 0.029484 0.133239
0.852793 0.027077 0.140514
0.898623 0.025808 0.147349
0.936066 0.028610 0.154192
0.966067 0.037777 0.161631
0.989809 0.054804 0.170144
1.000000 0.087159 0.181684
1.000000 0.123249 0.194384
1.000000 0.162362 0.208102
1.000000 0.199440 0.222997
1.000000 0.233828 0.237414
1.000000 0.261874 0.251348
1.000000 0.287361 0.264525
1.000000 0.307854 0.276876
1.000000 0.327021 0.288600
1.000000 0.342796 0.299734
1.000000 0.357769 0.310302
1.000000 0.371001 0.320370
1.000000 0.383169 0.329942
1.000000 0.394719 0.339028
1.000000 0.405550 0.348120
1.000000 0.415827 0.356763
1.000000 0.425582 0.364966
1.000000 0.435013 0.373198
1.000000 0.444012 0.381131
1.000000 0.452553 0.388661
1.000000 0.460660 0.395809
1.000000 0.468509 0.403002
1.000000 0.475967 0.409849
1.000000 0.483045 0.416348
1.000000 0.489765 0.422517
1.000000 0.496202 0.428467
1.000000 0.502616 0.434594
1.000000 0.508704 0.440409
1.000000 0.514483 0.445929
1.000000 0.519968 0.451168
0.009430 0.105238 0.049157
0.009430 0.105238 0.049157
0.009430 0.105238 0.049157
0.009430 0.105238 0.049157
0.009430 0.105238 0.049157
0.023042 0.114919 0.041060
0.042860 0.122700 0.029499
0.063859 0.130022 0.022461
0.084020 0.135222 0.018857
0.106382 0.138282 0.020127
0.129750 0.141340 0.016144
0.154454 0.144952 0.008385
0.181061 0.147514 0.003701
0.205682 0.148512 0.001558
0.230100 0.147472 0.001797
0.257406 0.143734 0.002800
0.286468 0.137176 0.004631
0.317859 0.128817 0.007407
0.350877 0.117703 0.011932
0.386487 0.104867 0.017602
0.424247 0.090510 0.025224
0.463392 0.074939 0.034979
0.504522 0.060763 0.046997
0.546323 0.049407 0.059336
0.588846 0.041269 0.072422
0.632483 0.036348 0.085795
0.675511 0.033850 0.098436
0.719485 0.032693 0.110498
0.762914 0.031427 0.121356
0.804802 0.029282 0.130462
0.858130 0.026607 0.138475
0.902189 0.025373 0.145631
0.938652 0.028463 0.152808
0.968279 0.038197 0.160659
0.991669 0.056109 0.169591
1.000000 0.088483 0.181220
1.000000 0.124979 0.194180
1.000000 0.164925 0.208343
1.000000 0.201895 0.223373
1.000000 0.236015 0.237850
1.000000 0.263506 0.251656
1.000000 0.288583 0.264766
1.000000 0.309075 0.277225
1.000000 0.328201 0.289020
1.000000 0.343587 0.299950
1.000000 0.358192 0.310325
1.000000 0.371379 0.320410
1.000000 0.383627 0.330078
1.000000 0.395252 0.339255
1.000000 0.406074 0.348364
1.000000 0.416341 0.357020
1.000000 0.426087 0.365236
1.000000 0.435381 0.373363
1.000000 0.444215 0.381166
1.000000 0.452601 0.388572
1.000000 0.460560 0.395601
1.000000 0.468509 0.402889
1.000000 0.476073 0.409836
1.000000 0.483254 0.416430
1.000000 0.490069 0.422689
1.000000 0.496566 0.428695
1.000000 0.502874 0.434724
1.000000 0.508862 0.440447
1.000000 0.514546 0.445879
1.000000 0.519940 0.451035
0.007851 0.120227 0.055688
0.007851 0.120227 0.055688
0.007851 0.120227 0.055688
0.007851 0.120227 0.055688
0.007851 0.120227 0.055688
0.019441 0.130382 0.047635
0.037638 0.139368 0.035938
0.059062 0.146491 0.026173
0.079557 0.153889 0.020414
0.101748 0.158416 0.017526
0.124581 0.163031 0.017648
0.153584 0.166276 0.012311
0.180669 0.169521 0.006540
0.208572 0.172346 0.003279
0.236183 0.172924 0.001908
0.263956 0.171293 0.002373
0.292239 0.167592 0.003017
0.323616 0.160151 0.004155
0.357844 0.150556 0.006321
0.393882 0.138538 0.009889
0.431359 0.123475 0.015712
0.471744 0.106643 0.023610
0.513740 0.088219 0.034280
0.555668 0.070378 0.047085
0.598569 0.056216 0.061954
0.640786 0.046231 0.076686
0.683965 0.039981 0.091052
0.726974 0.035926 0.104517
0.768581 0.032654 0.116463
0.812651 0.029352 0.126801
0.863308 0.026177 0.135483
0.906349 0.024947 0.143369
0.941962 0.028455 0.151161
0.970622 0.038792 0.159481
0.993031 0.057291 0.168768
1.000000 0.090953 0.181043
1.000000 0.128036 0.194412
1.000000 0.167838 0.208736
1.000000 0.204191 0.223699
1.000000 0.237779 0.238131
1.000000 0.265414 0.252162
1.000000 0.290462 0.265381
1.000000 0.310385 0.277608
1.000000 0.329038 0.289220
1.000000 0.344542 0.300301
1.000000 0.359259 0.310819
1.000000 0.372402 0.320915
1.000000 0.384548 0.330543
1.000000 0.396077 0.339681
1.000000 0.406725 0.348667
1.000000 0.416825 0.357204
1.000000 0.426412 0.365307
1.000000 0.435767 0.373508
1.000000 0.444715 0.381429
1.000000 0.453210 0.388948
1.000000 0.461272 0.396084
1.000000 0.469132 0.403303
1.000000 0.476603 0.410177
1.000000 0.483694 0.416701
1.000000 0.490425 0.422894
1.000000 0.496862 0.428855
1.000000 0.503217 0.434936
1.000000 0.509249 0.440708
1.000000 0.514974 0.446186
1.000000 0.520408 0.451387
0.005908 0.136806 0.063152
0.005908 0.136806 0.063152
0.005908 0.136806 0.063152
0.005908 0.136806 0.063152
0.005908 0.136806 0.063152
0.016069 0.147993 0.055538
0.031748 0.157254 0.043932
0.052600 0.165584 0.031339
0.072732 0.173423 0.024836
0.095698 0.179753 0.018532
0.118958 0.185699 0.016091
0.147561 0.189413 0.014836
0.178106 0.193635 0.009613
0.208147 0.196777 0.005228
0.238587 0.199307 0.003107
0.269475 0.199702 0.002394
0.299264 0.197156 0.002844
0.330712 0.192442 0.003405
0.364790 0.184709 0.003994
0.400333 0.173591 0.005683
0.439334 0.159316 0.009385
0.480176 0.142022 0.015346
0.521285 0.122656 0.023581
0.565011 0.101359 0.034850
0.607865 0.081016 0.048828
0.651209 0.064183 0.064877
0.693836 0.051832 0.081257
0.735264 0.042927 0.096447
0.776777 0.036230 0.110157
0.822279 0.030704 0.121736
0.871353 0.026286 0.131629
0.912726 0.024652 0.140442
0.946572 0.028272 0.148896
0.973861 0.039176 0.157814
0.995626 0.058727 0.167821
1.000000 0.093005 0.180508
1.000000 0.130652 0.194294
1.000000 0.170986 0.209054
1.000000 0.207556 0.224358
1.000000 0.241165 0.239028
1.000000 0.267974 0.252841
1.000000 0.292425 0.265940
1.000000 0.312392 0.278334
1.000000 0.331060 0.290086
1.000000 0.346360 0.301134
1.000000 0.360883 0.311620
1.000000 0.373773 0.321595
1.000000 0.385651 0.331072
1.000000 0.396925 0.340067
1.000000 0.407645 0.349157
1.000000 0.417821 0.357800
1.000000 0.427479 0.366003
1.000000 0.436715 0.374117
1.000000 0.445499 0.381907
1.000000 0.453837 0.389301
1.000000 0.461752 0.396319
1.000000 0.469652 0.403592
1.000000 0.477170 0.410526
1.000000 0.484306 0.417108
1.000000 0.491079 0.423355
1.000000 0.497555 0.429365
1.000000 0.503939 0.435481
1.000000 0.509999 0.441286
1.000000 0.515750 0.446796
1.000000 0.521210 0.452026
0.004390 0.155697 0.071774
0.004390 0.155697 0.071774
0.004390 0.155697 0.071774
0.004390 0.155697 0.071774
0.004390 0.155697 0.071774
0.012378 0.166701 0.064324
0.026134 0.176772 0.053208
0.044895 0.185650 0.040144
0.065008 0.193478 0.030269
0.087636 0.200951 0.023261
0.112373 0.207723 0.016941
0.140746 0.213866 0.014287
0.172096 0.218344 0.012784
0.205433 0.222584 0.008027
0.238878 0.226044 0.004549
0.271271 0.227613 0.003333
0.304068 0.227749 0.002835
0.337149 0.224529 0.003409
0.371299 0.218367 0.003787
0.408607 0.209041 0.004522
0.446862 0.196382 0.006391
0.487483 0.180366 0.009865
0.529798 0.161299 0.015933
0.572871 0.138270 0.025079
0.617253 0.113815 0.037368
0.661480 0.090220 0.052324
0.703484 0.070303 0.068422
