luts/P4P_05_TealAmber_size65.cube
# POCKET 4P D-Log2 LUT pack v1.0 - TealAmber
# Commercial teal and orange, skin protected.
# Input:  DJI Osmo Pocket 4P D-Log2 / D-Gamut2, full range
# Output: Rec.709 / gamma 2.4 display
# Built on DJI's official D-Log2 to Rec.709 colorimetry with a
# scene-linear highlight shoulder so nothing clips at +7 stops.
TITLE "POCKET 4P TealAmber v1.0"
LUT_3D_SIZE 9
DOMAIN_MIN 0.0 0.0 0.0
DOMAIN_MAX 1.0 1.0 1.0
0.000000 0.005061 0.038450
0.003603 0.000000 0.024900
0.113536 0.000000 0.004255
0.420720 0.000000 0.000000
0.807296 0.000000 0.000000
0.896839 0.018109 0.000000
0.920634 0.252515 0.146012
0.929860 0.380448 0.251078
0.935279 0.469794 0.329322
0.005217 0.067394 0.063850
0.056250 0.085718 0.059463
0.199714 0.017464 0.000000
0.450331 0.000000 0.000000
0.808544 0.000000 0.000000
0.895770 0.007397 0.000000
0.919903 0.242412 0.137184
0.929074 0.367695 0.239584
0.934475 0.454888 0.315406
0.100741 0.302832 0.192000
0.151693 0.390236 0.205629
0.426965 0.460454 0.167769
0.709411 0.241301 0.005138
0.841052 0.000000 0.000000
0.902311 0.054554 0.000000
0.921698 0.261127 0.148446
0.930144 0.381161 0.248664
0.935246 0.466062 0.323583
0.298872 0.816262 0.488975
0.314444 0.834531 0.498984
0.460324 0.905911 0.485120
0.882405 0.897882 0.347600
0.956577 0.560020 0.045787
0.923961 0.245913 0.099384
0.928075 0.334659 0.196714
0.934229 0.438158 0.290919
0.938342 0.516504 0.364225
0.559854 0.978273 0.822362
0.562582 0.978788 0.824794
0.594078 0.983084 0.840226
0.826677 0.992831 0.808260
0.978075 0.983365 0.540297
0.975063 0.916548 0.440147
0.954884 0.735257 0.438923
0.947747 0.652110 0.438878
0.946490 0.659941 0.473768
0.806679 0.994626 0.910721
0.806760 0.994620 0.910940
0.817286 0.994587 0.912838
0.857875 0.994372 0.911586
0.959934 0.992560 0.861226
0.987646 0.989702 0.705105
0.980783 0.969722 0.724319
0.970062 0.934766 0.733967
0.963320 0.901607 0.722971
0.921351 0.989053 0.915328
0.921627 0.988979 0.915459
0.924659 0.988221 0.916565
0.930093 0.986466 0.919137
0.944378 0.982178 0.921207
0.968735 0.981441 0.898940
0.979760 0.981307 0.863549
0.977468 0.973571 0.858570
0.973487 0.964724 0.860357
0.939606 0.981934 0.924677
0.939605 0.981931 0.924685
0.940509 0.981290 0.925426
0.941623 0.980298 0.926592
0.946864 0.977598 0.927997
0.956747 0.973860 0.926564
0.968330 0.974699 0.913565
0.972966 0.974145 0.902472
0.973303 0.971615 0.896949
0.943570 0.978913 0.927893
0.943587 0.978908 0.927890
0.944232 0.978579 0.928040
0.945206 0.977987 0.928394
0.947515 0.976125 0.929776
0.953399 0.972370 0.931058
0.960740 0.970380 0.927805
0.966587 0.970433 0.921525
0.969392 0.970341 0.915963
0.000000 0.000000 0.041717
0.000000 0.000000 0.043529
0.115306 0.000000 0.028250
0.405967 0.000000 0.000000
0.807036 0.000000 0.000000
0.896113 0.017686 0.000000
0.920285 0.251275 0.147651
0.929617 0.378952 0.251595
0.935096 0.468287 0.329335
0.000000 0.062170 0.086436
0.029990 0.061506 0.089914
0.183355 0.000000 0.013275
0.436253 0.000000 0.000000
0.809067 0.000000 0.000000
0.895119 0.007920 0.000000
0.919530 0.241232 0.139050
0.928860 0.366905 0.240841
0.934306 0.453841 0.315956
0.089881 0.324216 0.232213
0.129383 0.394909 0.253814
0.405127 0.437263 0.182671
0.703054 0.171692 0.000000
0.840760 0.000000 0.000000
0.901929 0.056417 0.004786
0.921274 0.259400 0.150107
0.929875 0.379593 0.249355
0.935053 0.464668 0.323873
0.295187 0.820718 0.507787
0.308779 0.837249 0.519684
0.448935 0.908830 0.508076
0.880502 0.895234 0.353618
0.954694 0.527495 0.045653
0.923302 0.241248 0.099028
0.927703 0.331711 0.196283
0.933937 0.435023 0.289634
0.938080 0.513053 0.362255
0.560220 0.978516 0.825242
0.562180 0.978917 0.827323
0.592578 0.983075 0.842069
0.822357 0.992921 0.812282
0.978064 0.983266 0.539293
0.974597 0.913734 0.440569
0.954194 0.724222 0.435110
0.947399 0.647945 0.438065
0.946361 0.659830 0.475826
0.806315 0.994624 0.910988
0.805711 0.994622 0.911231
0.815396 0.994589 0.913063
0.857626 0.994344 0.911702
0.959736 0.992557 0.861546
0.987620 0.989678 0.704593
0.980775 0.969586 0.722386
0.969798 0.933216 0.730765
0.962941 0.898865 0.719147
0.921423 0.988996 0.915501
0.921250 0.989012 0.915528
0.923975 0.988329 0.916550
0.929873 0.986513 0.919120
0.944190 0.982261 0.921153
0.968724 0.981473 0.898872
0.979856 0.981413 0.862724
0.977594 0.973694 0.857404
0.973573 0.964776 0.859435
0.939555 0.981933 0.924710
0.939484 0.981974 0.924667
0.940284 0.981403 0.925336
0.941503 0.980369 0.926531
0.946761 0.977659 0.927966
0.956709 0.973875 0.926574
0.968355 0.974741 0.913463
0.973019 0.974204 0.902220
0.973387 0.971696 0.896471
0.943562 0.978902 0.927915
0.943537 0.978915 0.927909
0.944136 0.978612 0.928044
0.945112 0.978066 0.928323
0.947430 0.976182 0.929745
0.953348 0.972400 0.931055
0.960726 0.970387 0.927809
0.966618 0.970472 0.921436
0.969473 0.970432 0.915691
0.000000 0.000000 0.102887
0.000000 0.000000 0.117425
0.096695 0.000000 0.097965
0.374060 0.000000 0.055569
0.789656 0.000000 0.000000
0.891789 0.021287 0.025499
0.918891 0.248672 0.157610
0.928878 0.376174 0.255857
0.934545 0.464739 0.330856
0.000000 0.000000 0.133977
0.000000 0.000000 0.150527
0.112939 0.000000 0.110700
0.390575 0.000000 0.054156
0.792517 0.000000 0.000000
0.891476 0.015614 0.019030
0.918294 0.240254 0.149962
0.928127 0.364307 0.245261
0.933784 0.451117 0.318317
0.031830 0.335435 0.310866
0.032302 0.358201 0.333929
0.261753 0.275809 0.288478
0.545866 0.000000 0.080156
0.827275 0.000000 0.000000
0.899257 0.064280 0.037178
0.920356 0.260178 0.160998
0.929425 0.380293 0.256023
0.934742 0.465084 0.328744
0.250539 0.820937 0.584606
0.258369 0.832479 0.596291
0.346307 0.878069 0.616499
0.820491 0.834097 0.453777
0.948983 0.486696 0.105933
0.921999 0.241858 0.114143
0.927018 0.331694 0.204389
0.933553 0.435673 0.295765
0.937845 0.514187 0.367501
0.546454 0.978488 0.843815
0.549387 0.978995 0.845631
0.574207 0.982465 0.856635
0.803348 0.993064 0.834701
0.977149 0.982345 0.553964
0.973249 0.907821 0.456460
0.953336 0.718042 0.442523
0.946972 0.647559 0.444822
0.946152 0.660037 0.479721
0.804844 0.994517 0.913635
0.803962 0.994519 0.913956
0.809179 0.994492 0.915673
0.863902 0.994108 0.912281
0.958939 0.992264 0.865456
0.987240 0.989310 0.714852
0.980352 0.968985 0.731079
0.969144 0.931217 0.735837
0.962402 0.896809 0.722995
0.921866 0.988728 0.916234
0.921712 0.988740 0.916268
0.923632 0.988239 0.917027
0.930378 0.986280 0.919510
0.944375 0.981894 0.921812
0.968464 0.981191 0.899984
0.979627 0.981165 0.864340
0.977327 0.973391 0.859420
0.973353 0.964554 0.861182
0.939749 0.981722 0.925020
0.939681 0.981762 0.924980
0.940195 0.981379 0.925434
0.941525 0.980255 0.926713
0.946796 0.977442 0.928285
0.956574 0.973723 0.926895
0.968290 0.974653 0.913694
0.972917 0.974081 0.902629
0.973237 0.971534 0.897181
0.943735 0.978768 0.928033
0.943715 0.978778 0.928023
0.944098 0.978579 0.928119
0.945066 0.977982 0.928485
0.947458 0.976019 0.929965
0.953292 0.972272 0.931256
0.960607 0.970263 0.928063
0.966520 0.970344 0.921710
0.969312 0.970243 0.916168
0.000000 0.013521 0.331920
0.000000 0.000000 0.332106
0.000000 0.000000 0.322504
0.289864 0.000000 0.210511
0.708301 0.000000 0.081641
0.865929 0.000679 0.151623
0.907913 0.237703 0.243606
0.923376 0.369991 0.309418
0.931267 0.459908 0.365560
0.000000 0.034799 0.345809
0.000000 0.000000 0.339982
0.000000 0.000000 0.330075
0.292095 0.000000 0.212372
0.708707 0.000000 0.081016
0.865019 0.000000 0.145942
0.907225 0.229523 0.236226
0.922753 0.360583 0.300702
0.930618 0.448735 0.355129
0.000000 0.189653 0.439980
0.000000 0.155084 0.457855
0.000000 0.000000 0.422765
0.334263 0.000000 0.242609
0.740535 0.000000 0.086615
0.872596 0.034380 0.165044
0.909403 0.245088 0.242764
0.923958 0.371156 0.304922
0.931471 0.457485 0.358977
0.105196 0.798132 0.717368
0.106098 0.801009 0.721231
0.151551 0.810063 0.740318
0.611872 0.609303 0.601694
0.887818 0.272685 0.350740
0.901859 0.208936 0.245748
0.919182 0.324165 0.278406
0.929813 0.432503 0.337997
0.935686 0.512036 0.393961
0.450750 0.973226 0.887298
0.454496 0.973572 0.887929
0.481461 0.976440 0.893906
0.713440 0.978532 0.882704
0.943866 0.950510 0.761012
0.964947 0.873493 0.550639
0.951332 0.712960 0.473853
0.946117 0.649278 0.462569
0.945472 0.659382 0.490098
0.749210 0.993087 0.930561
0.749601 0.993110 0.930653
0.766105 0.993149 0.931035
0.836656 0.992872 0.925752
0.950183 0.990737 0.885970
0.980261 0.982547 0.806770
0.977520 0.963626 0.766689
0.967803 0.927915 0.751541
0.961850 0.897596 0.740832
0.919542 0.987695 0.920762
0.919464 0.987708 0.920761
0.922074 0.987208 0.921015
0.928264 0.985859 0.921758
0.945059 0.981395 0.922390
0.967518 0.980751 0.902427
0.978969 0.980189 0.866821
0.976674 0.972346 0.862358
0.972600 0.963369 0.864506
0.940279 0.981041 0.926036
0.940215 0.981074 0.926010
0.940737 0.980697 0.926416
0.941726 0.979840 0.927369
0.947337 0.976900 0.928796
0.956585 0.973442 0.927275
0.968803 0.974803 0.912777
0.973006 0.973933 0.902139
0.972974 0.971127 0.898018
0.944633 0.978251 0.928313
0.944593 0.978271 0.928305
0.944886 0.978025 0.928519
0.945275 0.977474 0.929134
0.947673 0.975541 0.930523
0.953288 0.971961 0.931645
0.960713 0.970078 0.928198
0.966856 0.970375 0.921207
0.969173 0.969956 0.916553
0.000000 0.144670 0.649185
0.000000 0.124480 0.656289
0.000000 0.000000 0.689796
0.031805 0.000000 0.561975
0.509479 0.000000 0.310647
0.794008 0.000000 0.277589
0.879949 0.191905 0.371925
0.904801 0.340576 0.432006
0.917508 0.437430 0.477892
0.000000 0.144157 0.646711
0.000000 0.123587 0.653442
0.000000 0.000000 0.682108
0.031027 0.000000 0.556173
0.504338 0.000000 0.307889
0.788827 0.000000 0.267328
0.878152 0.179405 0.363232
0.903471 0.327982 0.422412
0.916389 0.424586 0.467700
0.000000 0.157968 0.662243
0.000000 0.137596 0.668535
0.000000 0.000000 0.699265
0.036602 0.000000 0.559949
0.508285 0.000000 0.309737
0.791253 0.000000 0.271100
0.878499 0.181250 0.364030
0.903547 0.328196 0.422155
0.916388 0.424018 0.466809
0.000000 0.456893 0.824170
0.000000 0.436413 0.823137
0.000000 0.371845 0.838214
0.219179 0.215958 0.774890
0.609768 0.000000 0.401414
0.827836 0.001738 0.346365
0.887324 0.240371 0.401330
0.909349 0.377647 0.453915
0.920909 0.468955 0.495901
0.442195 0.938820 0.908108
0.444993 0.938248 0.907555
0.476642 0.937801 0.907342
0.646316 0.922274 0.894055
0.871504 0.864691 0.848487
0.934998 0.752020 0.750294
0.931783 0.625683 0.629842
0.932147 0.602315 0.588147
0.935099 0.627759 0.591961
0.717762 0.986013 0.942720
0.720088 0.985956 0.942588
0.745385 0.985582 0.942076
0.819514 0.983390 0.938060
0.912536 0.973453 0.917510
0.958272 0.960350 0.886275
0.965404 0.941974 0.850527
0.960285 0.910384 0.818011
0.956694 0.885474 0.797184
0.889268 0.985646 0.937388
0.889291 0.985649 0.937375
0.893446 0.985231 0.937066
0.902737 0.984196 0.936280
0.928134 0.981412 0.930978
0.958791 0.978499 0.915867
0.970817 0.971841 0.894821
0.970886 0.965041 0.886998
0.968016 0.956277 0.881996
0.929767 0.979846 0.933574
0.929696 0.979866 0.933574
0.930429 0.979408 0.933978
0.931786 0.978304 0.935062
0.938985 0.975827 0.935090
0.954590 0.972354 0.930227
0.966232 0.973057 0.917837
0.970769 0.971236 0.907106
0.970454 0.967842 0.904682
0.940427 0.975061 0.935374
0.940395 0.975076 0.935370
0.940988 0.974661 0.935603
0.942003 0.973855 0.936090
0.945373 0.972061 0.936426
0.952835 0.970060 0.934190
0.959643 0.968739 0.930669
0.966043 0.969118 0.922946
0.968109 0.968263 0.918287
0.000000 0.191659 0.843480
0.000000 0.190685 0.841752
0.000000 0.142461 0.851501
0.000000 0.014943 0.853743
0.285391 0.000000 0.621870
0.623413 0.000000 0.432034
0.836834 0.101204 0.464115
0.883781 0.295607 0.516264
0.902696 0.408187 0.559120
0.000000 0.190907 0.841569
0.000000 0.189753 0.839500
0.000000 0.139527 0.847686
0.000000 0.003006 0.851474
0.275473 0.000000 0.614750
0.619282 0.000000 0.428059
0.833136 0.084854 0.454985
0.881718 0.281465 0.506982
0.901104 0.394199 0.549244
0.000000 0.192548 0.845731
0.000000 0.191143 0.843020
0.000000 0.142965 0.849811
0.000000 0.000000 0.850313
0.272311 0.000000 0.611798
0.618047 0.000000 0.426552
0.832001 0.079838 0.452117
0.881110 0.277320 0.504233
0.900687 0.390570 0.546656
0.000000 0.236450 0.867384
0.000000 0.232630 0.864004
0.000000 0.200064 0.870411
0.000000 0.093913 0.867777
0.328555 0.000000 0.655325
0.644929 0.000000 0.451248
0.840898 0.119173 0.473749
0.885631 0.307633 0.523291
0.903893 0.417851 0.565001
0.187931 0.843421 0.935797
0.183291 0.839254 0.935312
0.187295 0.828006 0.934953
0.228998 0.790085 0.931403
0.742892 0.712931 0.891935
0.881364 0.522486 0.806123
0.900564 0.470985 0.678791
0.910076 0.498956 0.643900
0.917898 0.548402 0.650934
0.791767 0.959350 0.940822
0.791639 0.959255 0.940718
0.796641 0.959177 0.940949
0.813089 0.958065 0.940645
0.881967 0.945051 0.930908
0.930531 0.926823 0.915704
0.947212 0.905855 0.897051
0.947120 0.879395 0.871734
0.945807 0.859781 0.850939
0.874892 0.975150 0.946391
0.874869 0.975136 0.946348
0.877151 0.974866 0.946426
0.883186 0.973990 0.946320
0.907677 0.968484 0.942139
0.937702 0.958820 0.932250
0.952579 0.952181 0.924540
0.958999 0.948227 0.915296
0.958605 0.940755 0.908956
0.908198 0.976299 0.945485
0.908160 0.976307 0.945469
0.909342 0.975994 0.945538
0.911995 0.975262 0.945630
0.921487 0.972803 0.944330
0.941625 0.967496 0.938042
0.955193 0.965590 0.931220
0.960356 0.960365 0.925904
0.962050 0.957975 0.922622
0.923847 0.973799 0.944128
0.923849 0.973798 0.944126
0.924525 0.973490 0.944219
0.926369 0.972788 0.944290
0.933172 0.970939 0.943424
0.944840 0.967917 0.940169
0.955216 0.966523 0.935632
0.960486 0.964431 0.930703
0.962536 0.962269 0.927645
0.000000 0.310641 0.905430
0.000000 0.306686 0.904679
0.000000 0.299760 0.904651
0.000000 0.275889 0.898191
0.285523 0.210575 0.843620
0.610903 0.000000 0.669274
0.790392 0.063232 0.597751
0.862280 0.264718 0.599750
0.889985 0.388782 0.625416
0.000000 0.304635 0.904286
0.000000 0.300174 0.903431
0.000000 0.290536 0.903118
0.000000 0.262635 0.897024
0.273627 0.195436 0.840557
0.597522 0.000000 0.659584
0.784066 0.042994 0.588057
0.859121 0.247304 0.588947
0.887573 0.371901 0.615042
0.000000 0.312256 0.905729
0.000000 0.306602 0.904661
0.000000 0.295722 0.903961
0.000000 0.257245 0.896501
0.270053 0.189688 0.839241
0.593212 0.000000 0.656223
0.782167 0.036931 0.585082
0.858310 0.242843 0.586124
0.886995 0.367882 0.612539
0.000000 0.333139 0.908348
0.000000 0.322951 0.907198
0.000000 0.315346 0.906998
0.000000 0.275954 0.898379
0.278790 0.197381 0.840432
0.602586 0.000000 0.662415
0.787178 0.052500 0.592158
0.860764 0.256000 0.594027
0.888914 0.381083 0.620531
0.000000 0.589169 0.927790
0.000000 0.577835 0.927323
0.000000 0.560998 0.925398
0.027020 0.545916 0.921745
0.431173 0.509322 0.898121
0.778526 0.301079 0.809162
0.842899 0.262298 0.699231
0.880639 0.376214 0.669721
0.900985 0.473212 0.679038
0.700903 0.940483 0.947527
0.698529 0.940148 0.947413
0.704142 0.939900 0.947507
0.715942 0.938031 0.947404
0.785054 0.924041 0.942968
0.914809 0.904811 0.925187
0.933838 0.881689 0.908663
0.936416 0.853769 0.888475
0.936087 0.833583 0.871310
0.870377 0.961575 0.948071
0.870425 0.961546 0.948046
0.872250 0.961442 0.948071
0.876886 0.961036 0.947992
0.898578 0.956681 0.944855
0.931338 0.945977 0.937110
0.942444 0.939765 0.931065
0.950300 0.935319 0.926502
0.951854 0.929091 0.920535
0.901353 0.967773 0.949091
0.901300 0.967767 0.949071
0.902480 0.967589 0.949086
0.904893 0.967130 0.949018
0.916484 0.964247 0.947170
0.936182 0.957030 0.941595
0.945522 0.951695 0.937684
0.951506 0.950205 0.934885
0.955546 0.949017 0.931112
0.915315 0.969313 0.948824
0.915276 0.969322 0.948816
0.916587 0.969042 0.948740
0.919270 0.968427 0.948538
0.926368 0.966470 0.947394
0.939150 0.961745 0.943596
0.947016 0.957249 0.940251
0.952495 0.956366 0.937746
0.955064 0.954212 0.935971
0.000000 0.455767 0.915945
0.000000 0.451634 0.915752
0.000000 0.446559 0.915493
0.000000 0.443899 0.912603
0.240498 0.423847 0.897269
0.630021 0.268478 0.823566
0.793861 0.187223 0.740720
0.849834 0.289611 0.708745
0.878947 0.393576 0.709421
0.000000 0.447925 0.915593
0.000000 0.443255 0.915394
0.000000 0.436320 0.915051
0.000000 0.430226 0.911736
0.225339 0.408115 0.895568
0.616120 0.248550 0.818964
0.786228 0.164613 0.730738
0.845367 0.269398 0.698505
0.875868 0.374568 0.698237
0.000000 0.455334 0.915924
0.000000 0.448484 0.915616
0.000000 0.442200 0.915318
0.000000 0.425175 0.911393
0.220725 0.402527 0.894909
0.611748 0.242088 0.817432
0.783926 0.157812 0.727675
0.844205 0.264190 0.695813
0.875161 0.370235 0.695641
0.000000 0.472376 0.916752
0.000000 0.462854 0.916290
0.000000 0.459528 0.916122
0.000000 0.440093 0.912411
0.228497 0.407167 0.895219
0.619592 0.250654 0.819261
0.788312 0.169976 0.732791
0.847289 0.277747 0.702455
0.877341 0.383406 0.703240
0.058413 0.565884 0.922757
0.041142 0.554249 0.922135
0.048355 0.555924 0.922075
0.089789 0.556962 0.920871
0.304621 0.528688 0.909546
0.696276 0.389558 0.850259
0.822978 0.286718 0.784092
0.863573 0.357046 0.743968
0.886988 0.446425 0.741037
0.578308 0.908293 0.947024
0.569382 0.906226 0.946788
0.568042 0.903029 0.946364
0.568649 0.894452 0.945027
0.624808 0.878298 0.941006
0.883291 0.873576 0.925950
0.917955 0.833217 0.905711
0.921923 0.783702 0.880593
0.922994 0.754900 0.862312
0.857886 0.954038 0.949805
0.857402 0.953978 0.949775
0.859303 0.953905 0.949765
0.864162 0.953614 0.949646
0.880051 0.950913 0.947976
0.913802 0.940048 0.942235
0.939387 0.934383 0.935270
0.945399 0.930084 0.931054
0.947590 0.925804 0.927223
0.901305 0.960676 0.949421
0.901250 0.960668 0.949410
0.902816 0.960479 0.949332
0.906172 0.959996 0.949097
0.915754 0.957811 0.947617
0.934146 0.951449 0.943107
0.942990 0.947139 0.939816
0.947675 0.945124 0.937104
0.951246 0.943812 0.935183
0.917859 0.963090 0.949108
0.917744 0.963100 0.949105
0.918908 0.962888 0.949038
0.920959 0.962452 0.948867
0.926329 0.960880 0.947954
0.937839 0.956263 0.944673
0.944948 0.952404 0.941736
0.948755 0.950103 0.940055
0.951619 0.949755 0.938624
0.086357 0.558128 0.921101
0.080007 0.553892 0.920866
0.071057 0.548053 0.920549
0.106259 0.551994 0.919812
0.267025 0.547394 0.913535
0.632408 0.467404 0.872726
0.809978 0.345918 0.821877
0.854961 0.368848 0.791645
0.878020 0.434878 0.781697
0.074355 0.550231 0.920668
0.065851 0.544782 0.920377
0.053505 0.536996 0.919968
0.087439 0.538465 0.918994
0.249473 0.531778 0.912300
0.618886 0.449169 0.869850
0.802078 0.322752 0.816279
0.850016 0.346801 0.784837
0.874499 0.414592 0.771933
0.084797 0.557081 0.921042
0.073412 0.549571 0.920630
0.062957 0.542946 0.920280
0.080633 0.533380 0.918676
0.243747 0.526256 0.911838
0.614173 0.442886 0.868844
0.799821 0.316126 0.814619
0.848682 0.340933 0.782965
0.873685 0.409948 0.769480
0.110917 0.574382 0.921992
0.095713 0.564303 0.921439
0.090531 0.560871 0.921250
0.100983 0.548738 0.919642
0.251427 0.531304 0.912162
0.621938 0.451051 0.870034
0.804683 0.329312 0.817759
0.852052 0.355457 0.787397
0.876271 0.424553 0.776922
0.184308 0.632122 0.925496
0.163613 0.618435 0.924777
0.166465 0.620071 0.924852
0.191971 0.623550 0.924443
0.312026 0.603456 0.918490
0.666349 0.520259 0.880993
0.826273 0.400918 0.834706
0.864173 0.413073 0.805068
0.884118 0.472108 0.795056
0.501738 0.863542 0.941644
0.487958 0.858325 0.941142
0.486962 0.853738 0.940511
0.492565 0.842855 0.938860
0.557186 0.839492 0.936901
0.837753 0.844596 0.926157
0.901317 0.793403 0.903636
0.909851 0.715994 0.878577
0.914497 0.704123 0.863397
0.842547 0.948176 0.950536
0.841480 0.948057 0.950513
0.843538 0.947975 0.950476
0.847480 0.947336 0.950306
0.854411 0.943923 0.949232
0.894184 0.933742 0.944257
0.935040 0.929202 0.936526
0.942312 0.924271 0.931797
0.944602 0.918512 0.927229
0.901092 0.956209 0.949510
0.900788 0.956207 0.949510
0.902229 0.956047 0.949434
0.905314 0.955638 0.949214
0.912576 0.954183 0.948228
0.929259 0.948946 0.944630
0.938715 0.943660 0.941831
0.946359 0.942983 0.938742
0.949181 0.941557 0.936968
0.919433 0.958811 0.948923
0.919354 0.958808 0.948919
0.920327 0.958653 0.948860
0.922174 0.958305 0.948704
0.926344 0.957165 0.948026
0.936765 0.953248 0.945316
0.943717 0.949920 0.942719
0.947378 0.947878 0.941131
0.949802 0.947404 0.939674
