luts/P4P_07_NightNeon_size33.cube
# POCKET 4P D-Log2 LUT pack v1.0 - NightNeon
# Interiors and night. Open shadows, magenta/cyan separation.
# Input:  DJI Osmo Pocket 4P D-Log2 / D-Gamut2, full range
# Output: Rec.709 / gamma 2.4 display
# Built on DJI's official D-Log2 to Rec.709 colorimetry with a
# scene-linear highlight shoulder so nothing clips at +7 stops.
TITLE "POCKET 4P NightNeon v1.0"
LUT_3D_SIZE 5
DOMAIN_MIN 0.0 0.0 0.0
DOMAIN_MAX 1.0 1.0 1.0
0.036484 0.012580 0.062778
0.194359 0.000000 0.044429
0.843425 0.000000 0.006766
0.918406 0.338865 0.266452
0.924797 0.503714 0.418105
0.073981 0.268064 0.167028
0.379471 0.396384 0.108498
0.869904 0.000000 0.000000
0.918874 0.344404 0.267226
0.924803 0.500345 0.412747
0.278079 0.931763 0.576738
0.293044 0.942544 0.593189
0.932633 0.945417 0.283159
0.935495 0.674584 0.478985
0.930370 0.641074 0.532689
0.806413 0.964303 0.817649
0.819920 0.963071 0.825995
0.885729 0.955366 0.862885
0.952794 0.953391 0.774218
0.949536 0.928906 0.809640
0.892524 0.951799 0.882344
0.894341 0.951455 0.883356
0.904338 0.949015 0.891097
0.932008 0.943923 0.898445
0.944808 0.943429 0.883181
0.000000 0.000000 0.155556
0.225222 0.000000 0.194729
0.845718 0.000000 0.097223
0.917544 0.339180 0.279824
0.924415 0.501211 0.420775
0.031554 0.308598 0.315852
0.298783 0.292776 0.305389
0.870216 0.000000 0.092304
0.918195 0.346627 0.281026
0.924522 0.500937 0.418452
0.268483 0.934265 0.620396
0.280280 0.942829 0.633274
0.930156 0.942376 0.324976
0.934529 0.665961 0.486770
0.930160 0.642442 0.538975
0.810152 0.963813 0.821832
0.817613 0.963094 0.826757
0.886518 0.955042 0.864781
0.952663 0.953219 0.776168
0.949423 0.928775 0.811118
0.893116 0.951650 0.882894
0.894123 0.951454 0.883470
0.904429 0.948913 0.891563
0.931922 0.943823 0.898933
0.944752 0.943339 0.883586
0.000000 0.242331 0.721942
0.000000 0.116308 0.800324
0.792047 0.000000 0.585615
0.906329 0.335546 0.517913
0.916679 0.514888 0.577520
0.000000 0.252618 0.731940
0.000000 0.137125 0.801321
0.789257 0.000000 0.581934
0.905923 0.327329 0.511985
0.916239 0.504756 0.568670
0.345647 0.888311 0.872883
0.381494 0.887921 0.872689
0.838279 0.821459 0.831871
0.922623 0.654930 0.698194
0.923888 0.649109 0.660954
0.763822 0.959868 0.875614
0.775433 0.959272 0.876728
0.859308 0.954353 0.880012
0.943745 0.942431 0.847971
0.945147 0.921114 0.850514
0.895309 0.947980 0.900635
0.896872 0.947607 0.901618
0.907466 0.945273 0.906702
0.931915 0.942542 0.904191
0.944099 0.941271 0.888687
0.000000 0.412561 0.920317
0.000000 0.406171 0.920166
0.481319 0.403084 0.889702
0.894835 0.227883 0.801649
0.912820 0.486626 0.740524
0.000000 0.413542 0.920449
0.000000 0.403760 0.919923
0.471038 0.388146 0.888489
0.893467 0.207363 0.797787
0.912051 0.470815 0.733073
0.152545 0.602324 0.930762
0.153219 0.584652 0.929157
0.568879 0.604461 0.906939
0.904238 0.381956 0.832197
0.915834 0.550126 0.770038
0.806026 0.932895 0.931097
0.809056 0.932849 0.931203
0.851456 0.928752 0.929169
0.921432 0.911748 0.919096
0.934243 0.902508 0.912041
0.863801 0.943903 0.925797
0.866222 0.943664 0.925922
0.884628 0.941201 0.926053
0.921902 0.931654 0.923419
0.933791 0.929020 0.920516
0.269143 0.595493 0.924917
0.257300 0.587925 0.924723
0.429764 0.608756 0.917735
0.878011 0.447975 0.897147
0.911839 0.513912 0.852555
0.267939 0.594710 0.924896
0.250982 0.584052 0.924636
0.412988 0.593842 0.916936
0.875143 0.425547 0.895704
0.910830 0.495018 0.849134
0.342917 0.649415 0.926790
0.329242 0.640461 0.926550
0.459839 0.646336 0.920453
0.882328 0.489435 0.899891
0.913308 0.542027 0.857849
0.803838 0.915507 0.940219
0.805321 0.915330 0.940183
0.823157 0.911385 0.939265
0.916320 0.904398 0.928388
0.931125 0.892193 0.921466
0.881836 0.933480 0.934654
0.883222 0.933382 0.934652
0.892614 0.932243 0.934223
0.921081 0.925451 0.930017
0.930534 0.921915 0.928252
