luts/P4P_06_Bleach_size65.cube
# POCKET 4P D-Log2 LUT pack v1.0 - Bleach
# Bleach bypass. High contrast, most of the colour pulled out.
# Input:  DJI Osmo Pocket 4P D-Log2 / D-Gamut2, full range
# Output: Rec.709 / gamma 2.4 display
# Built on DJI's official D-Log2 to Rec.709 colorimetry with a
# scene-linear highlight shoulder so nothing clips at +7 stops.
TITLE "POCKET 4P Bleach v1.0"
LUT_3D_SIZE 5
DOMAIN_MIN 0.0 0.0 0.0
DOMAIN_MAX 1.0 1.0 1.0
0.000000 0.000243 0.008218
0.082001 0.015360 0.029284
0.724732 0.163987 0.203222
0.887743 0.527385 0.493185
0.916864 0.704018 0.656404
0.061699 0.133110 0.086145
0.248407 0.260206 0.144249
0.763630 0.177068 0.199745
0.888472 0.531606 0.495030
0.916202 0.699460 0.651049
0.465028 0.856654 0.581950
0.491969 0.879042 0.609407
0.917159 0.930528 0.638122
0.936036 0.822747 0.747651
0.935788 0.819268 0.776902
0.900687 0.968431 0.904239
0.908869 0.969155 0.910831
0.946837 0.973252 0.940491
0.973326 0.974981 0.927701
0.973258 0.967501 0.937738
0.953247 0.974305 0.950572
0.954218 0.974444 0.951333
0.959857 0.975328 0.956443
0.972731 0.977605 0.964491
0.976767 0.977719 0.961903
0.000565 0.003952 0.052927
0.134622 0.033908 0.121369
0.748379 0.177296 0.276206
0.888706 0.532026 0.503742
0.916759 0.703040 0.658031
0.092157 0.187744 0.185146
0.247634 0.248494 0.251935
0.786006 0.203625 0.284028
0.889723 0.537808 0.506382
0.916592 0.701981 0.655998
0.478801 0.867345 0.622613
0.500591 0.884443 0.644537
0.918490 0.930900 0.652542
0.935697 0.820541 0.751329
0.936203 0.821317 0.781109
0.903369 0.968679 0.907048
0.907949 0.969090 0.910844
0.947522 0.973358 0.941506
0.973351 0.974990 0.928257
0.973289 0.967552 0.938194
0.953602 0.974359 0.950920
0.954142 0.974436 0.951348
0.959973 0.975352 0.956661
0.972755 0.977617 0.964663
0.976780 0.977722 0.962033
0.147918 0.271112 0.520537
0.140240 0.232220 0.626889
0.760662 0.204456 0.643412
0.906243 0.620517 0.719232
0.926965 0.763413 0.784908
0.152964 0.280824 0.531384
0.144501 0.243986 0.626185
0.757975 0.205021 0.640322
0.904961 0.612431 0.712347
0.925540 0.754651 0.777597
0.651076 0.884311 0.871413
0.679268 0.888966 0.876519
0.909655 0.908826 0.907547
0.944404 0.858486 0.865228
0.942275 0.849012 0.847660
0.898647 0.969025 0.931101
0.903449 0.969399 0.932866
0.938372 0.972404 0.944363
0.973033 0.974117 0.948514
0.973690 0.967820 0.950187
0.957767 0.975201 0.959284
0.958592 0.975333 0.959950
0.963818 0.976193 0.963723
0.973418 0.977827 0.966702
0.976966 0.977503 0.963717
0.310188 0.526139 0.857066
0.307737 0.521383 0.856657
0.702950 0.661217 0.901589
0.919745 0.692025 0.885608
0.935214 0.804689 0.874780
0.311524 0.527516 0.857616
0.304226 0.517925 0.855325
0.690884 0.646296 0.899003
0.917533 0.675534 0.882082
0.933527 0.794824 0.870146
0.506309 0.736145 0.904146
0.500588 0.723369 0.901918
0.798692 0.817669 0.927530
0.935257 0.798446 0.911209
0.941764 0.840694 0.892681
0.937442 0.967452 0.964843
0.938396 0.967664 0.965117
0.950286 0.969075 0.967210
0.970466 0.970466 0.970075
0.974526 0.969132 0.969287
0.953349 0.974506 0.967714
0.954169 0.974631 0.967987
0.960152 0.975368 0.969731
0.972122 0.976151 0.972578
0.976223 0.976570 0.973299
0.585817 0.757844 0.910679
0.574626 0.750083 0.909019
0.711584 0.797915 0.921641
0.935152 0.846516 0.940837
0.946405 0.860408 0.928181
0.584672 0.757056 0.910510
0.568736 0.745968 0.908143
0.693450 0.785937 0.919042
0.932702 0.836546 0.938924
0.944852 0.852468 0.925641
0.659091 0.805241 0.921218
0.645722 0.797743 0.919462
0.744190 0.823532 0.927284
0.939111 0.863138 0.944163
0.948571 0.871364 0.931864
0.939200 0.964092 0.968660
0.939581 0.964140 0.968731
0.943834 0.964143 0.969334
0.970238 0.969752 0.973043
0.973791 0.968335 0.971845
0.961974 0.974228 0.972852
0.962398 0.974325 0.972977
0.965147 0.974813 0.973647
0.972996 0.975556 0.974961
0.975778 0.975758 0.975412
