luts/P4P_06_Bleach_size65.cube
# POCKET 4P D-Log2 LUT pack v1.0 - Bleach
# Bleach bypass. High contrast, most of the colour pulled out.
# Input:  DJI Osmo Pocket 4P D-Log2 / D-Gamut2, full range
# Output: Rec.709 / gamma 2.4 display
# Built on DJI's official D-Log2 to Rec.709 colorimetry with a
# scene-linear highlight shoulder so nothing clips at +7 stops.
TITLE "POCKET 4P Bleach v1.0"
LUT_3D_SIZE 9
DOMAIN_MIN 0.0 0.0 0.0
DOMAIN_MAX 1.0 1.0 1.0
0.000000 0.000243 0.008218
0.008476 0.000292 0.009184
0.082001 0.015360 0.029284
0.337509 0.075230 0.097552
0.724732 0.163987 0.203222
0.853270 0.367435 0.361768
0.887743 0.527385 0.493185
0.905436 0.628603 0.585336
0.916864 0.704018 0.656404
0.004651 0.017252 0.017471
0.026124 0.029718 0.022804
0.126395 0.044120 0.040794
0.357691 0.080286 0.096721
0.724807 0.164374 0.200862
0.851467 0.360052 0.355271
0.886184 0.519267 0.485586
0.903676 0.617799 0.575035
0.914969 0.690850 0.643613
0.061699 0.133110 0.086145
0.083707 0.170492 0.095097
0.248407 0.260206 0.144249
0.496282 0.244266 0.169511
0.763630 0.177068 0.199745
0.857609 0.386073 0.371930
0.888472 0.531606 0.495030
0.905237 0.627529 0.583047
0.916202 0.699460 0.651049
0.227347 0.462499 0.292529
0.235679 0.480059 0.298661
0.284189 0.556725 0.291148
0.661962 0.684318 0.378500
0.884802 0.562176 0.384582
0.882253 0.500841 0.451824
0.897650 0.582899 0.536447
0.912017 0.671214 0.620934
0.921891 0.737999 0.688436
0.465028 0.856654 0.581950
0.467924 0.859229 0.585660
0.491969 0.879042 0.609407
0.578669 0.917792 0.574166
0.917159 0.930528 0.638122
0.946800 0.880481 0.721206
0.936036 0.822747 0.747651
0.933043 0.805145 0.750888
0.935788 0.819268 0.776902
0.676521 0.953426 0.784946
0.677188 0.953512 0.785709
0.696980 0.955415 0.797285
0.760542 0.959881 0.820616
0.913252 0.968147 0.845972
0.963529 0.967681 0.818780
0.967393 0.954524 0.873303
0.963021 0.938731 0.892320
0.959897 0.927160 0.893976
0.900687 0.968431 0.904239
0.901439 0.968496 0.904869
0.908869 0.969155 0.910831
0.922378 0.970473 0.922287
0.946837 0.973252 0.940491
0.965714 0.975564 0.938838
0.973326 0.974981 0.927701
0.974142 0.971126 0.932903
0.973258 0.967501 0.937738
0.944377 0.973044 0.941985
0.944385 0.973046 0.941998
0.946507 0.973334 0.944049
0.949366 0.973731 0.946947
0.957340 0.974900 0.953385
0.967552 0.976557 0.959677
0.973336 0.977384 0.956491
0.975771 0.976895 0.953605
0.976286 0.975545 0.952934
0.953247 0.974305 0.950572
0.953265 0.974307 0.950581
0.954218 0.974444 0.951333
0.955774 0.974676 0.952650
0.959857 0.975328 0.956443
0.967342 0.976645 0.962472
0.972731 0.977605 0.964491
0.975585 0.977991 0.963383
0.976767 0.977719 0.961903
0.000000 0.000000 0.011637
0.011885 0.001000 0.019604
0.100422 0.020774 0.049953
0.347120 0.079326 0.122633
0.729265 0.165871 0.213421
0.853793 0.369398 0.365609
0.887843 0.527805 0.494703
0.905407 0.628350 0.585867
0.916798 0.703484 0.656471
0.006463 0.020969 0.028370
0.031392 0.033226 0.040564
0.148375 0.040189 0.061342
0.369390 0.084761 0.123717
0.730313 0.167055 0.211528
0.852165 0.362700 0.359753
0.886300 0.519808 0.487286
0.903749 0.618192 0.576223
0.914970 0.690782 0.644175
0.074038 0.156291 0.116083
0.092187 0.190924 0.126700
0.246959 0.258212 0.151985
0.510002 0.229050 0.170603
0.768006 0.182895 0.212982
0.858452 0.389444 0.376731
0.888539 0.531863 0.496578
0.905215 0.627338 0.583734
0.916160 0.699115 0.651368
0.233943 0.474727 0.309326
0.242382 0.492338 0.317280
0.287069 0.568644 0.304540
0.664572 0.685208 0.382830
0.885077 0.554962 0.387886
0.881922 0.499061 0.451656
0.897443 0.581631 0.536147
0.911753 0.669382 0.619828
0.921579 0.735995 0.686648
0.467475 0.858700 0.586878
0.469848 0.860782 0.590139
0.493106 0.879807 0.613054
0.576593 0.918446 0.577059
0.917181 0.930294 0.638570
0.946543 0.879142 0.722761
0.935386 0.819208 0.745052
0.932825 0.803900 0.750374
0.935929 0.819952 0.778372
0.676679 0.953486 0.785572
0.676465 0.953512 0.785986
0.694676 0.955283 0.796880
0.760788 0.959854 0.821095
0.912980 0.968125 0.846081
0.963435 0.967592 0.818398
0.967293 0.954253 0.872568
0.962739 0.937782 0.891527
0.959547 0.925885 0.892886
0.901156 0.968474 0.904751
0.900901 0.968454 0.904631
0.907656 0.969050 0.910066
0.921997 0.970435 0.922028
0.946508 0.973208 0.940213
0.965654 0.975552 0.938724
0.973267 0.974939 0.927115
0.974081 0.971032 0.932231
0.973201 0.967386 0.937268
0.944349 0.973042 0.941997
0.944199 0.973022 0.941860
0.946099 0.973279 0.943703
0.949142 0.973700 0.946748
0.957187 0.974876 0.953258
0.967516 0.976551 0.959656
0.973315 0.977377 0.956407
0.975749 0.976878 0.953444
0.976253 0.975503 0.952660
0.953262 0.974308 0.950600
0.953224 0.974302 0.950569
0.954106 0.974429 0.951262
0.955589 0.974647 0.952471
0.959731 0.975307 0.956335
0.967286 0.976635 0.962431
0.972719 0.977603 0.964484
0.975574 0.977986 0.963322
0.976744 0.977702 0.961736
0.000565 0.003952 0.052927
0.019036 0.005284 0.073552
0.134622 0.033908 0.121369
0.379730 0.092838 0.203558
0.748379 0.177296 0.276206
0.858426 0.387365 0.396149
0.888706 0.532026 0.503742
0.905643 0.629644 0.589910
0.916759 0.703040 0.658031
0.009143 0.022968 0.068886
0.023407 0.018489 0.100705
0.158143 0.043290 0.143524
0.395923 0.097249 0.209901
0.749888 0.179460 0.275028
0.857212 0.382358 0.390785
0.887384 0.525091 0.497116
0.904017 0.619637 0.580400
0.915038 0.691098 0.646498
0.092157 0.187744 0.185146
0.101643 0.205155 0.203806
0.247634 0.248494 0.251935
0.529031 0.216276 0.277419
0.786006 0.203625 0.284028
0.862969 0.407692 0.404227
0.889723 0.537808 0.506382
0.905873 0.631213 0.589933
0.916592 0.701981 0.655998
0.255232 0.511622 0.387210
0.262128 0.525610 0.396062
0.299828 0.586389 0.410949
0.669675 0.682472 0.480105
0.891843 0.578118 0.442970
0.883639 0.507117 0.465024
0.898258 0.585981 0.543599
0.912326 0.673006 0.625597
0.922052 0.738849 0.691670
0.478801 0.867345 0.622613
0.481469 0.869568 0.625674
0.500591 0.884443 0.644537
0.577173 0.922687 0.604836
0.918490 0.930900 0.652542
0.946965 0.880060 0.738995
0.935697 0.820541 0.751329
0.933292 0.806301 0.755689
0.936203 0.821317 0.781109
0.682328 0.954207 0.793995
0.681879 0.954242 0.794455
0.693625 0.955469 0.802431
0.774928 0.960688 0.829252
0.914639 0.968388 0.852473
0.963774 0.967810 0.825209
0.967498 0.954667 0.876657
0.962757 0.937711 0.893863
0.959583 0.925914 0.894495
0.903369 0.968679 0.907048
0.903163 0.968663 0.906966
0.907949 0.969090 0.910844
0.923435 0.970587 0.923370
0.947522 0.973358 0.941506
0.965885 0.975617 0.939775
0.973351 0.974990 0.928257
0.974167 0.971148 0.933427
0.973289 0.967552 0.938194
0.944995 0.973131 0.942700
0.944854 0.973113 0.942572
0.946102 0.973282 0.943793
0.949390 0.973735 0.947070
0.957547 0.974939 0.953748
0.967603 0.976575 0.959934
0.973353 0.977391 0.956585
0.975782 0.976895 0.953716
0.976294 0.975549 0.953075
0.953602 0.974359 0.950920
0.953570 0.974353 0.950891
0.954142 0.974436 0.951348
0.955703 0.974668 0.952675
0.959973 0.975352 0.956661
0.967385 0.976659 0.962632
0.972755 0.977617 0.964663
0.975609 0.978000 0.963510
0.976780 0.977722 0.962033
0.051726 0.097000 0.235046
0.035337 0.051817 0.268835
0.155581 0.058337 0.332747
0.424825 0.113008 0.369786
0.771023 0.195158 0.417376
0.871928 0.440094 0.516184
0.896764 0.572410 0.583526
0.910221 0.656366 0.640574
0.919436 0.720511 0.691450
0.057272 0.107902 0.243429
0.043251 0.070166 0.277744
0.160661 0.066927 0.341977
0.427533 0.115754 0.372505
0.770486 0.195851 0.416285
0.870792 0.434867 0.511490
0.895560 0.565589 0.576967
0.908956 0.648183 0.632620
0.918051 0.710635 0.681761
0.098923 0.189191 0.307030
0.098961 0.187331 0.328454
0.203365 0.184508 0.418909
0.485768 0.167889 0.426947
0.795229 0.219566 0.436635
0.875686 0.458431 0.524936
0.897102 0.574740 0.582382
0.909887 0.654388 0.636279
0.918784 0.716024 0.685199
0.279368 0.548397 0.531079
0.281319 0.552115 0.534618
0.313150 0.584130 0.568001
0.648287 0.648287 0.647338
0.894368 0.620480 0.665007
0.895280 0.562624 0.587127
0.904965 0.622741 0.612772
0.915821 0.695139 0.665821
0.924045 0.750439 0.717292
0.500424 0.878641 0.744097
0.502674 0.879982 0.745698
0.521070 0.890895 0.759794
0.668408 0.916476 0.790717
0.919571 0.926765 0.836400
0.949474 0.888280 0.815106
0.937697 0.830105 0.775385
0.934628 0.813089 0.769092
0.936885 0.824651 0.788270
0.690578 0.955264 0.840150
0.690860 0.955359 0.840306
0.705538 0.956678 0.845041
0.777097 0.960963 0.858907
0.915430 0.968787 0.878364
0.964399 0.967447 0.883502
0.967878 0.954798 0.893707
0.963101 0.938547 0.900098
0.960414 0.928665 0.900646
0.908092 0.969220 0.915560
0.907955 0.969208 0.915477
0.912758 0.969637 0.918632
0.923773 0.970691 0.926087
0.949117 0.973583 0.943121
0.965819 0.975655 0.941462
0.973458 0.974772 0.930493
0.974253 0.971057 0.935495
0.973359 0.967575 0.940188
0.946941 0.973407 0.944875
0.946826 0.973392 0.944777
0.947994 0.973554 0.945892
0.950384 0.973893 0.948270
0.958676 0.975128 0.954898
0.967896 0.976640 0.960406
0.973535 0.977409 0.956211
0.975854 0.976814 0.953641
0.976349 0.975532 0.953666
0.955004 0.974561 0.952077
0.954948 0.974553 0.952033
0.955526 0.974642 0.952587
0.956633 0.974819 0.953807
0.960739 0.975490 0.957583
0.967685 0.976725 0.963096
0.972949 0.977661 0.964896
0.975752 0.978003 0.963377
0.976856 0.977717 0.962358
0.147918 0.271112 0.520537
0.147406 0.268899 0.531954
0.140240 0.232220 0.626889
0.433533 0.284483 0.728022
0.760662 0.204456 0.643412
0.878046 0.455897 0.672491
0.906243 0.620517 0.719232
0.918869 0.709173 0.756009
0.926965 0.763413 0.784908
0.147187 0.269823 0.518091
0.146532 0.267335 0.529193
0.138225 0.228501 0.619094
0.427748 0.278772 0.719744
0.754298 0.201520 0.636648
0.875677 0.444263 0.664858
0.904786 0.611322 0.711767
0.917481 0.699164 0.749087
0.925632 0.755202 0.778215
0.152964 0.280824 0.531384
0.152257 0.278159 0.541933
0.144501 0.243986 0.626185
0.436671 0.293832 0.727371
0.757975 0.205021 0.640322
0.876627 0.448950 0.667434
0.904961 0.612431 0.712347
0.917470 0.699114 0.748849
0.925540 0.754651 0.777597
0.249968 0.463897 0.685237
0.246823 0.456449 0.685782
0.253285 0.453191 0.726542
0.555060 0.546864 0.814625
0.848965 0.446252 0.775900
0.893464 0.537782 0.723236
0.911385 0.654236 0.740572
0.922356 0.733575 0.770566
0.929657 0.779875 0.795973
0.651076 0.884311 0.871413
0.652984 0.884079 0.871304
0.679268 0.888966 0.876519
0.795106 0.900729 0.891749
0.909655 0.908826 0.907547
0.951776 0.900496 0.905089
0.944404 0.858486 0.865228
0.941113 0.842837 0.846088
0.942275 0.849012 0.847660
0.777821 0.955588 0.906848
0.779168 0.955631 0.907002
0.794688 0.956777 0.910064
0.845238 0.959776 0.918957
0.924898 0.962906 0.932835
0.963271 0.965232 0.940432
0.969479 0.957780 0.938014
0.965268 0.944109 0.927982
0.962414 0.934577 0.920904
0.898647 0.969025 0.931101
0.898645 0.969024 0.931084
0.903449 0.969399 0.932866
0.913995 0.970266 0.936864
0.938372 0.972404 0.944363
0.962586 0.975191 0.948478
0.973033 0.974117 0.948514
0.974618 0.971435 0.949905
0.973690 0.967820 0.950187
0.943599 0.973235 0.949553
0.943513 0.973224 0.949504
0.944943 0.973413 0.950673
0.947960 0.973831 0.953317
0.955939 0.974922 0.957978
0.967950 0.976733 0.962366
0.973282 0.977347 0.959162
0.975808 0.976494 0.956924
0.976429 0.975341 0.957815
0.957767 0.975201 0.959284
0.957729 0.975195 0.959259
0.958592 0.975333 0.959950
0.960137 0.975587 0.961237
0.963818 0.976193 0.963723
0.969200 0.977083 0.965764
0.973418 0.977827 0.966702
0.975986 0.977981 0.964682
0.976966 0.977503 0.963717
0.218928 0.397411 0.756060
0.217828 0.395450 0.753263
0.217392 0.391476 0.777796
0.322861 0.410753 0.836254
0.742093 0.444982 0.865053
0.882134 0.463724 0.830095
0.910038 0.635005 0.807807
0.923488 0.734389 0.822662
0.931439 0.786158 0.839306
0.217753 0.395337 0.752911
0.216453 0.393019 0.749560
0.214756 0.386762 0.771956
0.316467 0.402719 0.833732
0.734560 0.434716 0.861675
0.879012 0.448319 0.825413
0.908404 0.624180 0.803253
0.922131 0.725313 0.817977
0.930162 0.778519 0.834605
0.220330 0.399888 0.759771
0.218601 0.396814 0.755358
0.216432 0.389881 0.774902
0.315575 0.400344 0.833012
0.732189 0.430918 0.860437
0.877956 0.443153 0.823720
0.907892 0.620832 0.801789
0.921728 0.722586 0.816564
0.929825 0.776485 0.833349
0.239515 0.435978 0.790673
0.236641 0.430931 0.785279
0.237238 0.429071 0.800998
0.338988 0.449210 0.843969
0.762955 0.493542 0.874127
0.888237 0.496133 0.838659
0.911772 0.646736 0.812431
0.924560 0.741506 0.826021
0.932245 0.790952 0.841950
0.640017 0.850907 0.919050
0.636572 0.848321 0.918339
0.643268 0.846503 0.919564
0.678118 0.843397 0.922295
0.895638 0.891856 0.937579
0.944863 0.876716 0.930543
0.941668 0.840156 0.892697
0.940563 0.836190 0.876584
0.942782 0.848473 0.877043
0.892813 0.954099 0.949157
0.892696 0.954005 0.949068
0.895559 0.954670 0.949924
0.904145 0.956117 0.951915
0.936348 0.958520 0.956169
0.960905 0.960739 0.960118
0.969386 0.958660 0.959336
0.967348 0.949177 0.950691
0.964757 0.940999 0.942807
0.920838 0.968721 0.954367
0.920784 0.968695 0.954319
0.922697 0.968973 0.955028
0.927464 0.969549 0.956621
0.943829 0.970402 0.960218
0.962752 0.971536 0.964081
0.971816 0.972390 0.966285
0.974862 0.971369 0.965726
0.974508 0.968916 0.964281
0.939602 0.972972 0.958420
0.939552 0.972961 0.958388
0.940774 0.973119 0.958974
0.943427 0.973452 0.960220
0.951036 0.974158 0.962851
0.964282 0.975293 0.966021
0.971571 0.976389 0.966626
0.975319 0.975919 0.967586
0.976475 0.975281 0.967722
0.951750 0.974644 0.962677
0.951751 0.974643 0.962677
0.952515 0.974751 0.963124
0.954333 0.975007 0.964078
0.959573 0.975727 0.966145
0.967143 0.976714 0.968362
0.972732 0.977706 0.969167
0.975436 0.977642 0.968853
0.976786 0.977221 0.968926
0.310188 0.526139 0.857066
0.306917 0.522747 0.855694
0.307737 0.521383 0.856657
0.383837 0.547117 0.868130
0.702950 0.661217 0.901589
0.895305 0.646762 0.908883
0.919745 0.692025 0.885608
0.928450 0.761027 0.871296
0.935214 0.804689 0.874780
0.305233 0.520981 0.854972
0.301700 0.517201 0.853418
0.300576 0.513938 0.853860
0.373653 0.536630 0.865614
0.693665 0.650190 0.899669
0.892125 0.631629 0.906641
0.918052 0.679360 0.882929
0.926926 0.751178 0.867399
0.933856 0.796766 0.871062
0.311524 0.527516 0.857616
0.306845 0.522672 0.855661
0.304226 0.517925 0.855325
0.370042 0.532631 0.864657
0.690884 0.646296 0.899003
0.891091 0.626572 0.905871
0.917533 0.675534 0.882082
0.926528 0.748572 0.866357
0.933527 0.794824 0.870146
0.327660 0.543213 0.862568
0.319589 0.535664 0.860325
0.319657 0.533539 0.860894
0.381678 0.546068 0.867818
0.697703 0.652707 0.900190
0.893352 0.636660 0.907349
0.918813 0.685061 0.883998
0.927667 0.756009 0.869206
0.934587 0.801058 0.873025
0.506309 0.736145 0.904146
0.493546 0.726432 0.902104
0.500588 0.723369 0.901918
0.544545 0.737033 0.905800
0.798692 0.817669 0.927530
0.925125 0.823727 0.934648
0.935257 0.798446 0.911209
0.937639 0.816328 0.894259
0.941764 0.840694 0.892681
0.896260 0.948983 0.958359
0.895574 0.948660 0.958178
0.897558 0.949118 0.958637
0.901897 0.949628 0.959531
0.919880 0.949749 0.961161
0.959798 0.958561 0.965709
0.967569 0.956180 0.964121
0.967054 0.948436 0.958049
0.965095 0.941279 0.951810
0.937442 0.967452 0.964843
0.937458 0.967441 0.964835
0.938396 0.967664 0.965117
0.940713 0.968149 0.965750
0.950286 0.969075 0.967210
0.965055 0.970483 0.969455
0.970466 0.970466 0.970075
0.974239 0.970887 0.970841
0.974526 0.969132 0.969287
0.947566 0.972502 0.966665
0.947524 0.972485 0.966640
0.948286 0.972633 0.966916
0.949811 0.972885 0.967432
0.956049 0.973473 0.968784
0.966536 0.974165 0.970762
0.971753 0.974484 0.971991
0.974700 0.974953 0.972562
0.976325 0.974789 0.972412
0.953349 0.974506 0.967714
0.953315 0.974497 0.967695
0.954169 0.974631 0.967987
0.955895 0.974889 0.968563
0.960152 0.975368 0.969731
0.967561 0.975937 0.971450
0.972122 0.976151 0.972578
0.974655 0.976649 0.972829
0.976223 0.976570 0.973299
0.469590 0.664215 0.891997
0.464794 0.660087 0.891154
0.459260 0.655195 0.890152
0.501287 0.675074 0.895022
0.683072 0.748387 0.912779
0.888221 0.788318 0.929286
0.930573 0.787784 0.925247
0.936905 0.808466 0.912895
0.940772 0.832505 0.907854
0.460246 0.656258 0.890361
0.454501 0.651427 0.889352
0.446775 0.644660 0.887938
0.488368 0.662939 0.892647
0.671158 0.738057 0.910794
0.884350 0.778517 0.927563
0.928855 0.777843 0.923482
0.935479 0.799978 0.910582
0.939394 0.824941 0.904933
0.469103 0.663791 0.891911
0.460951 0.656844 0.890483
0.453731 0.650602 0.889188
0.483926 0.658621 0.891796
0.667475 0.734503 0.910130
0.883117 0.775287 0.927006
0.928339 0.774764 0.922934
0.935104 0.797718 0.909960
0.939074 0.823158 0.904240
0.488339 0.680544 0.895261
0.477574 0.671174 0.893400
0.473927 0.667959 0.892756
0.496932 0.671320 0.894278
0.673301 0.738523 0.910943
0.885466 0.780091 0.927877
0.929304 0.780204 0.923844
0.936055 0.803432 0.911452
0.940026 0.828437 0.906232
0.567195 0.753190 0.909233
0.554665 0.744176 0.907319
0.559675 0.746794 0.907926
0.588098 0.758332 0.910842
0.734828 0.800316 0.922899
0.904120 0.836130 0.937957
0.937430 0.826795 0.932794
0.941546 0.834771 0.920593
0.944494 0.852111 0.915731
0.871487 0.932971 0.955771
0.868674 0.931581 0.955253
0.868543 0.930565 0.955080
0.869115 0.928099 0.954603
0.885296 0.927933 0.955254
0.950233 0.949483 0.964565
0.963763 0.947296 0.963936
0.963540 0.936398 0.957048
0.961718 0.928764 0.950539
0.940680 0.966143 0.968060
0.940498 0.966063 0.968002
0.941269 0.966268 0.968198
0.943195 0.966737 0.968647
0.949174 0.967534 0.969554
0.962200 0.968769 0.971492
0.971109 0.970750 0.972467
0.973621 0.970595 0.972354
0.974344 0.969691 0.971601
0.953345 0.971996 0.970221
0.953316 0.971982 0.970208
0.954051 0.972143 0.970406
0.955610 0.972458 0.970805
0.959809 0.973011 0.971584
0.967838 0.973784 0.972820
0.972153 0.974190 0.973632
0.974262 0.974226 0.973873
0.975832 0.974448 0.974194
0.959033 0.974416 0.971217
0.958969 0.974399 0.971193
0.959591 0.974527 0.971389
0.960675 0.974730 0.971714
0.963371 0.975069 0.972349
0.969045 0.975502 0.973395
0.972729 0.975721 0.974138
0.974701 0.975891 0.974597
0.975997 0.976075 0.974833
0.585817 0.757844 0.910679
0.581163 0.754631 0.909990
0.574626 0.750083 0.909019
0.599094 0.760865 0.911647
0.711584 0.797915 0.921641
0.880866 0.842954 0.937419
0.935152 0.846516 0.940837
0.943879 0.850391 0.933840
0.946405 0.860408 0.928181
0.577035 0.751778 0.909379
0.570839 0.747450 0.908457
0.561881 0.741091 0.907113
0.585182 0.750976 0.909552
0.697929 0.789048 0.919706
0.876675 0.835978 0.935933
0.933241 0.838806 0.939354
0.942499 0.843279 0.932141
0.945147 0.853991 0.926132
0.584672 0.757056 0.910510
0.576343 0.751281 0.909274
0.568736 0.745968 0.908143
0.580151 0.747232 0.908770
0.693450 0.785937 0.919042
0.875179 0.833496 0.935411
0.932702 0.836546 0.938924
0.942128 0.841329 0.931677
0.944852 0.852468 0.925641
0.603882 0.769866 0.913297
0.592684 0.762484 0.911683
0.588878 0.759920 0.911128
0.595231 0.758327 0.911100
0.699280 0.789344 0.919802
0.877716 0.837028 0.936183
0.933876 0.841079 0.939773
0.943047 0.846069 0.932768
0.945762 0.857141 0.927102
0.659091 0.805241 0.921218
0.643609 0.796607 0.919193
0.645722 0.797743 0.919462
0.663926 0.804402 0.921222
0.744190 0.823532 0.927284
0.890593 0.860771 0.941276
0.939111 0.863138 0.944163
0.946521 0.863764 0.937251
0.948571 0.871364 0.931864
0.846182 0.913051 0.949959
0.840870 0.910139 0.949017
0.840377 0.908732 0.948667
0.842147 0.906289 0.948170
0.864432 0.911997 0.950516
0.935766 0.938315 0.961172
0.958951 0.939333 0.962850
0.960934 0.928745 0.957258
0.960507 0.923943 0.952063
0.939200 0.964092 0.968660
0.938850 0.963947 0.968572
0.939581 0.964140 0.968731
0.941092 0.964395 0.969042
0.943834 0.964143 0.969334
0.956926 0.965675 0.970930
0.970238 0.969752 0.973043
0.973122 0.969601 0.972840
0.973791 0.968335 0.971845
0.956135 0.971620 0.971802
0.956012 0.971578 0.971766
0.956623 0.971727 0.971925
0.957916 0.972022 0.972242
0.960816 0.972511 0.972786
0.967408 0.973313 0.973800
0.971503 0.973650 0.974595
0.974425 0.974278 0.974816
0.975569 0.974325 0.974852
0.961974 0.974228 0.972852
0.961936 0.974214 0.972838
0.962398 0.974325 0.972977
0.963267 0.974519 0.973225
0.965147 0.974813 0.973647
0.969698 0.975269 0.974386
0.972996 0.975556 0.974961
0.974779 0.975719 0.975319
0.975778 0.975758 0.975412
