luts/P4P_12_Punch_size33.cube
# POCKET 4P D-Log2 LUT pack v1.0 - Punch
# High contrast and saturation for social and vertical.
# Input:  DJI Osmo Pocket 4P D-Log2 / D-Gamut2, full range
# Output: Rec.709 / gamma 2.4 display
# Built on DJI's official D-Log2 to Rec.709 colorimetry with a
# scene-linear highlight shoulder so nothing clips at +7 stops.
TITLE "POCKET 4P Punch v1.0"
LUT_3D_SIZE 33
DOMAIN_MIN 0.0 0.0 0.0
DOMAIN_MAX 1.0 1.0 1.0
0.000270 0.000268 0.000271
0.000270 0.000268 0.000271
0.000270 0.000268 0.000271
0.007611 0.000000 0.000000
0.016262 0.000000 0.000000
0.027220 0.000000 0.000000
0.046089 0.000000 0.000000
0.076101 0.000000 0.000000
0.118217 0.000000 0.000000
0.174468 0.000000 0.000000
0.248159 0.000000 0.000000
0.339161 0.000000 0.000000
0.445107 0.000000 0.000000
0.560430 0.000000 0.000000
0.677640 0.000000 0.000000
0.790906 0.000000 0.000000
0.859729 0.000000 0.000000
0.892948 0.000000 0.000000
0.909900 0.000000 0.000000
0.919848 0.000000 0.000000
0.931594 0.000000 0.000000
0.938550 0.041193 0.000000
0.943102 0.105586 0.034049
0.946388 0.158084 0.074328
0.948920 0.202634 0.110054
0.950939 0.241859 0.142950
0.952704 0.278003 0.173668
0.954246 0.311401 0.202664
0.955589 0.341940 0.229574
0.956756 0.369830 0.254578
0.957789 0.395293 0.277465
0.958702 0.419365 0.299796
0.959512 0.441229 0.320082
0.000270 0.000268 0.000271
0.000270 0.000268 0.000271
0.000270 0.000268 0.000271
0.007611 0.000000 0.000000
0.016262 0.000000 0.000000
0.027220 0.000000 0.000000
0.046089 0.000000 0.000000
0.076101 0.000000 0.000000
0.118217 0.000000 0.000000
0.174468 0.000000 0.000000
0.248159 0.000000 0.000000
0.339161 0.000000 0.000000
0.445107 0.000000 0.000000
0.560430 0.000000 0.000000
0.677640 0.000000 0.000000
0.790906 0.000000 0.000000
0.859729 0.000000 0.000000
0.892948 0.000000 0.000000
0.909900 0.000000 0.000000
0.919848 0.000000 0.000000
0.931594 0.000000 0.000000
0.938550 0.041193 0.000000
0.943102 0.105586 0.034049
0.946388 0.158084 0.074328
0.948920 0.202634 0.110054
0.950939 0.241859 0.142950
0.952704 0.278003 0.173668
0.954246 0.311401 0.202664
0.955589 0.341940 0.229574
0.956756 0.369830 0.254578
0.957789 0.395293 0.277465
0.958702 0.419365 0.299796
0.959512 0.441229 0.320082
0.000270 0.000268 0.000271
0.000270 0.000268 0.000271
0.000270 0.000268 0.000271
0.007611 0.000000 0.000000
0.016262 0.000000 0.000000
0.027220 0.000000 0.000000
0.046089 0.000000 0.000000
0.076101 0.000000 0.000000
0.118217 0.000000 0.000000
0.174468 0.000000 0.000000
0.248159 0.000000 0.000000
0.339161 0.000000 0.000000
0.445107 0.000000 0.000000
0.560430 0.000000 0.000000
0.677640 0.000000 0.000000
0.790906 0.000000 0.000000
0.859729 0.000000 0.000000
0.892948 0.000000 0.000000
0.909900 0.000000 0.000000
0.919848 0.000000 0.000000
0.931594 0.000000 0.000000
0.938550 0.041193 0.000000
0.943102 0.105586 0.034049
0.946388 0.158084 0.074328
0.948920 0.202634 0.110054
0.950939 0.241859 0.142950
0.952704 0.278003 0.173668
0.954246 0.311401 0.202664
0.955589 0.341940 0.229574
0.956756 0.369830 0.254578
0.957789 0.395293 0.277465
0.958702 0.419365 0.299796
0.959512 0.441229 0.320082
0.005836 0.019233 0.009175
0.005836 0.019233 0.009175
0.005836 0.019233 0.009175
0.022379 0.023780 0.007221
0.039777 0.024108 0.001367
0.056941 0.014393 0.000000
0.080446 0.000000 0.000000
0.108849 0.000000 0.000000
0.148789 0.000000 0.000000
0.201967 0.000000 0.000000
0.270442 0.000000 0.000000
0.356256 0.000000 0.000000
0.455678 0.000000 0.000000
0.565193 0.000000 0.000000
0.678568 0.000000 0.000000
0.789634 0.000000 0.000000
0.858274 0.000000 0.000000
0.891662 0.000000 0.000000
0.908770 0.000000 0.000000
0.918810 0.000000 0.000000
0.930523 0.000000 0.000000
0.937734 0.029722 0.000000
0.942442 0.095035 0.025613
0.945815 0.147939 0.065876
0.948404 0.192687 0.101504
0.950426 0.231298 0.133697
0.952193 0.266842 0.163735
0.953734 0.299654 0.192067
0.955086 0.329874 0.218545
0.956273 0.357705 0.243341
0.957321 0.383047 0.265974
0.958221 0.406240 0.287338
0.959020 0.427302 0.306742
0.014502 0.041479 0.021340
0.014502 0.041479 0.021340
0.014502 0.041479 0.021340
0.035942 0.053112 0.022358
0.053733 0.057462 0.019993
0.083304 0.062611 0.012579
0.117167 0.054703 0.001110
0.151601 0.028324 0.000000
0.188316 0.000000 0.000000
0.233545 0.000000 0.000000
0.299780 0.000000 0.000000
0.380860 0.000000 0.000000
0.475094 0.000000 0.000000
0.579193 0.000000 0.000000
0.688011 0.000000 0.000000
0.795361 0.000000 0.000000
0.860604 0.000000 0.000000
0.892900 0.000000 0.000000
0.909264 0.000000 0.000000
0.919074 0.000000 0.000000
0.930782 0.000000 0.000000
0.937906 0.031106 0.000000
0.942533 0.095598 0.025302
0.945822 0.147355 0.064812
0.948384 0.191719 0.100201
0.950391 0.230024 0.132182
0.952145 0.265296 0.162020
0.953674 0.297872 0.190158
0.955016 0.327849 0.216435
0.956194 0.355432 0.241021
0.957234 0.380550 0.263463
0.958131 0.403587 0.284676
0.958927 0.424507 0.303942
0.024747 0.067513 0.035857
0.024747 0.067513 0.035857
0.024747 0.067513 0.035857
0.052222 0.090038 0.040363
0.077502 0.106485 0.044629
0.104653 0.113753 0.040870
0.152935 0.121757 0.030495
0.197410 0.112738 0.015712
0.239895 0.076635 0.000000
0.282519 0.020325 0.000000
0.333963 0.000000 0.000000
0.409662 0.000000 0.000000
0.499107 0.000000 0.000000
0.597810 0.000000 0.000000
0.702345 0.000000 0.000000
0.804035 0.000000 0.000000
0.863826 0.000000 0.000000
0.894463 0.000000 0.000000
0.910083 0.000000 0.000000
0.919980 0.000000 0.000000
0.931422 0.000000 0.000000
0.938281 0.035027 0.000000
0.942779 0.098383 0.026568
0.945985 0.149319 0.065684
0.948494 0.193108 0.100778
0.950502 0.231650 0.133058
0.952239 0.266758 0.162832
0.953729 0.298593 0.190395
0.955049 0.328139 0.216337
0.956219 0.355590 0.240823
0.957253 0.380587 0.263172
0.958145 0.403504 0.284291
0.958937 0.424313 0.303470
0.043092 0.110732 0.059368
0.043092 0.110732 0.059368
0.043092 0.110732 0.059368
0.074987 0.147183 0.069243
0.108705 0.172794 0.076511
0.140760 0.190872 0.080911
0.186920 0.200721 0.072406
0.245237 0.206709 0.058669
0.302842 0.191954 0.037140
0.358146 0.149018 0.005157
0.407296 0.069087 0.000000
0.456967 0.000000 0.000000
0.532656 0.000000 0.000000
0.626423 0.000000 0.000000
0.723236 0.000000 0.000000
0.816685 0.000000 0.000000
0.869313 0.000000 0.000000
0.896821 0.000000 0.000000
0.911436 0.000000 0.000000
0.921425 0.000000 0.000000
0.932314 0.000000 0.000000
0.938876 0.041816 0.000000
0.943221 0.104063 0.029895
0.946333 0.154224 0.068725
0.948729 0.196624 0.102936
0.950698 0.234765 0.135038
0.952406 0.269568 0.164676
0.953876 0.301209 0.192147
0.955179 0.330560 0.217994
0.956335 0.357815 0.242383
0.957357 0.382668 0.264673
0.958255 0.405853 0.286078
0.959052 0.426909 0.305519
0.072918 0.177741 0.094971
0.072918 0.177741 0.094971
0.072918 0.177741 0.094971
0.103820 0.219349 0.107227
0.140566 0.250481 0.113992
0.178191 0.275550 0.121790
0.227888 0.294090 0.123114
0.288480 0.305006 0.110169
0.358323 0.309186 0.092401
0.429588 0.287145 0.063095
0.496415 0.225634 0.018748
0.552333 0.121106 0.000000
0.601373 0.000000 0.000000
0.665768 0.000000 0.000000
0.753533 0.000000 0.000000
0.834861 0.000000 0.000000
0.877584 0.000000 0.000000
0.900460 0.000000 0.000000
0.913526 0.000000 0.000000
0.923522 0.000000 0.000000
0.933636 0.000000 0.000000
0.939749 0.052264 0.000000
0.943817 0.111966 0.034722
0.946785 0.160810 0.072940
0.949090 0.202403 0.106790
0.951016 0.240113 0.138702
0.952698 0.274769 0.168378
0.954163 0.306651 0.196201
0.955444 0.335831 0.222015
0.956563 0.362517 0.245994
0.957555 0.386875 0.267934
0.958439 0.409929 0.289297
0.959223 0.430863 0.308699
0.111679 0.266109 0.143072
0.111679 0.266109 0.143072
0.111679 0.266109 0.143072
0.140070 0.307322 0.154948
0.174165 0.343037 0.162238
0.214136 0.373382 0.169514
0.268333 0.400373 0.176718
0.335248 0.421036 0.174899
0.409030 0.429506 0.155919
0.489590 0.430542 0.133278
0.573029 0.396099 0.093688
0.650943 0.312840 0.035542
0.713031 0.172864 0.000000
0.750241 0.000000 0.000000
0.796890 0.000000 0.000000
0.858233 0.000000 0.000000
0.889553 0.000000 0.000000
0.906317 0.000000 0.000000
0.917053 0.000000 0.000000
0.926773 0.000000 0.000000
0.935445 0.000000 0.000000
0.940933 0.066755 0.000000
0.944637 0.123116 0.041670
0.947424 0.170377 0.079251
0.949648 0.211587 0.113165
0.951477 0.248142 0.144362
0.953093 0.281999 0.173582
0.954524 0.313571 0.201308
0.955777 0.342491 0.227043
0.956872 0.368965 0.250962
0.957843 0.393130 0.272849
0.958709 0.416050 0.294197
0.959478 0.436859 0.313585
0.159515 0.376534 0.204579
0.159515 0.376534 0.204579
0.159515 0.376534 0.204579
0.183623 0.413538 0.215118
0.214128 0.450292 0.221474
0.250707 0.484772 0.227325
0.304306 0.521296 0.236141
0.379006 0.546895 0.240790
0.459147 0.563879 0.232519
0.544492 0.569844 0.208047
0.636464 0.562770 0.177281
0.732132 0.514640 0.127121
0.801892 0.406767 0.054419
0.839130 0.216891 0.000000
0.859283 0.000000 0.000000
0.882802 0.000000 0.000000
0.903500 0.000000 0.000000
0.914322 0.000000 0.000000
0.921537 0.000000 0.000000
0.931230 0.000000 0.000000
0.937897 0.020746 0.000000
0.942446 0.085829 0.010362
0.945692 0.138115 0.051217
0.948215 0.182829 0.087577
0.950308 0.222674 0.120863
0.952073 0.258663 0.151865
0.953635 0.292064 0.180945
0.955023 0.323307 0.208597
0.956248 0.352166 0.234488
0.957329 0.378839 0.258787
0.958284 0.403125 0.280966
0.959112 0.425508 0.301988
0.959847 0.445826 0.321076
0.215568 0.509675 0.280837
0.215568 0.509675 0.280837
0.215568 0.509675 0.280837
0.234969 0.540966 0.290110
0.260819 0.574597 0.295410
0.294246 0.611956 0.299993
0.341516 0.653639 0.305799
0.410481 0.690261 0.312362
0.503932 0.711125 0.312599
0.597315 0.723804 0.297524
0.694429 0.723457 0.265009
0.785795 0.706036 0.225463
0.850284 0.639240 0.162926
0.890990 0.499879 0.071955
0.915691 0.250895 0.000000
0.920379 0.000000 0.000000
0.921097 0.000000 0.000000
0.926027 0.000000 0.000000
0.932515 0.000000 0.000000
0.937219 0.000000 0.000000
0.941250 0.060048 0.000000
0.944487 0.112604 0.026318
0.947102 0.158585 0.064164
0.949294 0.199867 0.098846
0.951220 0.237996 0.131401
0.952932 0.274044 0.162949
0.954426 0.307022 0.192087
0.955721 0.337137 0.219109
0.956876 0.365225 0.244639
0.957908 0.391474 0.268838
0.958821 0.415381 0.290933
0.959618 0.437559 0.311985
0.960326 0.457686 0.331099
0.282423 0.666541 0.369522
0.282423 0.666541 0.369522
0.282423 0.666541 0.369522
0.295635 0.690260 0.378193
0.313826 0.717010 0.384303
0.339526 0.748163 0.388174
0.381109 0.783555 0.390534
0.442257 0.817065 0.393428
0.532000 0.836420 0.396116
0.641380 0.846670 0.392323
0.745647 0.848874 0.368169
0.823067 0.843058 0.325977
0.879120 0.824814 0.275301
0.917550 0.761930 0.197919
0.944235 0.583717 0.079858
0.954636 0.330954 0.000000
0.952502 0.140730 0.000000
0.947605 0.064970 0.000000
0.944316 0.058769 0.000000
0.944069 0.079604 0.000000
0.945336 0.112686 0.014421
0.947108 0.149623 0.049315
0.948984 0.187518 0.083234
0.950794 0.224563 0.115936
0.952459 0.259547 0.146815
0.954010 0.293768 0.177388
0.955383 0.325473 0.205950
0.956603 0.355026 0.232918
0.957693 0.382650 0.258432
0.958669 0.408531 0.282655
0.959534 0.432117 0.304783
0.960298 0.454217 0.326016
0.960976 0.474271 0.345294
0.357977 0.818279 0.469429
0.357977 0.818279 0.469429
0.357977 0.818279 0.469429
0.366210 0.827840 0.475584
0.378131 0.839121 0.481499
0.395144 0.852227 0.486733
0.424519 0.869948 0.491129
0.474166 0.890735 0.492181
0.550129 0.910001 0.490658
0.660245 0.918588 0.488237
0.777419 0.921101 0.476544
0.850752 0.919337 0.442655
0.899209 0.912498 0.389144
0.933217 0.896127 0.324493
0.955350 0.845217 0.229596
0.970518 0.688366 0.102729
0.971780 0.488315 0.025312
0.964816 0.325918 0.016457
0.956794 0.233210 0.028353
0.952327 0.194572 0.042368
0.950915 0.192173 0.061343
0.950954 0.207068 0.084932
0.951763 0.231424 0.111691
0.952919 0.260247 0.140112
0.954184 0.290441 0.168716
0.955455 0.321121 0.197376
0.956625 0.350322 0.224712
0.957723 0.378706 0.251361
0.958704 0.405061 0.276299
0.959582 0.429576 0.299694
0.960362 0.451960 0.321109
0.961073 0.473562 0.342229
0.961704 0.493158 0.361401
0.439105 0.905886 0.577019
0.439105 0.905886 0.577019
0.439105 0.905886 0.577019
0.443778 0.908971 0.581230
0.451198 0.913250 0.586563
0.462048 0.918495 0.592106
0.481771 0.926368 0.599073
0.514762 0.936279 0.603749
0.570416 0.947397 0.602256
0.661034 0.957341 0.593182
0.782748 0.960973 0.584172
0.866706 0.960690 0.564619
0.914214 0.958103 0.520180
0.943510 0.951873 0.452683
0.963074 0.937561 0.370002
0.977017 0.900639 0.260872
0.981423 0.814107 0.167538
0.978420 0.646548 0.138692
0.970812 0.494464 0.143253
0.964027 0.389916 0.140665
0.959399 0.330008 0.138868
0.957034 0.307252 0.146147
0.956249 0.307691 0.160828
0.956311 0.320213 0.180100
0.956800 0.339180 0.202503
0.957620 0.363646 0.227909
0.958426 0.387619 0.252413
0.959250 0.411860 0.276658
0.960035 0.435473 0.300204
0.960787 0.458591 0.323183
0.961457 0.479676 0.344178
0.962079 0.499941 0.364524
0.962631 0.518312 0.382986
0.523579 0.952805 0.690008
0.523579 0.952805 0.690008
0.523579 0.952805 0.690008
0.526326 0.953757 0.692731
0.530930 0.955251 0.696954
0.538123 0.957381 0.702902
0.549777 0.960197 0.709480
0.570963 0.964236 0.716366
0.608073 0.969428 0.719348
0.671119 0.975259 0.714120
0.770701 0.980331 0.698526
0.864931 0.981662 0.682146
0.921071 0.980644 0.654385
0.950443 0.978111 0.597048
0.967851 0.973084 0.513581
0.979484 0.962896 0.417929
0.985953 0.941405 0.322209
0.986566 0.894205 0.263206
0.982034 0.798895 0.264268
0.975850 0.663468 0.265600
0.970322 0.554960 0.257072
0.966123 0.483516 0.247084
0.963305 0.441833 0.242617
0.961654 0.422867 0.246297
0.960854 0.419753 0.257175
0.960890 0.431578 0.276000
0.961080 0.445418 0.294983
0.961475 0.462368 0.314852
0.961933 0.480396 0.335076
0.962450 0.499546 0.355733
0.962916 0.517122 0.374683
0.963416 0.535530 0.394077
0.963859 0.552202 0.411666
0.608283 0.975802 0.785071
0.608283 0.975802 0.785071
0.608283 0.975802 0.785071
0.609848 0.976120 0.786636
0.613029 0.976707 0.789349
0.617194 0.977413 0.792455
0.624750 0.978510 0.796782
0.638030 0.980109 0.802055
0.661505 0.982307 0.806935
0.702195 0.985027 0.808030
0.771756 0.988269 0.802592
0.855125 0.991340 0.794193
0.922405 0.991925 0.780018
0.955995 0.991148 0.751233
0.972156 0.988924 0.676525
0.980533 0.984324 0.571831
0.987515 0.977186 0.468484
0.990159 0.964502 0.392765
0.988876 0.936822 0.371420
0.984804 0.882272 0.377113
0.979814 0.805335 0.378872
0.975315 0.716425 0.371143
0.971695 0.640742 0.359797
0.968929 0.588666 0.350350
0.966874 0.553743 0.344760
0.965763 0.540265 0.348721
0.965003 0.534317 0.356286
0.964700 0.537775 0.368818
0.964615 0.545471 0.383359
0.964740 0.557231 0.399878
0.964866 0.568294 0.415179
0.965169 0.583160 0.432613
0.965438 0.596603 0.448414
0.700512 0.987631 0.845899
0.700512 0.987631 0.845899
0.700512 0.987631 0.845899
0.701144 0.987723 0.846726
0.704208 0.988011 0.848639
0.708813 0.988413 0.851221
0.716720 0.989051 0.855283
0.727997 0.989858 0.860230
0.746189 0.990968 0.866282
0.771134 0.992249 0.871140
0.807931 0.993737 0.873061
0.858920 0.995295 0.869530
0.914526 0.996309 0.857374
0.955794 0.996176 0.841012
0.975122 0.995459 0.810583
0.983693 0.994054 0.747201
0.988134 0.991450 0.645050
0.991704 0.986487 0.533371
0.992102 0.976764 0.468659
0.990400 0.959144 0.464964
0.986977 0.927649 0.475145
0.982885 0.882857 0.479605
0.979110 0.831476 0.475522
0.975944 0.779942 0.467214
0.973381 0.731211 0.457675
0.971595 0.694595 0.450968
0.970129 0.667596 0.447660
0.969113 0.651693 0.448512
0.968395 0.643178 0.452915
0.967976 0.641547 0.460666
0.967618 0.640795 0.468229
0.967586 0.648160 0.481007
0.967553 0.654796 0.492573
0.797544 0.994271 0.892195
0.797544 0.994271 0.892195
0.797544 0.994271 0.892195
0.797126 0.994267 0.892377
0.798857 0.994380 0.893571
0.801148 0.994524 0.895060
0.804112 0.994709 0.897026
0.808528 0.994969 0.899753
0.815036 0.995315 0.903178
0.825311 0.995772 0.907039
0.840977 0.996298 0.909566
0.868391 0.996987 0.908794
0.906154 0.997661 0.902361
0.949128 0.997929 0.887125
0.974284 0.997600 0.868927
0.984565 0.997018 0.837636
0.989323 0.996107 0.783589
0.992380 0.994516 0.692394
0.993907 0.991630 0.603864
0.993530 0.985308 0.560034
0.991491 0.971902 0.549743
0.988599 0.952567 0.562816
0.985185 0.925567 0.570714
0.981903 0.893728 0.571226
0.979066 0.860842 0.566657
0.977018 0.832990 0.558697
0.975219 0.806685 0.552282
0.973832 0.785112 0.547281
0.972710 0.767618 0.544745
0.971871 0.755005 0.544439
0.971116 0.743738 0.544668
0.970717 0.740657 0.549903
0.970351 0.737603 0.554642
0.846909 0.996749 0.917992
0.846909 0.996749 0.917992
0.846909 0.996749 0.917992
0.846591 0.996744 0.918078
0.847181 0.996779 0.918654
0.848106 0.996829 0.919455
0.849769 0.996914 0.920776
0.851667 0.997017 0.922460
0.854298 0.997151 0.924624
0.858393 0.997329 0.927257
0.865062 0.997537 0.929310
0.878295 0.997825 0.930023
0.903677 0.998175 0.926848
0.940382 0.998393 0.916920
0.971579 0.998203 0.900521
0.983727 0.997885 0.881289
0.989194 0.997492 0.850620
0.992140 0.996903 0.804230
0.994194 0.995753 0.732231
0.994855 0.993764 0.668978
0.994186 0.989493 0.649034
0.992509 0.981724 0.648057
0.989980 0.968769 0.649809
0.986963 0.950155 0.650433
0.984142 0.930076 0.655046
0.981902 0.910937 0.652487
0.979852 0.891403 0.649540
0.978249 0.874363 0.645160
0.976898 0.859125 0.641531
0.975847 0.846610 0.638417
0.974875 0.834759 0.635956
0.974240 0.827594 0.636400
0.973652 0.820868 0.636834
0.874301 0.997743 0.933388
0.874301 0.997743 0.933388
0.874301 0.997743 0.933388
0.874011 0.997739 0.933406
0.874415 0.997756 0.933810
0.875036 0.997778 0.934361
0.875898 0.997810 0.935147
0.876845 0.997850 0.936188
0.878051 0.997904 0.937597
0.879800 0.997977 0.939403
0.882642 0.998060 0.941133
0.889392 0.998163 0.942010
0.908041 0.998278 0.940178
0.939829 0.998305 0.933571
0.967307 0.998057 0.923272
0.980319 0.997750 0.912670
0.987057 0.997573 0.895469
0.991051 0.997415 0.866096
0.993525 0.997018 0.822786
0.994934 0.996155 0.771379
0.995128 0.994552 0.737051
0.994424 0.991483 0.727838
0.993007 0.986384 0.732603
0.991058 0.978808 0.739142
0.988707 0.968293 0.742589
0.986375 0.955598 0.738775
0.983990 0.940097 0.732930
0.982110 0.926374 0.729504
0.980587 0.914454 0.727770
0.979390 0.904247 0.725143
0.978258 0.894204 0.723043
0.977495 0.887228 0.721825
0.976778 0.880535 0.720798
0.897814 0.998042 0.942171
0.897814 0.998042 0.942171
0.897814 0.998042 0.942171
0.897343 0.998041 0.942176
0.897768 0.998042 0.942363
0.898663 0.998046 0.942676
0.900009 0.998047 0.943070
0.901803 0.998048 0.943677
0.903615 0.998051 0.944453
0.905905 0.998050 0.945429
0.909440 0.998048 0.946481
0.915189 0.998038 0.946917
0.928260 0.997979 0.945659
0.946932 0.997839 0.942030
0.965089 0.997501 0.936779
0.976300 0.997116 0.931605
0.983349 0.996936 0.923483
0.988236 0.996959 0.908467
0.991536 0.996975 0.883305
0.993996 0.996702 0.845847
0.994968 0.996009 0.812103
0.994960 0.994644 0.793991
0.994257 0.992236 0.791506
0.993054 0.988564 0.796122
0.991473 0.983503 0.801907
0.989748 0.977540 0.804892
0.987961 0.970387 0.805871
0.986252 0.962501 0.804255
0.984643 0.954021 0.801618
0.983211 0.945472 0.797990
0.981789 0.936277 0.794771
0.980780 0.929158 0.791812
0.979801 0.921933 0.789161
0.925438 0.997865 0.945892
0.925438 0.997865 0.945892
0.925438 0.997865 0.945892
0.925013 0.997870 0.945915
0.925635 0.997856 0.946037
0.926352 0.997845 0.946206
0.927432 0.997825 0.946441
0.928911 0.997797 0.946790
0.930532 0.997760 0.947256
0.932764 0.997702 0.947859
0.935569 0.997625 0.948502
0.938974 0.997533 0.948879
0.945146 0.997383 0.948567
0.954692 0.997133 0.947158
0.965330 0.996725 0.945281
0.973463 0.996237 0.943255
0.979580 0.995930 0.939645
0.984530 0.995929 0.932418
0.988614 0.996166 0.918625
0.992016 0.996297 0.895766
0.993819 0.996088 0.870215
0.994492 0.995449 0.850051
0.994404 0.994244 0.839703
0.993780 0.992297 0.838082
0.992758 0.989472 0.841312
0.991480 0.986012 0.844642
0.990130 0.981964 0.846980
0.988769 0.977575 0.848130
0.987469 0.972913 0.848245
0.986282 0.968216 0.847396
0.985110 0.963181 0.846535
0.984188 0.958786 0.844917
0.983289 0.954254 0.843462
0.944159 0.997386 0.948326
0.944159 0.997386 0.948326
0.944159 0.997386 0.948326
0.943866 0.997395 0.948334
0.944332 0.997373 0.948434
0.944854 0.997347 0.948557
0.945681 0.997307 0.948763
0.946647 0.997251 0.949022
0.947778 0.997182 0.949383
0.949336 0.997080 0.949864
0.951177 0.996946 0.950413
0.953077 0.996788 0.950970
0.955927 0.996595 0.951260
0.960773 0.996298 0.951170
0.966693 0.995839 0.950967
0.972106 0.995263 0.950635
0.976782 0.994806 0.949332
0.981025 0.994628 0.946041
0.985134 0.994855 0.938893
0.989234 0.995213 0.925604
0.991811 0.995395 0.909009
0.993186 0.995213 0.892538
0.993700 0.994628 0.880143
0.993618 0.993578 0.873391
0.993087 0.991954 0.871845
0.992178 0.989730 0.873373
0.991195 0.987160 0.874816
0.990131 0.984324 0.876051
0.989091 0.981361 0.876785
0.988102 0.978406 0.877070
0.987131 0.975287 0.877236
0.986318 0.972489 0.876782
0.985531 0.969627 0.876355
0.955596 0.996687 0.950697
0.955596 0.996687 0.950697
0.955596 0.996687 0.950697
0.955442 0.996695 0.950698
0.955645 0.996673 0.950783
0.955982 0.996637 0.950913
0.956561 0.996577 0.951117
0.957226 0.996500 0.951390
0.957995 0.996402 0.951751
0.958885 0.996276 0.952209
0.959984 0.996110 0.952784
0.961108 0.995911 0.953477
0.962549 0.995697 0.954008
0.965052 0.995369 0.954494
0.968280 0.994886 0.954995
0.971695 0.994261 0.955472
0.975017 0.993679 0.955370
0.978287 0.993302 0.954152
0.982232 0.993309 0.950223
0.986163 0.993689 0.942803
0.989198 0.994154 0.932599
0.991197 0.994364 0.921153
0.992304 0.994205 0.910438
0.992747 0.993689 0.902265
0.992709 0.992782 0.897395
0.992155 0.991333 0.896352
0.991517 0.989651 0.895973
0.990745 0.987703 0.896230
0.989949 0.985658 0.896533
0.989133 0.983565 0.896900
0.988336 0.981392 0.897177
0.987637 0.979475 0.897269
0.986964 0.977541 0.897331
0.962438 0.995842 0.953242
0.962438 0.995842 0.953242
0.962438 0.995842 0.953242
0.962424 0.995839 0.953267
0.962566 0.995811 0.953356
0.962777 0.995769 0.953494
0.963077 0.995708 0.953688
0.963471 0.995624 0.953955
0.964054 0.995492 0.954365
0.964638 0.995346 0.954815
0.965226 0.995169 0.955372
0.965866 0.994957 0.956013
0.966630 0.994736 0.956567
0.967964 0.994386 0.957255
0.969730 0.993897 0.958007
0.971778 0.993269 0.958803
0.974029 0.992606 0.959292
0.976489 0.992074 0.959041
0.980049 0.991807 0.956940
0.983313 0.992003 0.952963
0.986270 0.992511 0.946893
0.988686 0.993036 0.939434
0.990312 0.993259 0.931676
0.991236 0.993115 0.924628
0.991687 0.992693 0.918784
0.991592 0.991833 0.915303
0.991334 0.990797 0.912942
0.990848 0.989477 0.911944
0.990299 0.988040 0.911480
0.989675 0.986501 0.911439
0.989069 0.984924 0.911374
0.988454 0.983440 0.911411
0.987865 0.981952 0.911422
0.966009 0.994982 0.955830
0.966009 0.994982 0.955830
0.966009 0.994982 0.955830
0.965953 0.994994 0.955804
0.966052 0.994965 0.955886
0.966248 0.994903 0.956055
0.966459 0.994837 0.956234
0.966731 0.994747 0.956471
0.967102 0.994619 0.956807
0.967513 0.994464 0.957204
0.967900 0.994282 0.957686
0.968331 0.994066 0.958226
0.968796 0.993852 0.958692
0.969566 0.993540 0.959258
0.970717 0.993081 0.959963
0.972099 0.992494 0.960739
0.973691 0.991859 0.961328
0.976191 0.991206 0.961205
0.978899 0.990818 0.960105
0.981530 0.990823 0.957791
0.984086 0.991157 0.954059
0.986393 0.991640 0.949122
0.988194 0.992006 0.943727
0.989422 0.992111 0.938490
0.990200 0.991976 0.933643
0.990441 0.991457 0.929955
0.990504 0.990819 0.926948
0.990327 0.989958 0.924893
0.990036 0.988983 0.923509
0.989629 0.987880 0.922749
0.989236 0.986761 0.922109
0.988744 0.985599 0.921967
0.988278 0.984449 0.921818
0.968532 0.994101 0.957987
0.968532 0.994101 0.957987
0.968532 0.994101 0.957987
0.968462 0.994126 0.957936
0.968529 0.994096 0.958006
0.968688 0.994024 0.958169
0.968835 0.993953 0.958331
0.969029 0.993856 0.958549
0.969259 0.993734 0.958823
0.969527 0.993584 0.959150
0.969767 0.993414 0.959538
0.970047 0.993213 0.959974
0.970322 0.993018 0.960361
0.970739 0.992759 0.960815
0.971460 0.992353 0.961432
