luts/P4P_07_NightNeon_size33.cube
# POCKET 4P D-Log2 LUT pack v1.0 - NightNeon
# Interiors and night. Open shadows, magenta/cyan separation.
# Input:  DJI Osmo Pocket 4P D-Log2 / D-Gamut2, full range
# Output: Rec.709 / gamma 2.4 display
# Built on DJI's official D-Log2 to Rec.709 colorimetry with a
# scene-linear highlight shoulder so nothing clips at +7 stops.
TITLE "POCKET 4P NightNeon v1.0"
LUT_3D_SIZE 33
DOMAIN_MIN 0.0 0.0 0.0
DOMAIN_MAX 1.0 1.0 1.0
0.036484 0.012580 0.062778
0.036484 0.012580 0.062778
0.036484 0.012580 0.062778
0.055827 0.000000 0.057115
0.073947 0.000000 0.053772
0.092158 0.000000 0.051163
0.117556 0.000000 0.048687
0.150022 0.000000 0.046631
0.194359 0.000000 0.044429
0.251121 0.000000 0.041417
0.322446 0.000000 0.037326
0.407137 0.000000 0.033062
0.502146 0.000000 0.029601
0.602234 0.000000 0.026148
0.700825 0.000000 0.021214
0.787130 0.000000 0.012557
0.843425 0.000000 0.006766
0.873473 0.000000 0.015587
0.891121 0.000000 0.051009
0.901944 0.078032 0.097700
0.908368 0.163066 0.142467
0.912360 0.224215 0.180216
0.915000 0.270237 0.212391
0.916919 0.307470 0.240887
0.918406 0.338865 0.266452
0.919585 0.366408 0.290251
0.920630 0.391592 0.312418
0.921555 0.414751 0.333375
0.922369 0.435819 0.352807
0.923084 0.454989 0.370874
0.923724 0.472385 0.387328
0.924290 0.488845 0.403495
0.924797 0.503714 0.418105
0.036484 0.012580 0.062778
0.036484 0.012580 0.062778
0.036484 0.012580 0.062778
0.055827 0.000000 0.057115
0.073947 0.000000 0.053772
0.092158 0.000000 0.051163
0.117556 0.000000 0.048687
0.150022 0.000000 0.046631
0.194359 0.000000 0.044429
0.251121 0.000000 0.041417
0.322446 0.000000 0.037326
0.407137 0.000000 0.033062
0.502146 0.000000 0.029601
0.602234 0.000000 0.026148
0.700825 0.000000 0.021214
0.787130 0.000000 0.012557
0.843425 0.000000 0.006766
0.873473 0.000000 0.015587
0.891121 0.000000 0.051009
0.901944 0.078032 0.097700
0.908368 0.163066 0.142467
0.912360 0.224215 0.180216
0.915000 0.270237 0.212391
0.916919 0.307470 0.240887
0.918406 0.338865 0.266452
0.919585 0.366408 0.290251
0.920630 0.391592 0.312418
0.921555 0.414751 0.333375
0.922369 0.435819 0.352807
0.923084 0.454989 0.370874
0.923724 0.472385 0.387328
0.924290 0.488845 0.403495
0.924797 0.503714 0.418105
0.036484 0.012580 0.062778
0.036484 0.012580 0.062778
0.036484 0.012580 0.062778
0.055827 0.000000 0.057115
0.073947 0.000000 0.053772
0.092158 0.000000 0.051163
0.117556 0.000000 0.048687
0.150022 0.000000 0.046631
0.194359 0.000000 0.044429
0.251121 0.000000 0.041417
0.322446 0.000000 0.037326
0.407137 0.000000 0.033062
0.502146 0.000000 0.029601
0.602234 0.000000 0.026148
0.700825 0.000000 0.021214
0.787130 0.000000 0.012557
0.843425 0.000000 0.006766
0.873473 0.000000 0.015587
0.891121 0.000000 0.051009
0.901944 0.078032 0.097700
0.908368 0.163066 0.142467
0.912360 0.224215 0.180216
0.915000 0.270237 0.212391
0.916919 0.307470 0.240887
0.918406 0.338865 0.266452
0.919585 0.366408 0.290251
0.920630 0.391592 0.312418
0.921555 0.414751 0.333375
0.922369 0.435819 0.352807
0.923084 0.454989 0.370874
0.923724 0.472385 0.387328
0.924290 0.488845 0.403495
0.924797 0.503714 0.418105
0.035867 0.040817 0.068274
0.035867 0.040817 0.068274
0.035867 0.040817 0.068274
0.066890 0.045655 0.062041
0.092443 0.047820 0.053484
0.118798 0.039375 0.049376
0.148979 0.025180 0.045031
0.183505 0.011121 0.040662
0.225154 0.000000 0.036311
0.277909 0.000000 0.032037
0.343284 0.000000 0.028142
0.422413 0.000000 0.024720
0.511196 0.000000 0.022437
0.606054 0.000000 0.021103
0.701434 0.000000 0.017992
0.786111 0.000000 0.010667
0.842214 0.000000 0.005300
0.872257 0.000000 0.013215
0.889963 0.000000 0.046227
0.901155 0.068091 0.091739
0.907771 0.153443 0.135947
0.911897 0.215831 0.173986
0.914624 0.262615 0.206250
0.916590 0.300204 0.234688
0.918108 0.331792 0.260157
0.919287 0.358953 0.283447
0.920331 0.383765 0.305125
0.921251 0.406561 0.325609
0.922067 0.427447 0.344737
0.922791 0.446610 0.362659
0.923437 0.463951 0.378934
0.923994 0.479835 0.394407
0.924493 0.494183 0.408388
0.035797 0.070530 0.082506
0.035797 0.070530 0.082506
0.035797 0.070530 0.082506
0.070206 0.085440 0.071328
0.101806 0.090903 0.066710
0.141288 0.097426 0.054010
0.178649 0.093317 0.046013
0.219307 0.073845 0.039428
0.262400 0.047680 0.033261
0.311642 0.018472 0.026990
0.372369 0.000000 0.020380
0.445495 0.000000 0.016191
0.528493 0.000000 0.014021
0.617908 0.000000 0.014395
0.708935 0.000000 0.013554
0.790553 0.000000 0.007601
0.844194 0.000000 0.003433
0.873427 0.000000 0.012491
0.890467 0.000000 0.046029
0.901423 0.070420 0.091605
0.907930 0.154593 0.135577
0.912007 0.216672 0.173723
0.914686 0.262885 0.205749
0.916602 0.299684 0.233709
0.918103 0.331020 0.259042
0.919273 0.357985 0.282205
0.920308 0.382622 0.303759
0.921220 0.405266 0.324118
0.922028 0.425997 0.343114
0.922746 0.445000 0.360898
0.923387 0.462200 0.377050
0.923940 0.477986 0.392421
0.924437 0.492246 0.406311
0.039442 0.102887 0.094719
0.039442 0.102887 0.094719
0.039442 0.102887 0.094719
0.075191 0.126052 0.084899
0.109926 0.142408 0.079456
0.150906 0.147904 0.073670
0.201405 0.156659 0.059385
0.248054 0.152910 0.048743
0.298111 0.130721 0.037196
0.351576 0.092601 0.025745
0.409870 0.042544 0.015223
0.475488 0.000000 0.008825
0.551208 0.000000 0.005629
0.634339 0.000000 0.005910
0.720151 0.000000 0.007621
0.797299 0.000000 0.003227
0.846899 0.000000 0.000819
0.874875 0.000000 0.011497
0.891294 0.000000 0.046537
0.901975 0.076048 0.093043
0.908306 0.158822 0.136929
0.912235 0.219319 0.174542
0.914839 0.264725 0.206326
0.916705 0.300956 0.234088
0.918173 0.331900 0.259263
0.919343 0.359038 0.282674
0.920369 0.383564 0.304205
0.921257 0.405699 0.324166
0.922053 0.426137 0.342935
0.922765 0.445052 0.360654
0.923402 0.462171 0.376745
0.923953 0.477879 0.392055
0.924448 0.492066 0.405889
0.048074 0.145768 0.112117
0.048074 0.145768 0.112117
0.048074 0.145768 0.112117
0.078729 0.173916 0.105219
0.115945 0.197641 0.096544
0.159064 0.212696 0.090880
0.215545 0.219813 0.082136
0.273992 0.227229 0.068293
0.332007 0.220344 0.053705
0.392480 0.194457 0.037305
0.456483 0.145437 0.020252
0.521322 0.077422 0.005755
0.587560 0.004083 0.000000
0.661226 0.000000 0.000000
0.736334 0.000000 0.000000
0.807407 0.000000 0.000000
0.851549 0.000000 0.000000
0.877067 0.000000 0.010203
0.892651 0.000000 0.048185
0.902760 0.084202 0.095552
0.908828 0.165123 0.139436
0.912592 0.224007 0.176624
0.915108 0.268609 0.208312
0.916918 0.304286 0.235964
0.918318 0.334250 0.260569
0.919465 0.361108 0.283892
0.920473 0.385423 0.305356
0.921350 0.407420 0.325266
0.922136 0.427724 0.343984
0.922840 0.446507 0.361650
0.923471 0.463531 0.377715
0.924026 0.479421 0.393238
0.924523 0.493774 0.407265
0.059659 0.199490 0.135373
0.059659 0.199490 0.135373
0.059659 0.199490 0.135373
0.083654 0.230962 0.131362
0.118718 0.258236 0.119416
0.162256 0.280445 0.111439
0.223330 0.295363 0.103623
0.292469 0.302366 0.093698
0.359509 0.308284 0.078989
0.428660 0.297562 0.060152
0.500450 0.261074 0.037879
0.572914 0.197765 0.016352
0.642033 0.111314 0.000000
0.703785 0.010143 0.000000
0.761240 0.000000 0.000000
0.822649 0.000000 0.000000
0.858758 0.000000 0.000000
0.880547 0.000000 0.008758
0.894726 0.000000 0.051453
0.903901 0.096757 0.099771
0.909600 0.174934 0.143800
0.913113 0.231276 0.180269
0.915470 0.274038 0.211288
0.917194 0.308771 0.238620
0.918536 0.338159 0.263038
0.919660 0.364704 0.286262
0.920655 0.388912 0.307788
0.921530 0.411071 0.327982
0.922304 0.431250 0.346694
0.922987 0.449635 0.364078
0.923599 0.466317 0.379906
0.924145 0.482114 0.395410
0.924636 0.496383 0.409419
0.073981 0.268064 0.167028
0.073981 0.268064 0.167028
0.073981 0.268064 0.167028
0.092096 0.298237 0.163716
0.119224 0.326752 0.152933
0.158376 0.353050 0.141125
0.221322 0.376915 0.129163
0.297634 0.392435 0.119699
0.379471 0.396384 0.108498
0.454237 0.399733 0.092743
0.533362 0.381741 0.069324
0.615852 0.333182 0.041459
0.697949 0.249345 0.013675
0.757710 0.138561 0.000000
0.802744 0.006910 0.000000
0.844485 0.000000 0.000000
0.869904 0.000000 0.000000
0.886414 0.000000 0.006640
0.898196 0.019074 0.056531
0.905738 0.116123 0.106095
0.910666 0.188502 0.149717
0.913823 0.241330 0.185388
0.915967 0.281699 0.215628
0.917584 0.315305 0.242677
0.918874 0.344404 0.267226
0.919942 0.370120 0.289982
0.920899 0.393762 0.311223
0.921756 0.415696 0.331378
0.922515 0.435687 0.350059
0.923185 0.453919 0.367420
0.923785 0.470465 0.383227
0.924321 0.486165 0.398734
0.924803 0.500345 0.412747
0.092297 0.350671 0.205924
0.092297 0.350671 0.205924
0.092297 0.350671 0.205924
0.103933 0.376736 0.204495
0.123266 0.403793 0.194249
0.152709 0.431370 0.180822
0.206096 0.462309 0.165711
0.289062 0.485749 0.150022
0.381477 0.496616 0.138041
0.473090 0.497658 0.126289
0.556854 0.495203 0.108099
0.645627 0.469473 0.080949
0.734509 0.407559 0.047789
0.801802 0.294601 0.011245
0.847263 0.142007 0.000000
0.871438 0.000000 0.000000
0.884994 0.000000 0.000000
0.895406 0.000000 0.010087
0.902915 0.063181 0.066331
0.908351 0.145509 0.116445
0.912126 0.207368 0.157954
0.914735 0.254515 0.192242
0.916602 0.291993 0.221662
0.918055 0.323790 0.248051
0.919273 0.351920 0.272271
0.920308 0.377216 0.294940
0.921237 0.400521 0.316126
0.922071 0.422209 0.336260
0.922815 0.442145 0.355086
0.923477 0.460504 0.372750
0.924070 0.477123 0.388794
0.924583 0.492449 0.404084
0.925043 0.506291 0.417900
0.113924 0.447424 0.250428
0.113924 0.447424 0.250428
0.113924 0.447424 0.250428
0.121042 0.468702 0.250745
0.133102 0.491222 0.244973
0.153075 0.518107 0.233245
0.191029 0.550508 0.214807
0.261620 0.582177 0.193015
0.363603 0.602278 0.173805
0.470920 0.608103 0.159980
0.573550 0.602484 0.147904
0.665020 0.592245 0.127954
0.754964 0.555304 0.096847
0.823293 0.476514 0.055623
0.876535 0.333845 0.005102
0.900015 0.165370 0.000000
0.905934 0.077195 0.000000
0.907783 0.081014 0.031143
0.909396 0.134703 0.086410
0.911905 0.189028 0.133307
0.914145 0.234629 0.170521
0.915974 0.272908 0.201935
0.917457 0.305953 0.229783
0.918710 0.335337 0.255262
0.919834 0.362259 0.279129
0.920844 0.387579 0.302300
0.921736 0.410573 0.323609
0.922516 0.431463 0.343347
0.923219 0.450858 0.361965
0.923852 0.468916 0.379598
0.924419 0.485271 0.395620
0.924914 0.500449 0.410960
0.925358 0.514156 0.424820
0.138548 0.556932 0.299886
0.138548 0.556932 0.299886
0.138548 0.556932 0.299886
0.142462 0.572746 0.302092
0.149218 0.590163 0.300254
0.160709 0.611104 0.293390
0.183495 0.641012 0.278423
0.231726 0.677585 0.252364
0.322768 0.707591 0.224496
0.442829 0.722541 0.203117
0.564848 0.719554 0.187563
0.675806 0.706663 0.173243
0.766170 0.687785 0.149390
0.833857 0.638977 0.111389
0.888425 0.538469 0.057954
0.918040 0.394508 0.015481
0.923078 0.275187 0.025310
0.919202 0.224090 0.076316
0.916564 0.226274 0.121713
0.916071 0.245122 0.158031
0.916635 0.270869 0.188851
0.917568 0.298249 0.216274
0.918603 0.325679 0.242046
0.919633 0.352121 0.266498
0.920608 0.376842 0.289381
0.921526 0.400855 0.311955
0.922349 0.422944 0.332942
0.923086 0.443427 0.352712
0.923750 0.462486 0.371378
0.924350 0.480276 0.389076
0.924888 0.496400 0.405163
0.925362 0.511507 0.420653
0.925788 0.525150 0.434649
0.165239 0.675681 0.354402
0.165239 0.675681 0.354402
0.165239 0.675681 0.354402
0.167244 0.685787 0.356383
0.170830 0.698239 0.356855
0.176961 0.713328 0.354886
0.189619 0.734439 0.347552
0.216749 0.761725 0.329574
0.273375 0.790778 0.297819
0.382987 0.809439 0.262773
0.522937 0.815154 0.234639
0.658598 0.808098 0.215561
0.769647 0.793510 0.198153
0.838896 0.772476 0.168168
0.887976 0.719332 0.122003
0.926045 0.609800 0.071254
0.935424 0.491082 0.072947
0.931105 0.395523 0.125407
0.924683 0.343120 0.168245
0.921285 0.322942 0.195519
0.920131 0.324658 0.217044
0.919974 0.337048 0.238299
0.920344 0.355246 0.260043
0.920970 0.376092 0.282109
0.921698 0.397567 0.303804
0.922447 0.419142 0.325244
0.923145 0.439526 0.345550
0.923809 0.459205 0.365223
0.924408 0.477386 0.383562
0.924949 0.494224 0.400713
0.925435 0.509522 0.416338
0.925877 0.524281 0.431787
0.926273 0.537608 0.445745
0.193549 0.782277 0.414475
0.193549 0.782277 0.414475
0.193549 0.782277 0.414475
0.194445 0.786555 0.416250
0.196175 0.792530 0.417996
0.199281 0.799927 0.418751
0.206134 0.811286 0.417568
0.219328 0.826331 0.409488
0.247993 0.845262 0.387334
0.313370 0.864934 0.346111
0.441440 0.876929 0.300033
0.602424 0.877867 0.265785
0.749003 0.869510 0.243184
0.837399 0.854621 0.221113
0.888393 0.832016 0.182571
0.926430 0.786309 0.133200
0.942362 0.700092 0.115923
0.942396 0.591487 0.162906
0.935109 0.506858 0.216907
0.929381 0.448268 0.245503
0.925771 0.414677 0.261018
0.923938 0.403175 0.275297
0.923248 0.405766 0.290714
0.923162 0.415779 0.307470
0.923383 0.429802 0.325601
0.923845 0.447230 0.345213
0.924313 0.464139 0.363890
0.924803 0.481049 0.382105
0.925277 0.497413 0.399661
0.925737 0.513331 0.416668
0.926152 0.527781 0.432129
0.926540 0.541629 0.447079
0.926889 0.554131 0.460583
0.221484 0.854858 0.477159
0.221484 0.854858 0.477159
0.221484 0.854858 0.477159
0.221942 0.856569 0.478377
0.222856 0.859269 0.480164
0.224531 0.863162 0.482466
0.228058 0.868349 0.483793
0.235732 0.875950 0.482084
0.249691 0.886345 0.471358
0.279867 0.899640 0.443462
0.353977 0.913269 0.392509
0.502489 0.920570 0.336068
0.682319 0.918965 0.297466
0.815323 0.910143 0.270076
0.883488 0.895956 0.241093
0.921720 0.875975 0.197942
0.944041 0.842029 0.166252
0.950074 0.781618 0.185467
0.945401 0.695221 0.252040
0.938865 0.613997 0.299832
0.933836 0.554595 0.322339
0.930352 0.514791 0.332072
0.928113 0.491700 0.339020
0.926792 0.482065 0.348042
0.926103 0.482097 0.360074
0.926029 0.491414 0.376140
0.926078 0.501806 0.391727
0.926285 0.513950 0.407294
0.926543 0.526670 0.422844
0.926851 0.539991 0.438447
0.927132 0.552166 0.452685
0.927442 0.564791 0.467076
0.927721 0.576186 0.480073
0.248522 0.900898 0.532108
0.248522 0.900898 0.532108
0.248522 0.900898 0.532108
0.248757 0.901648 0.533236
0.249401 0.903031 0.535073
0.250274 0.904709 0.537055
0.252454 0.907325 0.539338
0.257124 0.911174 0.540889
0.265524 0.916654 0.538660
0.280359 0.923935 0.525717
0.316861 0.933969 0.491268
0.408405 0.945225 0.435534
0.579100 0.950133 0.373082
0.762999 0.947953 0.330407
0.865635 0.938839 0.294851
0.912576 0.923465 0.258417
0.941212 0.905799 0.218588
0.953093 0.880178 0.208551
0.953203 0.837083 0.260405
0.947978 0.776534 0.327640
0.942163 0.711914 0.373119
0.937695 0.655211 0.395611
0.934446 0.614186 0.404914
0.932106 0.585640 0.409461
0.930424 0.566555 0.413186
0.929489 0.560104 0.420750
0.928837 0.558165 0.429896
0.928538 0.561921 0.441492
0.928409 0.568196 0.453924
0.928443 0.576875 0.467201
0.928486 0.584983 0.479398
0.928663 0.595354 0.492657
0.928823 0.604710 0.504629
0.278079 0.931763 0.576738
0.278079 0.931763 0.576738
0.278079 0.931763 0.576738
0.278168 0.932050 0.577739
0.279013 0.932939 0.579551
0.280319 0.934192 0.581898
0.282885 0.936206 0.585500
0.286627 0.938817 0.589572
0.293044 0.942544 0.593189
0.303327 0.947088 0.591399
0.321039 0.952916 0.576846
0.364844 0.960084 0.537192
0.474547 0.965856 0.467915
0.665279 0.967203 0.399369
0.828633 0.964026 0.351833
0.899948 0.956695 0.315680
0.932633 0.945417 0.283159
0.952501 0.929323 0.248112
0.957136 0.904522 0.261916
0.955359 0.872452 0.323418
0.950265 0.830341 0.389238
0.945021 0.784723 0.435295
0.940911 0.742040 0.460667
0.937824 0.704877 0.473294
0.935495 0.674584 0.478985
0.933939 0.654970 0.481979
0.932687 0.640725 0.485752
0.931819 0.632747 0.490692
0.931200 0.629079 0.497183
0.930823 0.629436 0.505153
0.930499 0.630221 0.512689
0.930432 0.635928 0.523201
0.930370 0.641074 0.532689
0.314334 0.955115 0.619649
0.314334 0.955115 0.619649
0.314334 0.955115 0.619649
0.314110 0.955097 0.620232
0.314886 0.955579 0.621902
0.315929 0.956197 0.623946
0.317293 0.957003 0.626727
0.319379 0.958159 0.630522
0.322585 0.959731 0.634938
0.327999 0.961883 0.638462
0.337106 0.964494 0.635322
0.355394 0.968324 0.613531
0.410683 0.972700 0.561446
0.560677 0.975475 0.477811
0.767863 0.974671 0.410843
0.875504 0.971109 0.367839
0.922130 0.965375 0.333520
0.947608 0.957051 0.302416
0.958833 0.945144 0.289265
0.960341 0.925681 0.321824
0.957016 0.896527 0.380897
0.952214 0.866092 0.444070
0.947388 0.833301 0.490625
0.943481 0.801838 0.519822
0.940492 0.773878 0.536255
0.938499 0.752268 0.542333
0.936824 0.733447 0.547045
0.935576 0.718890 0.550036
0.934584 0.707768 0.553330
0.933851 0.700216 0.556882
0.933198 0.693781 0.560353
0.932839 0.692848 0.566208
0.932511 0.692009 0.571492
0.342076 0.966849 0.653633
0.342076 0.966849 0.653633
0.342076 0.966849 0.653633
0.341835 0.966825 0.654069
0.342273 0.967012 0.655279
0.342920 0.967287 0.656905
0.344057 0.967758 0.659534
0.345341 0.968331 0.663100
0.347109 0.969093 0.667679
0.349843 0.970134 0.672828
0.354547 0.971386 0.674491
0.365775 0.973214 0.666561
0.405314 0.975697 0.634470
0.516825 0.977745 0.571640
0.715739 0.977663 0.500079
0.846446 0.975788 0.450477
0.905812 0.972915 0.405165
0.935955 0.968775 0.366276
0.954776 0.962064 0.341430
0.961510 0.952695 0.346270
0.961648 0.938181 0.389126
0.958539 0.918430 0.445925
0.954007 0.893768 0.497237
0.949419 0.866600 0.537580
0.945757 0.843215 0.569345
0.943195 0.823826 0.585604
0.941032 0.806187 0.597747
0.939438 0.791946 0.604368
0.938145 0.780025 0.609290
0.937167 0.770682 0.612502
0.936281 0.762219 0.615521
0.935706 0.757469 0.618963
0.935180 0.753115 0.622082
0.379865 0.972531 0.683822
0.379865 0.972531 0.683822
0.379865 0.972531 0.683822
0.379408 0.972508 0.684058
0.380203 0.972615 0.685209
0.381767 0.972750 0.686831
0.383759 0.972950 0.689138
0.386098 0.973198 0.692366
0.388848 0.973543 0.696802
0.392461 0.974019 0.702448
0.398094 0.974570 0.707308
0.411453 0.975255 0.706952
0.457479 0.976100 0.691078
0.554887 0.976772 0.655130
0.710814 0.976121 0.610817
0.825182 0.974819 0.572725
0.886936 0.973515 0.526602
0.922652 0.971872 0.471137
0.945136 0.968702 0.425162
0.958229 0.963646 0.401594
0.962423 0.956152 0.413425
0.961979 0.945080 0.455950
0.959223 0.930859 0.507862
0.955558 0.914351 0.554499
0.951660 0.896063 0.592005
0.948316 0.877687 0.614906
0.945343 0.858667 0.632527
0.943218 0.844014 0.644839
0.941604 0.832522 0.654295
0.940391 0.823267 0.660036
0.939281 0.814687 0.665246
0.938550 0.808996 0.668658
0.937875 0.803722 0.671779
0.455611 0.974325 0.712587
0.455611 0.974325 0.712587
0.455611 0.974325 0.712587
0.454416 0.974311 0.712665
0.456055 0.974320 0.713566
0.459066 0.974353 0.714989
0.463673 0.974365 0.717053
0.470290 0.974383 0.720144
0.477424 0.974407 0.724052
0.486772 0.974417 0.729089
0.500374 0.974423 0.734675
0.520064 0.974408 0.737648
0.565030 0.974181 0.734582
0.640964 0.973662 0.722434
0.745327 0.972414 0.705557
0.822538 0.971143 0.686311
0.873682 0.970335 0.655334
0.908222 0.970016 0.606846
0.931814 0.969328 0.547520
0.950706 0.966979 0.497633
0.959241 0.963177 0.476598
0.961831 0.957029 0.491106
0.961180 0.948343 0.528694
0.958960 0.937745 0.572131
0.956068 0.925854 0.612564
0.953051 0.914163 0.642062
0.950315 0.902159 0.665273
0.947954 0.890507 0.681134
0.945940 0.879307 0.692907
0.944280 0.869009 0.700721
0.942729 0.858900 0.707782
0.941679 0.851550 0.711478
0.940690 0.844501 0.714882
0.563990 0.973400 0.740019
0.563990 0.973400 0.740019
0.563990 0.973400 0.740019
0.562288 0.973422 0.739940
0.565712 0.973341 0.741095
0.569394 0.973280 0.742371
0.575160 0.973166 0.744321
0.583171 0.973011 0.747106
0.592612 0.972806 0.750727
0.606098 0.972479 0.755719
0.622984 0.972066 0.761364
0.642579 0.971586 0.766112
0.675331 0.970880 0.769201
0.727116 0.969828 0.769418
0.786180 0.968337 0.769180
0.833782 0.966863 0.766636
0.869807 0.965968 0.754708
0.898023 0.965845 0.727192
0.920547 0.966262 0.676756
0.940895 0.965910 0.619316
0.952790 0.964241 0.578826
0.958410 0.961098 0.564337
0.960144 0.956116 0.575755
0.959655 0.949432 0.603366
0.957956 0.941406 0.637366
0.955635 0.933018 0.667126
0.953413 0.924533 0.691753
0.951302 0.916379 0.710501
0.949466 0.908570 0.724214
0.947878 0.901379 0.733631
0.946404 0.894307 0.741798
0.945307 0.888479 0.746475
0.944282 0.882820 0.750775
0.670359 0.970869 0.767982
0.670359 0.970869 0.767982
0.670359 0.970869 0.767982
0.668666 0.970913 0.767759
0.672035 0.970802 0.768831
0.675884 0.970674 0.770095
0.682041 0.970469 0.772137
0.689653 0.970194 0.774756
0.698880 0.969856 0.778101
0.711597 0.969367 0.782655
0.726372 0.968742 0.788021
0.741408 0.968029 0.793632
0.759869 0.967225 0.798453
0.787033 0.966103 0.802994
0.819197 0.964589 0.808177
0.848708 0.962998 0.812281
0.873084 0.961839 0.810728
0.893959 0.961359 0.800329
0.912572 0.961827 0.775103
0.932050 0.962337 0.734427
0.945025 0.962203 0.691107
0.952804 0.960957 0.660097
0.956716 0.958407 0.648676
0.958068 0.954488 0.655188
0.957808 0.949305 0.674205
0.956352 0.943196 0.698454
0.954802 0.937001 0.719077
0.953112 0.930886 0.735630
0.951552 0.925089 0.748300
0.950120 0.919755 0.757796
0.948810 0.914538 0.765943
0.947755 0.910097 0.771213
0.946784 0.905801 0.775940
0.754576 0.967640 0.794435
0.754576 0.967640 0.794435
0.754576 0.967640 0.794435
0.753682 0.967673 0.794283
0.755388 0.967577 0.795054
0.758128 0.967423 0.796252
0.762695 0.967165 0.798188
0.768090 0.966842 0.800646
0.774494 0.966432 0.803764
0.781981 0.965920 0.807591
0.791058 0.965264 0.812326
0.800597 0.964501 0.817741
0.810628 0.963749 0.822376
0.825503 0.962684 0.827745
0.843677 0.961284 0.833898
0.862480 0.959665 0.840044
0.879227 0.958299 0.843017
0.894128 0.957461 0.840844
0.910262 0.957396 0.828822
0.925825 0.957977 0.806881
0.937854 0.958716 0.778714
0.946430 0.958735 0.751228
0.951845 0.957789 0.730573
0.954782 0.955776 0.721163
0.955973 0.952703 0.723552
0.955541 0.948430 0.736400
0.954823 0.944012 0.748385
0.953737 0.939394 0.759953
0.952597 0.934946 0.769722
0.951401 0.930729 0.778016
0.950306 0.926647 0.785139
0.949331 0.923231 0.790271
0.948439 0.919955 0.794817
0.806413 0.964303 0.817649
0.806413 0.964303 0.817649
0.806413 0.964303 0.817649
0.806455 0.964290 0.817782
0.807626 0.964191 0.818468
0.809373 0.964039 0.819512
0.811835 0.963823 0.820985
0.815090 0.963528 0.822976
0.819920 0.963071 0.825995
0.824843 0.962577 0.829215
0.830171 0.961988 0.833035
0.835994 0.961305 0.837330
0.841917 0.960627 0.841200
0.850880 0.959622 0.846307
0.861841 0.958346 0.852088
0.873918 0.956828 0.858240
0.885729 0.955366 0.862885
0.896735 0.954297 0.864145
0.910499 0.953735 0.858995
0.922176 0.953921 0.848140
0.932107 0.954688 0.831661
0.940303 0.955539 0.812339
0.946362 0.955664 0.794754
0.950345 0.954905 0.781849
0.952794 0.953391 0.774218
0.953581 0.950741 0.774987
0.953817 0.947837 0.777968
0.953409 0.944483 0.783904
0.952790 0.941131 0.789904
0.951969 0.937784 0.795998
0.951203 0.934560 0.801295
0.950331 0.931668 0.805729
0.949536 0.928906 0.809640
0.835910 0.961399 0.836424
0.835910 0.961399 0.836424
0.835910 0.961399 0.836424
0.835531 0.961437 0.836224
0.836351 0.961343 0.836786
0.837996 0.961150 0.837939
0.839739 0.960944 0.839156
0.841999 0.960670 0.840757
0.845100 0.960280 0.842997
0.848589 0.959821 0.845593
0.852252 0.959290 0.848613
0.856294 0.958680 0.851961
0.860153 0.958103 0.854912
0.865653 0.957304 0.858641
0.873159 0.956197 0.863369
0.881687 0.954865 0.868572
0.890325 0.953540 0.872916
0.901039 0.952321 0.874652
0.911445 0.951581 0.872769
0.920629 0.951442 0.867067
0.928845 0.951819 0.857574
0.935981 0.952479 0.845268
0.941761 0.952906 0.832822
0.946045 0.952804 0.822191
0.949061 0.952180 0.813739
0.950633 0.950581 0.810064
0.951594 0.948748 0.808267
0.951907 0.946481 0.809005
0.951864 0.944102 0.810882
0.951496 0.941590 0.813829
0.951133 0.939183 0.816502
0.950499 0.936802 0.819825
0.949923 0.934543 0.822758
0.856298 0.958810 0.850852
0.856298 0.958810 0.850852
0.856298 0.958810 0.850852
0.855782 0.958879 0.850508
0.856357 0.958795 0.850954
0.857695 0.958598 0.851990
0.858966 0.958405 0.853000
0.860651 0.958144 0.854355
0.862687 0.957818 0.856031
0.865069 0.957424 0.858018
0.867526 0.956978 0.860286
0.870297 0.956464 0.862821
0.872862 0.955979 0.865090
0.876231 0.955358 0.867809
0.881332 0.954436 0.871567
