luts/P4P_02_FlatBase_size65.cube
# POCKET 4P D-Log2 LUT pack v1.0 - FlatBase
# Low-contrast base to grade on top of. Not a finished look.
# Input:  DJI Osmo Pocket 4P D-Log2 / D-Gamut2, full range
# Output: Rec.709 / gamma 2.4 display
# Built on DJI's official D-Log2 to Rec.709 colorimetry with a
# scene-linear highlight shoulder so nothing clips at +7 stops.
TITLE "POCKET 4P FlatBase v1.0"
LUT_3D_SIZE 5
DOMAIN_MIN 0.0 0.0 0.0
DOMAIN_MAX 1.0 1.0 1.0
0.155348 0.155343 0.155354
0.304841 0.110037 0.189362
0.635929 0.163893 0.279497
0.695208 0.440018 0.411792
0.701610 0.506569 0.475102
0.092758 0.318997 0.239506
0.371914 0.382416 0.123264
0.653335 0.187561 0.258963
0.695333 0.441863 0.411735
0.701457 0.505042 0.472818
0.116332 0.617474 0.397968
0.099692 0.630201 0.399467
0.628658 0.653932 0.159043
0.706313 0.558127 0.490935
0.706245 0.555260 0.517359
0.544842 0.716318 0.554108
0.556991 0.716744 0.563317
0.625589 0.719101 0.610008
0.707858 0.715847 0.560254
0.719095 0.694576 0.602612
0.639466 0.719692 0.633108
0.641832 0.719766 0.634692
0.656216 0.720243 0.646348
0.696835 0.721592 0.663054
0.714963 0.720129 0.650572
0.134308 0.156529 0.273283
0.346773 0.135628 0.323934
0.645068 0.181939 0.355067
0.695395 0.441748 0.418904
0.701587 0.506163 0.476540
0.074392 0.348845 0.340954
0.372971 0.372971 0.372971
0.663526 0.234270 0.350641
0.695592 0.444247 0.418915
0.701546 0.505832 0.475467
0.127739 0.623388 0.423366
0.105177 0.633384 0.423952
0.631251 0.654931 0.269575
0.706233 0.556787 0.495159
0.706357 0.556251 0.519998
0.548671 0.716464 0.558276
0.555491 0.716706 0.563683
0.627025 0.719161 0.612176
0.707916 0.715830 0.561574
0.719115 0.694654 0.603644
0.640313 0.719721 0.633884
0.641633 0.719760 0.634783
0.656504 0.720256 0.646953
0.696888 0.721599 0.663668
0.715001 0.720116 0.651034
0.124860 0.382732 0.551465
0.200823 0.357185 0.610399
0.640464 0.170040 0.582730
0.699142 0.472265 0.537833
0.704032 0.526928 0.546379
0.122485 0.387388 0.554999
0.192808 0.364107 0.608058
0.640052 0.180940 0.582297
0.698863 0.469170 0.535945
0.703679 0.523261 0.543389
0.407021 0.626926 0.612600
0.424750 0.629125 0.614844
0.627171 0.625805 0.625668
0.708662 0.575251 0.585540
0.708057 0.569976 0.570486
0.537550 0.716600 0.607535
0.544783 0.716830 0.609959
0.606433 0.718321 0.624526
0.706771 0.711920 0.618081
0.719448 0.694105 0.635224
0.649665 0.720216 0.656762
0.651814 0.720291 0.658418
0.666340 0.720786 0.667779
0.698971 0.721724 0.670732
0.716139 0.719053 0.657695
0.268419 0.485233 0.688173
0.267998 0.483427 0.688577
0.535951 0.510060 0.699650
0.701910 0.491431 0.657225
0.706078 0.542600 0.618344
0.269737 0.485703 0.688411
0.264170 0.482233 0.688023
0.533126 0.505182 0.699155
0.701360 0.485293 0.656193
0.705633 0.537753 0.616235
0.379168 0.551368 0.699188
0.380371 0.546717 0.698818
0.552781 0.570144 0.703690
0.705855 0.536307 0.666778
0.707866 0.561969 0.627496
0.611684 0.703641 0.695467
0.613402 0.703916 0.695910
0.639572 0.704265 0.698472
0.700260 0.700257 0.700242
0.718896 0.694692 0.697024
0.636933 0.718350 0.690073
0.638954 0.718457 0.690651
0.655122 0.718627 0.694262
0.696118 0.715877 0.699919
0.713120 0.714949 0.700090
0.433972 0.555677 0.700975
0.429073 0.553050 0.700621
0.499748 0.566620 0.703567
0.691432 0.564061 0.704437
0.709034 0.571651 0.673429
0.433477 0.555407 0.700939
0.426431 0.551688 0.700435
0.493858 0.561826 0.703006
0.690349 0.558190 0.703957
0.708572 0.566548 0.672089
0.463126 0.573562 0.703270
0.457809 0.570559 0.702875
0.509677 0.578053 0.704855
0.692892 0.574646 0.705354
0.709730 0.579257 0.675634
0.620849 0.694887 0.713678
0.621623 0.694896 0.713804
0.631401 0.693804 0.715156
0.700021 0.697941 0.714121
0.716546 0.692605 0.709267
0.662851 0.714017 0.709152
0.664020 0.714139 0.709377
0.672219 0.714487 0.710469
0.700515 0.713104 0.711724
0.712264 0.712162 0.712020
