luts/P4P_09_Nordic_size65.cube
# POCKET 4P D-Log2 LUT pack v1.0 - Nordic
# Cold and muted. Overcast, slate greens.
# Input:  DJI Osmo Pocket 4P D-Log2 / D-Gamut2, full range
# Output: Rec.709 / gamma 2.4 display
# Built on DJI's official D-Log2 to Rec.709 colorimetry with a
# scene-linear highlight shoulder so nothing clips at +7 stops.
TITLE "POCKET 4P Nordic v1.0"
LUT_3D_SIZE 65
DOMAIN_MIN 0.0 0.0 0.0
DOMAIN_MAX 1.0 1.0 1.0
0.004257 0.014633 0.037042
0.004257 0.014633 0.037042
0.004257 0.014633 0.037042
0.004257 0.014633 0.037042
0.004257 0.014633 0.037042
0.006628 0.007528 0.030483
0.012266 0.004428 0.028282
0.016850 0.001143 0.026230
0.021380 0.000000 0.024309
0.025581 0.000000 0.022335
0.032241 0.000000 0.020914
0.041259 0.000000 0.019224
0.051675 0.000000 0.017283
0.063844 0.000000 0.015125
0.077572 0.000000 0.012674
0.094218 0.000000 0.009781
0.113453 0.000000 0.006387
0.134997 0.000000 0.002449
0.160277 0.000000 0.000000
0.188390 0.000000 0.000000
0.220159 0.000000 0.000000
0.254877 0.000000 0.000000
0.291236 0.000000 0.000000
0.330624 0.000000 0.000000
0.371249 0.000000 0.000000
0.413183 0.000000 0.000000
0.456015 0.000000 0.000000
0.498115 0.000000 0.000000
0.539971 0.000000 0.000000
0.579393 0.000000 0.000000
0.627522 0.000000 0.000000
0.671027 0.000000 0.000000
0.706994 0.000000 0.000000
0.736828 0.000000 0.000000
0.762094 0.000000 0.000000
0.780638 0.000000 0.000000
0.787883 0.000000 0.000000
0.792322 0.000000 0.000000
0.808456 0.000000 0.000000
0.824621 0.008372 0.000000
0.835726 0.055465 0.027745
0.845133 0.098527 0.055202
0.851678 0.131898 0.078406
0.857548 0.163371 0.100471
0.861822 0.188759 0.119973
0.865783 0.213044 0.138631
0.869010 0.234289 0.155856
0.871840 0.253787 0.172066
0.874478 0.272392 0.187547
0.876715 0.289373 0.202426
0.878801 0.305542 0.216630
0.880751 0.320951 0.230185
0.882550 0.335816 0.243694
0.884226 0.350025 0.256745
0.885794 0.363558 0.269209
0.887255 0.376442 0.281145
0.888531 0.388760 0.293277
0.889724 0.400491 0.304883
0.890844 0.411656 0.315945
0.891897 0.422281 0.326482
0.892887 0.432455 0.336640
0.893815 0.442471 0.346946
0.894688 0.451999 0.356755
0.895512 0.461060 0.366089
0.896288 0.469677 0.374969
0.004257 0.014633 0.037042
0.004257 0.014633 0.037042
0.004257 0.014633 0.037042
0.004257 0.014633 0.037042
0.004257 0.014633 0.037042
0.006628 0.007528 0.030483
0.012266 0.004428 0.028282
0.016850 0.001143 0.026230
0.021380 0.000000 0.024309
0.025581 0.000000 0.022335
0.032241 0.000000 0.020914
0.041259 0.000000 0.019224
0.051675 0.000000 0.017283
0.063844 0.000000 0.015125
0.077572 0.000000 0.012674
0.094218 0.000000 0.009781
0.113453 0.000000 0.006387
0.134997 0.000000 0.002449
0.160277 0.000000 0.000000
0.188390 0.000000 0.000000
0.220159 0.000000 0.000000
0.254877 0.000000 0.000000
0.291236 0.000000 0.000000
0.330624 0.000000 0.000000
0.371249 0.000000 0.000000
0.413183 0.000000 0.000000
0.456015 0.000000 0.000000
0.498115 0.000000 0.000000
0.539971 0.000000 0.000000
0.579393 0.000000 0.000000
0.627522 0.000000 0.000000
0.671027 0.000000 0.000000
0.706994 0.000000 0.000000
0.736828 0.000000 0.000000
0.762094 0.000000 0.000000
0.780638 0.000000 0.000000
0.787883 0.000000 0.000000
0.792322 0.000000 0.000000
0.808456 0.000000 0.000000
0.824621 0.008372 0.000000
0.835726 0.055465 0.027745
0.845133 0.098527 0.055202
0.851678 0.131898 0.078406
0.857548 0.163371 0.100471
0.861822 0.188759 0.119973
0.865783 0.213044 0.138631
0.869010 0.234289 0.155856
0.871840 0.253787 0.172066
0.874478 0.272392 0.187547
0.876715 0.289373 0.202426
0.878801 0.305542 0.216630
0.880751 0.320951 0.230185
0.882550 0.335816 0.243694
0.884226 0.350025 0.256745
0.885794 0.363558 0.269209
0.887255 0.376442 0.281145
0.888531 0.388760 0.293277
0.889724 0.400491 0.304883
0.890844 0.411656 0.315945
0.891897 0.422281 0.326482
0.892887 0.432455 0.336640
0.893815 0.442471 0.346946
0.894688 0.451999 0.356755
0.895512 0.461060 0.366089
0.896288 0.469677 0.374969
0.004257 0.014633 0.037042
0.004257 0.014633 0.037042
0.004257 0.014633 0.037042
0.004257 0.014633 0.037042
0.004257 0.014633 0.037042
0.006628 0.007528 0.030483
0.012266 0.004428 0.028282
0.016850 0.001143 0.026230
0.021380 0.000000 0.024309
0.025581 0.000000 0.022335
0.032241 0.000000 0.020914
0.041259 0.000000 0.019224
0.051675 0.000000 0.017283
0.063844 0.000000 0.015125
0.077572 0.000000 0.012674
0.094218 0.000000 0.009781
0.113453 0.000000 0.006387
0.134997 0.000000 0.002449
0.160277 0.000000 0.000000
0.188390 0.000000 0.000000
0.220159 0.000000 0.000000
0.254877 0.000000 0.000000
0.291236 0.000000 0.000000
0.330624 0.000000 0.000000
0.371249 0.000000 0.000000
0.413183 0.000000 0.000000
0.456015 0.000000 0.000000
0.498115 0.000000 0.000000
0.539971 0.000000 0.000000
0.579393 0.000000 0.000000
0.627522 0.000000 0.000000
0.671027 0.000000 0.000000
0.706994 0.000000 0.000000
0.736828 0.000000 0.000000
0.762094 0.000000 0.000000
0.780638 0.000000 0.000000
0.787883 0.000000 0.000000
0.792322 0.000000 0.000000
0.808456 0.000000 0.000000
0.824621 0.008372 0.000000
0.835726 0.055465 0.027745
0.845133 0.098527 0.055202
0.851678 0.131898 0.078406
0.857548 0.163371 0.100471
0.861822 0.188759 0.119973
0.865783 0.213044 0.138631
0.869010 0.234289 0.155856
0.871840 0.253787 0.172066
0.874478 0.272392 0.187547
0.876715 0.289373 0.202426
0.878801 0.305542 0.216630
0.880751 0.320951 0.230185
0.882550 0.335816 0.243694
0.884226 0.350025 0.256745
0.885794 0.363558 0.269209
0.887255 0.376442 0.281145
0.888531 0.388760 0.293277
0.889724 0.400491 0.304883
0.890844 0.411656 0.315945
0.891897 0.422281 0.326482
0.892887 0.432455 0.336640
0.893815 0.442471 0.346946
0.894688 0.451999 0.356755
0.895512 0.461060 0.366089
0.896288 0.469677 0.374969
0.004257 0.014633 0.037042
0.004257 0.014633 0.037042
0.004257 0.014633 0.037042
0.004257 0.014633 0.037042
0.004257 0.014633 0.037042
0.006628 0.007528 0.030483
0.012266 0.004428 0.028282
0.016850 0.001143 0.026230
0.021380 0.000000 0.024309
0.025581 0.000000 0.022335
0.032241 0.000000 0.020914
0.041259 0.000000 0.019224
0.051675 0.000000 0.017283
0.063844 0.000000 0.015125
0.077572 0.000000 0.012674
0.094218 0.000000 0.009781
0.113453 0.000000 0.006387
0.134997 0.000000 0.002449
0.160277 0.000000 0.000000
0.188390 0.000000 0.000000
0.220159 0.000000 0.000000
0.254877 0.000000 0.000000
0.291236 0.000000 0.000000
0.330624 0.000000 0.000000
0.371249 0.000000 0.000000
0.413183 0.000000 0.000000
0.456015 0.000000 0.000000
0.498115 0.000000 0.000000
0.539971 0.000000 0.000000
0.579393 0.000000 0.000000
0.627522 0.000000 0.000000
0.671027 0.000000 0.000000
0.706994 0.000000 0.000000
0.736828 0.000000 0.000000
0.762094 0.000000 0.000000
0.780638 0.000000 0.000000
0.787883 0.000000 0.000000
0.792322 0.000000 0.000000
0.808456 0.000000 0.000000
0.824621 0.008372 0.000000
0.835726 0.055465 0.027745
0.845133 0.098527 0.055202
0.851678 0.131898 0.078406
0.857548 0.163371 0.100471
0.861822 0.188759 0.119973
0.865783 0.213044 0.138631
0.869010 0.234289 0.155856
0.871840 0.253787 0.172066
0.874478 0.272392 0.187547
0.876715 0.289373 0.202426
0.878801 0.305542 0.216630
0.880751 0.320951 0.230185
0.882550 0.335816 0.243694
0.884226 0.350025 0.256745
0.885794 0.363558 0.269209
0.887255 0.376442 0.281145
0.888531 0.388760 0.293277
0.889724 0.400491 0.304883
0.890844 0.411656 0.315945
0.891897 0.422281 0.326482
0.892887 0.432455 0.336640
0.893815 0.442471 0.346946
0.894688 0.451999 0.356755
0.895512 0.461060 0.366089
0.896288 0.469677 0.374969
0.004257 0.014633 0.037042
0.004257 0.014633 0.037042
0.004257 0.014633 0.037042
0.004257 0.014633 0.037042
0.004257 0.014633 0.037042
0.006628 0.007528 0.030483
0.012266 0.004428 0.028282
0.016850 0.001143 0.026230
0.021380 0.000000 0.024309
0.025581 0.000000 0.022335
0.032241 0.000000 0.020914
0.041259 0.000000 0.019224
0.051675 0.000000 0.017283
0.063844 0.000000 0.015125
0.077572 0.000000 0.012674
0.094218 0.000000 0.009781
0.113453 0.000000 0.006387
0.134997 0.000000 0.002449
0.160277 0.000000 0.000000
0.188390 0.000000 0.000000
0.220159 0.000000 0.000000
0.254877 0.000000 0.000000
0.291236 0.000000 0.000000
0.330624 0.000000 0.000000
0.371249 0.000000 0.000000
0.413183 0.000000 0.000000
0.456015 0.000000 0.000000
0.498115 0.000000 0.000000
0.539971 0.000000 0.000000
0.579393 0.000000 0.000000
0.627522 0.000000 0.000000
0.671027 0.000000 0.000000
0.706994 0.000000 0.000000
0.736828 0.000000 0.000000
0.762094 0.000000 0.000000
0.780638 0.000000 0.000000
0.787883 0.000000 0.000000
0.792322 0.000000 0.000000
0.808456 0.000000 0.000000
0.824621 0.008372 0.000000
0.835726 0.055465 0.027745
0.845133 0.098527 0.055202
0.851678 0.131898 0.078406
0.857548 0.163371 0.100471
0.861822 0.188759 0.119973
0.865783 0.213044 0.138631
0.869010 0.234289 0.155856
0.871840 0.253787 0.172066
0.874478 0.272392 0.187547
0.876715 0.289373 0.202426
0.878801 0.305542 0.216630
0.880751 0.320951 0.230185
0.882550 0.335816 0.243694
0.884226 0.350025 0.256745
0.885794 0.363558 0.269209
0.887255 0.376442 0.281145
0.888531 0.388760 0.293277
0.889724 0.400491 0.304883
0.890844 0.411656 0.315945
0.891897 0.422281 0.326482
0.892887 0.432455 0.336640
0.893815 0.442471 0.346946
0.894688 0.451999 0.356755
0.895512 0.461060 0.366089
0.896288 0.469677 0.374969
0.008049 0.025595 0.041312
0.008049 0.025595 0.041312
0.008049 0.025595 0.041312
0.008049 0.025595 0.041312
0.008049 0.025595 0.041312
0.016054 0.026343 0.040376
0.026849 0.027805 0.035607
0.033472 0.024245 0.031981
0.038468 0.019861 0.029062
0.044706 0.014175 0.025590
0.051568 0.009002 0.022326
0.059922 0.002070 0.018148
0.068632 0.000000 0.014247
0.079122 0.000000 0.010594
0.093409 0.000000 0.007517
0.109683 0.000000 0.004295
0.127705 0.000000 0.000731
0.148875 0.000000 0.000000
0.172104 0.000000 0.000000
0.198737 0.000000 0.000000
0.228584 0.000000 0.000000
0.260757 0.000000 0.000000
0.296438 0.000000 0.000000
0.334465 0.000000 0.000000
0.373572 0.000000 0.000000
0.414678 0.000000 0.000000
0.455794 0.000000 0.000000
0.497815 0.000000 0.000000
0.539058 0.000000 0.000000
0.577454 0.000000 0.000000
0.624941 0.000000 0.000000
0.668176 0.000000 0.000000
0.704255 0.000000 0.000000
0.734414 0.000000 0.000000
0.759752 0.000000 0.000000
0.779379 0.000000 0.000000
0.787025 0.000000 0.000000
0.791966 0.000000 0.000000
0.805325 0.000000 0.000000
0.822061 0.000000 0.000000
0.833433 0.045031 0.020711
0.843132 0.088590 0.048258
0.850086 0.123358 0.072165
0.856297 0.156068 0.094838
0.860659 0.181575 0.114261
0.864701 0.205977 0.132844
0.867990 0.227304 0.149990
0.870872 0.246867 0.166122
0.873559 0.265536 0.181528
0.875844 0.282640 0.196424
0.877975 0.298929 0.210646
0.879968 0.314455 0.224219
0.881760 0.329070 0.237416
0.883418 0.342943 0.250077
0.884970 0.356154 0.262161
0.886422 0.368733 0.273704
0.887755 0.381085 0.285601
0.888974 0.392876 0.297185
0.890118 0.404101 0.308233
0.891193 0.414782 0.318759
0.892200 0.424983 0.328879
0.893129 0.434876 0.339002
0.894004 0.444286 0.348638
0.894829 0.453235 0.357807
0.895606 0.461746 0.366530
0.015414 0.039640 0.049376
0.015414 0.039640 0.049376
0.015414 0.039640 0.049376
0.015414 0.039640 0.049376
0.015414 0.039640 0.049376
0.025206 0.040696 0.049289
0.035512 0.045908 0.048725
0.047091 0.049525 0.044287
0.057719 0.051362 0.039959
0.066266 0.047454 0.035045
0.075121 0.040668 0.029388
0.084548 0.031239 0.023464
0.093713 0.020742 0.017583
0.103959 0.011487 0.012249
0.115105 0.000213 0.006158
0.126011 0.000000 0.000575
0.143596 0.000000 0.000000
0.163329 0.000000 0.000000
0.186182 0.000000 0.000000
0.211843 0.000000 0.000000
0.239647 0.000000 0.000000
0.271076 0.000000 0.000000
0.305287 0.000000 0.000000
0.341146 0.000000 0.000000
0.379715 0.000000 0.000000
0.418962 0.000000 0.000000
0.459795 0.000000 0.000000
0.500973 0.000000 0.000000
0.540854 0.000000 0.000000
0.579254 0.000000 0.000000
0.626557 0.000000 0.000000
0.669390 0.000000 0.000000
0.705213 0.000000 0.000000
0.735016 0.000000 0.000000
0.759781 0.000000 0.000000
0.779806 0.000000 0.000000
0.787322 0.000000 0.000000
0.792176 0.000000 0.000000
0.805200 0.000000 0.000000
0.821692 0.000000 0.000000
0.833226 0.043675 0.019349
0.843004 0.087556 0.047105
0.849840 0.121683 0.070569
0.855961 0.153855 0.092868
0.860370 0.179552 0.112406
0.864455 0.204139 0.131101
0.867770 0.225572 0.148317
0.870669 0.245209 0.164501
0.873371 0.263949 0.179957
0.875617 0.280712 0.194538
0.877710 0.296664 0.208449
0.879669 0.311867 0.221723
0.881471 0.326514 0.234938
0.883150 0.340511 0.247697
0.884722 0.353841 0.259875
0.886193 0.366532 0.271505
0.887534 0.378830 0.283277
0.888751 0.390564 0.294787
0.889892 0.401733 0.305770
0.890965 0.412363 0.316235
0.891967 0.422486 0.326266
0.892882 0.432162 0.336145
0.893743 0.441366 0.345547
0.894555 0.450119 0.354494
0.895321 0.458443 0.363007
0.022511 0.053337 0.057430
0.022511 0.053337 0.057430
0.022511 0.053337 0.057430
0.022511 0.053337 0.057430
0.022511 0.053337 0.057430
0.033878 0.054658 0.057319
0.043341 0.059738 0.058807
0.054704 0.065528 0.057799
0.067418 0.071500 0.054124
0.083319 0.076211 0.048332
0.095893 0.075628 0.042802
0.107403 0.069774 0.035808
0.120041 0.060078 0.027755
0.131084 0.046520 0.019548
0.141891 0.031966 0.011663
0.153910 0.016589 0.004619
0.166045 0.000116 0.000000
0.179029 0.000000 0.000000
0.200993 0.000000 0.000000
0.225140 0.000000 0.000000
0.252584 0.000000 0.000000
0.282511 0.000000 0.000000
0.314912 0.000000 0.000000
0.350236 0.000000 0.000000
0.386750 0.000000 0.000000
0.425499 0.000000 0.000000
0.465105 0.000000 0.000000
0.504502 0.000000 0.000000
0.544252 0.000000 0.000000
0.581326 0.000000 0.000000
0.628589 0.000000 0.000000
0.671342 0.000000 0.000000
0.706545 0.000000 0.000000
0.735774 0.000000 0.000000
0.760708 0.000000 0.000000
0.780376 0.000000 0.000000
0.787705 0.000000 0.000000
0.792441 0.000000 0.000000
0.805642 0.000000 0.000000
0.822192 0.000000 0.000000
0.833450 0.044122 0.019045
0.843052 0.087324 0.046449
0.849930 0.121729 0.070154
0.856080 0.154123 0.092653
0.860448 0.179637 0.112091
0.864495 0.204046 0.130690
0.867754 0.225137 0.147644
0.870594 0.244376 0.163508
0.873242 0.262735 0.178656
0.875512 0.279673 0.193403
0.877629 0.295807 0.207485
0.879610 0.311184 0.220923
0.881407 0.325788 0.234099
0.883076 0.339686 0.246767
0.884638 0.352922 0.258857
0.886100 0.365524 0.270402
0.887426 0.377620 0.281948
0.888625 0.389156 0.293258
0.889749 0.400137 0.304053
0.890805 0.410588 0.314338
0.891798 0.420587 0.324245
0.892726 0.430386 0.334241
0.893601 0.439707 0.343756
0.894425 0.448572 0.352811
0.895202 0.457002 0.361426
0.029392 0.066571 0.065333
0.029392 0.066571 0.065333
0.029392 0.066571 0.065333
0.029392 0.066571 0.065333
0.029392 0.066571 0.065333
0.041139 0.068101 0.065025
0.051890 0.072710 0.066959
0.062942 0.079837 0.068228
0.075455 0.086615 0.067228
0.092723 0.094764 0.062595
0.112129 0.102139 0.057018
0.127644 0.104337 0.051803
0.141333 0.097800 0.043179
0.154991 0.086518 0.033057
0.168778 0.072850 0.022925
0.181621 0.055663 0.012427
0.194292 0.035491 0.004406
0.206894 0.012961 0.000000
0.220559 0.000000 0.000000
0.239543 0.000000 0.000000
0.265470 0.000000 0.000000
0.294400 0.000000 0.000000
0.326035 0.000000 0.000000
0.359296 0.000000 0.000000
0.395321 0.000000 0.000000
0.432806 0.000000 0.000000
0.470520 0.000000 0.000000
0.509574 0.000000 0.000000
0.547757 0.000000 0.000000
0.584527 0.000000 0.000000
0.632238 0.000000 0.000000
0.673827 0.000000 0.000000
0.708673 0.000000 0.000000
0.737808 0.000000 0.000000
0.762288 0.000000 0.000000
0.781166 0.000000 0.000000
0.788193 0.000000 0.000000
0.792713 0.000000 0.000000
0.806426 0.000000 0.000000
0.822555 0.000000 0.000000
0.833840 0.045420 0.019417
0.843440 0.088793 0.047006
0.850238 0.122964 0.070632
0.856314 0.155099 0.093022
0.860580 0.180085 0.112090
0.864535 0.203985 0.130331
0.867790 0.225100 0.147343
0.870659 0.244570 0.163424
0.873334 0.263150 0.178782
0.875562 0.279784 0.193272
0.877638 0.295612 0.207096
0.879581 0.310698 0.220286
0.881370 0.325242 0.233416
0.883038 0.339142 0.246091
0.884599 0.352380 0.258187
0.886060 0.364984 0.269738
0.887398 0.377176 0.281370
0.888606 0.388807 0.292780
0.889739 0.399881 0.303671
0.890803 0.410419 0.314049
0.891799 0.420458 0.324000
0.892710 0.430074 0.333813
0.893568 0.439220 0.343152
0.894377 0.447918 0.352040
0.895140 0.456190 0.360496
0.035943 0.079714 0.073356
0.035943 0.079714 0.073356
0.035943 0.079714 0.073356
0.035943 0.079714 0.073356
0.035943 0.079714 0.073356
0.049645 0.084939 0.074630
0.062133 0.088750 0.076399
0.074444 0.097400 0.079093
0.085975 0.105342 0.081292
0.101729 0.113849 0.079422
0.122949 0.125429 0.075315
0.145569 0.133644 0.068657
0.163728 0.134967 0.061816
0.179114 0.130407 0.053485
0.194008 0.119312 0.042099
0.209317 0.103072 0.029142
0.223901 0.082164 0.015443
0.236701 0.056971 0.004795
0.249979 0.028856 0.000000
0.264252 0.000014 0.000000
0.279436 0.000000 0.000000
0.307822 0.000000 0.000000
0.337539 0.000000 0.000000
0.370163 0.000000 0.000000
0.404730 0.000000 0.000000
0.440211 0.000000 0.000000
0.477448 0.000000 0.000000
0.514562 0.000000 0.000000
0.552429 0.000000 0.000000
0.588419 0.000000 0.000000
0.635707 0.000000 0.000000
0.676591 0.000000 0.000000
0.710704 0.000000 0.000000
0.739119 0.000000 0.000000
0.763218 0.000000 0.000000
0.781851 0.000000 0.000000
0.788741 0.000000 0.000000
0.793009 0.000000 0.000000
0.807349 0.000000 0.000000
0.823490 0.001396 0.000000
0.834532 0.047952 0.020468
0.843927 0.090660 0.047732
0.850572 0.124228 0.071016
0.856526 0.155857 0.093130
0.860809 0.181047 0.112420
0.864778 0.205144 0.130876
0.867988 0.226045 0.147758
0.870791 0.245146 0.163580
0.873407 0.263372 0.178688
0.875643 0.280122 0.193306
0.877729 0.296075 0.207261
0.879681 0.311278 0.220577
0.881464 0.325799 0.233703
0.883122 0.339640 0.246341
0.884675 0.352821 0.258401
0.886128 0.365371 0.269918
0.887439 0.377343 0.281352
0.888623 0.388756 0.292556
0.889734 0.399621 0.303248
0.890778 0.409961 0.313436
0.891759 0.419859 0.323253
0.892680 0.429586 0.333183
0.893548 0.438838 0.342635
0.894366 0.447637 0.351630
0.895137 0.456005 0.360188
0.044715 0.096408 0.083422
0.044715 0.096408 0.083422
0.044715 0.096408 0.083422
0.044715 0.096408 0.083422
0.044715 0.096408 0.083422
0.059590 0.104192 0.085748
0.073782 0.108139 0.087650
0.087385 0.117206 0.091450
0.099959 0.126613 0.094149
0.113504 0.134772 0.095166
0.133958 0.146391 0.093027
0.159225 0.159711 0.088116
0.183729 0.167654 0.080870
0.203537 0.168720 0.073008
0.220467 0.163844 0.063823
0.237654 0.152956 0.051372
0.254017 0.135548 0.036464
0.270493 0.113043 0.020447
0.284198 0.082429 0.005825
0.296523 0.046021 0.000000
0.309576 0.008776 0.000000
0.323516 0.000000 0.000000
0.351090 0.000000 0.000000
0.382313 0.000000 0.000000
0.415169 0.000000 0.000000
0.450051 0.000000 0.000000
0.485204 0.000000 0.000000
0.521705 0.000000 0.000000
0.558325 0.000000 0.000000
0.594130 0.000000 0.000000
0.641018 0.000000 0.000000
0.680229 0.000000 0.000000
0.713423 0.000000 0.000000
0.741518 0.000000 0.000000
0.765391 0.000000 0.000000
0.782843 0.000000 0.000000
0.789382 0.000000 0.000000
0.793434 0.000000 0.000000
0.808837 0.000000 0.000000
0.824627 0.005443 0.000000
0.835347 0.051041 0.021874
0.844506 0.093005 0.048808
0.851093 0.126521 0.072173
0.856985 0.158034 0.094312
0.861130 0.182568 0.113180
0.864974 0.206031 0.131228
0.868152 0.226830 0.148089
0.870959 0.246035 0.164039
0.873577 0.264362 0.179270
0.875804 0.281085 0.193894
0.877881 0.297008 0.207852
0.879824 0.312183 0.221171
0.881576 0.326485 0.234118
0.883199 0.340065 0.246536
0.884719 0.352997 0.258386
0.886141 0.365308 0.269700
0.887468 0.377431 0.281284
0.888669 0.389007 0.292650
0.889794 0.400026 0.303497
0.890852 0.410513 0.313833
0.891841 0.420503 0.323743
0.892747 0.430068 0.333513
0.893600 0.439166 0.342811
0.894404 0.447818 0.351659
0.895162 0.456046 0.360077
0.056099 0.117157 0.095918
0.056099 0.117157 0.095918
0.056099 0.117157 0.095918
0.056099 0.117157 0.095918
0.056099 0.117157 0.095918
0.071426 0.126860 0.098967
0.086739 0.131800 0.101000
0.100232 0.137761 0.103851
0.114506 0.148767 0.108077
0.128409 0.158337 0.110240
0.146138 0.169899 0.111779
0.172239 0.184083 0.108321
0.199183 0.197298 0.102703
0.225161 0.205884 0.095463
0.247376 0.206585 0.086065
0.266579 0.200323 0.074968
0.284902 0.189409 0.061832
0.302801 0.170156 0.044691
0.321074 0.144916 0.025877
0.337593 0.112502 0.007644
0.349597 0.070305 0.000000
0.360814 0.023324 0.000000
0.372816 0.000000 0.000000
0.396795 0.000000 0.000000
0.428448 0.000000 0.000000
0.460868 0.000000 0.000000
0.495354 0.000000 0.000000
0.530398 0.000000 0.000000
0.564776 0.000000 0.000000
0.602150 0.000000 0.000000
0.646407 0.000000 0.000000
0.684551 0.000000 0.000000
0.716912 0.000000 0.000000
0.744123 0.000000 0.000000
0.767128 0.000000 0.000000
0.783945 0.000000 0.000000
0.790097 0.000000 0.000000
0.793767 0.000000 0.000000
0.810199 0.000000 0.000000
0.825569 0.008762 0.000000
0.836241 0.054557 0.023609
0.845304 0.096437 0.050615
0.851646 0.128974 0.073419
0.857341 0.159650 0.095090
0.861487 0.184337 0.114153
0.865333 0.207948 0.132388
0.868479 0.228657 0.149230
0.871243 0.247684 0.165081
0.873822 0.265838 0.180218
0.876004 0.282280 0.194625
0.878040 0.297930 0.208372
0.879945 0.312844 0.221488
0.881701 0.327226 0.234536
0.883338 0.340972 0.247129
0.884871 0.354062 0.259147
0.886306 0.366525 0.270625
0.887608 0.378506 0.282121
0.888789 0.389932 0.293360
0.889896 0.400809 0.304084
0.890937 0.411159 0.314301
0.891914 0.421050 0.324128
0.892824 0.430680 0.333975
0.893681 0.439840 0.343347
0.894489 0.448552 0.352265
0.895250 0.456836 0.360750
0.068825 0.140625 0.110152
0.068825 0.140625 0.110152
0.068825 0.140625 0.110152
0.068825 0.140625 0.110152
0.068825 0.140625 0.110152
0.084852 0.152487 0.114200
0.100437 0.158594 0.116170
0.115442 0.163625 0.118682
0.129403 0.172964 0.123134
0.144443 0.183709 0.126525
0.161893 0.196129 0.129643
0.184437 0.209313 0.129311
0.213216 0.225324 0.126189
0.242752 0.239222 0.119917
0.271004 0.248073 0.111660
0.296170 0.248821 0.100799
0.316499 0.240869 0.087826
0.336704 0.227631 0.072272
0.356966 0.207374 0.053345
0.375530 0.179017 0.031963
0.393355 0.141914 0.009090
0.406236 0.093615 0.000000
0.415827 0.040461 0.000000
0.424459 0.000000 0.000000
0.444085 0.000000 0.000000
0.475848 0.000000 0.000000
0.508339 0.000000 0.000000
0.540896 0.000000 0.000000
0.574297 0.000000 0.000000
0.612365 0.000000 0.000000
0.654753 0.000000 0.000000
0.691124 0.000000 0.000000
0.721734 0.000000 0.000000
0.747647 0.000000 0.000000
0.770123 0.000000 0.000000
0.785495 0.000000 0.000000
0.791105 0.000000 0.000000
0.794356 0.000000 0.000000
0.812164 0.000000 0.000000
0.827224 0.014895 0.000000
0.837435 0.059281 0.025940
0.846165 0.100088 0.052454
0.852443 0.132637 0.075417
0.858075 0.163281 0.097208
0.862114 0.187587 0.116108
0.865863 0.210829 0.134185
0.868916 0.231100 0.150760
0.871594 0.249673 0.166309
0.874093 0.267392 0.181156
0.876272 0.283920 0.195695
0.878306 0.299665 0.209579
0.880209 0.314669 0.222827
0.881934 0.328860 0.235726
0.883535 0.342348 0.248103
0.885034 0.355191 0.259915
0.886437 0.367418 0.271196
0.887736 0.379450 0.282790
0.888919 0.390937 0.294115
0.890029 0.401872 0.304918
0.891072 0.412277 0.315212
0.892052 0.422220 0.325108
0.892963 0.431892 0.335007
0.893821 0.441092 0.344430
0.894630 0.449842 0.353396
0.895393 0.458162 0.361927
0.083662 0.167634 0.126639
0.083662 0.167634 0.126639
0.083662 0.167634 0.126639
0.083662 0.167634 0.126639
0.083662 0.167634 0.126639
0.099126 0.180135 0.130843
0.115436 0.188318 0.133384
0.131090 0.193211 0.135528
0.145241 0.199950 0.138974
0.160244 0.209913 0.143241
0.178021 0.222412 0.146931
0.200520 0.237429 0.149634
0.226525 0.252877 0.149220
0.258196 0.269895 0.145473
0.291308 0.285251 0.138562
0.320882 0.293174 0.128687
0.347959 0.293850 0.116688
0.370668 0.284452 0.101575
0.392068 0.268108 0.083250
0.413870 0.244088 0.061224
0.433652 0.211909 0.036991
0.451941 0.170968 0.010956
0.464943 0.118318 0.000000
0.472477 0.056074 0.000000
0.477638 0.000000 0.000000
0.492870 0.000000 0.000000
0.523095 0.000000 0.000000
0.554539 0.000000 0.000000
0.585259 0.000000 0.000000
