luts/P4P_04_PrintFilm_size33.cube
# POCKET 4P D-Log2 LUT pack v1.0 - PrintFilm
# Photochemical print feel: dense blacks, warm highlights.
# Input:  DJI Osmo Pocket 4P D-Log2 / D-Gamut2, full range
# Output: Rec.709 / gamma 2.4 display
# Built on DJI's official D-Log2 to Rec.709 colorimetry with a
# scene-linear highlight shoulder so nothing clips at +7 stops.
TITLE "POCKET 4P PrintFilm v1.0"
LUT_3D_SIZE 9
DOMAIN_MIN 0.0 0.0 0.0
DOMAIN_MAX 1.0 1.0 1.0
0.006595 0.012723 0.045164
0.030882 0.002778 0.038878
0.145159 0.000000 0.031448
0.518805 0.000000 0.001708
0.876123 0.000000 0.000000
0.930189 0.113972 0.090841
0.938486 0.328155 0.227219
0.942147 0.450694 0.325591
0.944504 0.537812 0.400766
0.012851 0.052307 0.059632
0.057809 0.067950 0.052740
0.213726 0.030321 0.021596
0.552585 0.000000 0.000000
0.876829 0.000000 0.000000
0.929871 0.105143 0.084101
0.938197 0.318347 0.218869
0.941810 0.438179 0.314513
0.944135 0.523026 0.387162
0.055958 0.232235 0.137743
0.086952 0.291883 0.131450
0.338000 0.364672 0.103850
0.724527 0.202666 0.000000
0.899738 0.000000 0.000000
0.931732 0.142278 0.098518
0.938817 0.335110 0.228258
0.942220 0.450529 0.322555
0.944455 0.533464 0.394662
0.167969 0.699731 0.344067
0.175638 0.727183 0.347884
0.267424 0.824875 0.301021
0.808422 0.830987 0.207202
0.947080 0.499541 0.053979
0.939178 0.310473 0.173195
0.941170 0.402089 0.270224
0.943887 0.503899 0.361305
0.945807 0.581651 0.433069
0.306713 0.948741 0.582862
0.307939 0.949640 0.585810
0.323580 0.957371 0.599880
0.491907 0.976482 0.483681
0.946890 0.959999 0.303784
0.963000 0.878059 0.387509
0.952587 0.758197 0.478440
0.949714 0.700472 0.495363
0.949469 0.716649 0.535664
0.483914 0.984154 0.739418
0.484328 0.984155 0.740594
0.505267 0.984313 0.753638
0.593544 0.984424 0.765856
0.910975 0.981832 0.668265
0.971405 0.976733 0.475736
0.968589 0.949150 0.630673
0.960320 0.912594 0.722523
0.956650 0.886547 0.745675
0.854860 0.977833 0.842824
0.855967 0.977753 0.843598
0.867101 0.976953 0.850694
0.886025 0.975208 0.865135
0.915453 0.971940 0.884508
0.951234 0.971405 0.857533
0.967432 0.970369 0.804112
0.967018 0.961155 0.821803
0.964332 0.952095 0.839048
0.909938 0.971737 0.889720
0.909943 0.971735 0.889741
0.912286 0.971288 0.892447
0.915387 0.970605 0.896417
0.925896 0.968859 0.903977
0.944117 0.966452 0.908367
0.958075 0.966905 0.892028
0.963758 0.965776 0.879564
0.964813 0.962782 0.876547
0.919924 0.969698 0.901196
0.919950 0.969696 0.901201
0.921190 0.969484 0.902078
0.923161 0.969107 0.903713
0.929200 0.967892 0.908622
0.941562 0.965533 0.915804
0.952289 0.964314 0.914827
0.959139 0.964338 0.907430
0.962175 0.963794 0.901394
0.000000 0.001486 0.054865
0.028518 0.000000 0.059164
0.157840 0.000000 0.060709
0.516431 0.000000 0.039166
0.876387 0.000000 0.000000
0.930042 0.114656 0.095772
0.938390 0.327690 0.229440
0.942071 0.449750 0.326521
0.944443 0.536725 0.401090
0.007587 0.051594 0.081179
0.052852 0.057740 0.086753
0.231624 0.000000 0.053304
0.551198 0.000000 0.028981
0.877643 0.000000 0.000000
0.929747 0.106620 0.089736
0.938090 0.317982 0.221343
0.941747 0.437953 0.316178
0.944083 0.522426 0.388034
0.053090 0.251877 0.178776
0.072008 0.305588 0.182503
0.327945 0.352968 0.124382
0.745833 0.159639 0.001234
0.899848 0.000000 0.000000
0.931714 0.145383 0.104338
0.938694 0.334298 0.230606
0.942135 0.449581 0.323703
0.944390 0.532537 0.395293
0.167280 0.710713 0.363854
0.173795 0.737035 0.370200
0.258769 0.831854 0.322124
0.808414 0.829177 0.215599
0.946878 0.479643 0.062240
0.938967 0.306996 0.173762
0.941046 0.399827 0.270328
0.943781 0.501265 0.360414
0.945702 0.578590 0.431406
0.306849 0.949246 0.588081
0.307693 0.949955 0.590828
0.322797 0.957463 0.604433
0.484391 0.976741 0.489416
0.946908 0.959801 0.303256
0.962687 0.875603 0.391315
0.952272 0.749394 0.476129
0.949574 0.697292 0.495217
0.949436 0.717195 0.538154
0.483530 0.984158 0.740604
0.482688 0.984160 0.741573
0.501932 0.984304 0.754042
0.593561 0.984376 0.766636
0.910519 0.981828 0.669093
0.971346 0.976679 0.475294
0.968567 0.948895 0.628762
0.960128 0.910943 0.720801
0.956484 0.884450 0.743269
0.855445 0.977771 0.843564
0.854985 0.977788 0.843503
0.865104 0.977066 0.849988
0.885580 0.975250 0.864846
0.915057 0.971998 0.884187
0.951171 0.971429 0.857336
0.967487 0.970448 0.802253
0.967096 0.961207 0.819731
0.964369 0.952051 0.837822
0.909877 0.971736 0.889768
0.909706 0.971765 0.889595
0.911797 0.971366 0.892029
0.915119 0.970653 0.896166
0.925651 0.968899 0.903830
0.944052 0.966461 0.908356
0.958072 0.966931 0.891834
0.963779 0.965807 0.879144
0.964850 0.962808 0.875824
0.919931 0.969691 0.901245
0.919881 0.969700 0.901209
0.921031 0.969505 0.902015
0.922942 0.969157 0.903468
0.928997 0.967929 0.908492
0.941467 0.965552 0.915755
0.952267 0.964318 0.914824
0.959148 0.964360 0.907281
0.962207 0.963841 0.900963
0.000000 0.000000 0.124544
0.003890 0.000000 0.141013
0.166229 0.000000 0.148164
0.517230 0.000000 0.138762
0.873817 0.000000 0.062324
0.929130 0.124757 0.135708
0.938015 0.328445 0.241874
0.941851 0.448908 0.332187
0.944265 0.534584 0.403630
0.000000 0.024920 0.145951
0.000000 0.000000 0.180087
0.193576 0.000000 0.168229
0.538726 0.000000 0.139861
0.875403 0.000000 0.059786
0.928992 0.118877 0.129236
0.937778 0.320188 0.234564
0.941532 0.437285 0.321997
0.943920 0.521117 0.391413
0.036391 0.262556 0.266060
0.038264 0.282707 0.287487
0.263820 0.263445 0.277883
0.701137 0.036311 0.172898
0.897886 0.000000 0.050109
0.931343 0.160182 0.139527
0.938481 0.337821 0.243426
0.942031 0.451961 0.331526
0.944316 0.534231 0.401033
0.149709 0.725079 0.464005
0.153743 0.744100 0.472591
0.209903 0.810635 0.468636
0.772303 0.784874 0.364476
0.946018 0.476144 0.135320
0.938677 0.311637 0.191573
0.940884 0.402088 0.280007
0.943691 0.503487 0.367609
0.945655 0.580929 0.437453
0.299113 0.950052 0.631511
0.300440 0.950908 0.633660
0.313106 0.957282 0.645321
0.460048 0.977606 0.528621
0.946206 0.958810 0.326408
0.961865 0.871789 0.417193
0.951964 0.747503 0.486381
0.949455 0.699087 0.503402
0.949384 0.718518 0.542778
0.484959 0.984073 0.755062
0.483642 0.984084 0.756274
0.494576 0.984182 0.765086
0.616878 0.984068 0.773912
0.910746 0.981469 0.684980
0.971069 0.976333 0.490159
0.968253 0.948533 0.641694
0.959734 0.909525 0.729781
0.956230 0.883324 0.749505
0.858305 0.977486 0.846798
0.857920 0.977499 0.846781
0.865069 0.976972 0.851445
0.886970 0.975041 0.866751
0.915977 0.971737 0.886131
0.951169 0.971226 0.859710
0.967334 0.970245 0.805997
0.966919 0.961017 0.823507
0.964257 0.952014 0.840294
0.910529 0.971587 0.890756
0.910368 0.971615 0.890594
0.911733 0.971348 0.892220
0.915337 0.970573 0.896665
0.926079 0.968755 0.904610
0.944054 0.966369 0.908946
0.958064 0.966877 0.892260
0.963737 0.965731 0.879862
0.964777 0.962729 0.876944
0.920332 0.969605 0.901672
0.920292 0.969611 0.901637
0.921034 0.969483 0.902174
0.923004 0.969103 0.903829
0.929291 0.967825 0.909017
0.941530 0.965470 0.916189
0.952220 0.964242 0.915294
0.959121 0.964287 0.907745
0.962138 0.963733 0.901743
0.000000 0.067084 0.366732
0.000000 0.000000 0.421624
0.067953 0.000000 0.441609
0.482947 0.000000 0.353480
0.853932 0.000000 0.253017
0.922488 0.136825 0.299306
0.935199 0.342032 0.347883
0.940432 0.458851 0.397668
0.943399 0.540754 0.446148
0.000000 0.081556 0.375497
0.000000 0.000000 0.431869
0.071987 0.000000 0.453182
0.486153 0.000000 0.356472
0.853941 0.000000 0.252044
0.922193 0.130070 0.294274
0.934953 0.333987 0.340839
0.940176 0.449526 0.389216
0.943111 0.529649 0.435956
0.000000 0.185159 0.441102
0.000000 0.168328 0.471323
0.092340 0.051986 0.540190
0.549163 0.000000 0.407827
0.870941 0.000000 0.265875
0.924519 0.165930 0.305647
0.935628 0.347522 0.345141
0.940592 0.458541 0.392021
0.943423 0.537161 0.438765
0.095643 0.697309 0.655296
0.096366 0.701593 0.659057
0.138926 0.726578 0.685112
0.644569 0.631765 0.617059
0.923094 0.387492 0.465959
0.933452 0.320146 0.357466
0.938890 0.416402 0.370302
0.942721 0.512971 0.418786
0.945081 0.586922 0.469526
0.255617 0.943519 0.784247
0.258041 0.944110 0.784895
0.275881 0.949553 0.792416
0.493305 0.956820 0.774519
0.917616 0.927346 0.671226
0.957230 0.854001 0.559572
0.951358 0.753889 0.525233
0.949259 0.705710 0.524350
0.949199 0.721172 0.555328
0.449343 0.982059 0.825448
0.449514 0.982106 0.825558
0.466929 0.982331 0.828017
0.585068 0.982349 0.824929
0.901106 0.979617 0.766354
0.964206 0.968932 0.671060
0.966099 0.943835 0.703205
0.958984 0.907834 0.753310
0.955980 0.885153 0.766897
0.861078 0.976418 0.861454
0.860846 0.976432 0.861377
0.868743 0.975925 0.864577
0.885418 0.974664 0.872213
0.917729 0.971390 0.888290
0.950343 0.970916 0.864256
0.966911 0.969250 0.813707
0.966499 0.960099 0.830105
0.963820 0.951216 0.845853
0.912461 0.971113 0.893873
0.912322 0.971136 0.893754
0.913636 0.970878 0.895229
0.916278 0.970298 0.898474
0.927732 0.968401 0.906181
0.944380 0.966199 0.909785
0.958589 0.966974 0.890932
0.963885 0.965546 0.879504
0.964660 0.962429 0.878541
0.922123 0.969272 0.903078
0.922049 0.969285 0.903027
0.922732 0.969128 0.903780
0.923954 0.968776 0.905579
0.930306 0.967521 0.910428
0.941841 0.965272 0.917112
0.952489 0.964128 0.915708
0.959479 0.964286 0.907160
0.962129 0.963530 0.902532
0.000000 0.204369 0.703533
0.000000 0.193837 0.716787
0.000000 0.068355 0.803465
0.292702 0.000000 0.792235
0.770627 0.000000 0.544845
0.903051 0.065297 0.506144
0.926911 0.334452 0.524748
0.935108 0.464494 0.555516
0.939530 0.551380 0.586882
0.000000 0.203361 0.700914
0.000000 0.192491 0.713852
0.000000 0.066470 0.797959
0.289208 0.000000 0.786417
0.765069 0.000000 0.540252
0.901738 0.048392 0.498987
0.926354 0.322782 0.517430
0.934641 0.452435 0.546944
0.939107 0.538971 0.577474
0.000000 0.216249 0.714643
0.000000 0.205379 0.726932
0.000000 0.091657 0.802194
0.297063 0.000000 0.790755
0.768874 0.000000 0.543364
0.902348 0.055525 0.501224
0.926462 0.324390 0.517883
0.934666 0.452551 0.546547
0.939103 0.538326 0.576513
0.000000 0.456840 0.824724
0.000000 0.443280 0.825514
0.000000 0.410962 0.847389
0.397421 0.369184 0.847980
0.846413 0.016377 0.670612
0.912032 0.183610 0.552370
0.929264 0.378782 0.547574
0.936690 0.498663 0.572728
0.940752 0.580302 0.601390
0.403249 0.906582 0.882828
0.406929 0.906071 0.882394
0.442062 0.906852 0.883012
0.642475 0.898354 0.875922
0.873448 0.867262 0.853391
0.944670 0.809454 0.804799
0.945277 0.731525 0.724798
0.945142 0.706015 0.683691
0.946204 0.726449 0.683042
0.521568 0.972473 0.897834
0.524570 0.972416 0.897731
0.556561 0.972212 0.898110
0.682858 0.970375 0.896852
0.882011 0.960848 0.885708
0.946986 0.950247 0.867021
0.958548 0.930627 0.847348
0.955778 0.902555 0.828319
0.954067 0.883134 0.816234
0.820423 0.974687 0.895852
0.820441 0.974689 0.895823
0.830790 0.974313 0.896633
0.853011 0.973399 0.898432
0.896808 0.971226 0.898907
0.940569 0.969249 0.886739
0.960785 0.962613 0.870875
0.962877 0.955319 0.871237
0.961226 0.946850 0.873389
0.902147 0.970242 0.906065
0.902025 0.970256 0.906020
0.903741 0.969953 0.907494
0.907238 0.969237 0.910999
0.919007 0.967727 0.915402
0.943049 0.965528 0.914823
0.956671 0.965798 0.899409
0.962513 0.963517 0.889047
0.963204 0.960116 0.890335
0.921796 0.967251 0.916943
0.921730 0.967262 0.916914
0.923120 0.966984 0.917880
0.925568 0.966453 0.919736
0.932050 0.965302 0.922706
0.943120 0.964080 0.922685
0.952226 0.963307 0.920306
0.959220 0.963421 0.910689
0.961672 0.962265 0.906211
0.000000 0.297358 0.873407
0.000000 0.295901 0.871843
0.000000 0.269841 0.886911
0.007114 0.197071 0.906704
0.609308 0.009992 0.861472
0.870650 0.000000 0.739555
0.915424 0.290902 0.664086
0.928634 0.450910 0.673602
0.934865 0.547699 0.695132
0.000000 0.295955 0.871636
0.000000 0.294231 0.869758
0.000000 0.266030 0.883735
0.000369 0.186559 0.905776
0.601849 0.000000 0.858994
0.867795 0.000000 0.732400
0.914415 0.276140 0.657810
0.927946 0.437651 0.666423
0.934267 0.534333 0.687151
0.000000 0.299028 0.875491
0.000000 0.296805 0.873023
0.000000 0.269306 0.885291
0.000000 0.182880 0.905380
0.599665 0.000000 0.857999
0.866871 0.000000 0.729773
0.914107 0.271594 0.655807
0.927744 0.433757 0.664287
0.934110 0.530858 0.685051
0.000000 0.338630 0.891821
0.000000 0.334323 0.888907
0.000000 0.317035 0.898352
0.020981 0.258875 0.910334
0.633859 0.084492 0.868147
0.876477 0.015118 0.752619
0.916537 0.307024 0.670513
0.929244 0.461940 0.678707
0.935307 0.556673 0.699552
0.328610 0.827957 0.934120
0.325593 0.824906 0.933861
0.335629 0.818475 0.934436
0.390879 0.799557 0.933791
0.819006 0.799335 0.914121
0.924052 0.689514 0.874864
0.935159 0.629371 0.799837
0.938027 0.640421 0.768169
0.940834 0.680311 0.765047
0.787152 0.944964 0.928877
0.787068 0.944853 0.928768
0.793334 0.945041 0.929303
0.813673 0.944745 0.929916
0.878868 0.937742 0.925804
0.930383 0.927415 0.918588
0.949968 0.913705 0.907255
0.951329 0.892786 0.887387
0.950650 0.876712 0.870452
0.848558 0.964791 0.927095
0.848519 0.964771 0.927028
0.851561 0.964655 0.927642
0.859505 0.964179 0.928839
0.890261 0.960441 0.928885
0.929886 0.953790 0.925423
0.949186 0.949257 0.922178
0.956109 0.945107 0.916164
0.956530 0.938999 0.912428
0.883734 0.967597 0.926597
0.883670 0.967600 0.926555
0.885515 0.967408 0.927183
0.889599 0.966955 0.928489
0.902877 0.965323 0.930136
0.931040 0.961639 0.928358
0.948145 0.960486 0.922627
0.955887 0.956351 0.920868
0.958162 0.953912 0.919584
0.904733 0.966264 0.929229
0.904736 0.966264 0.929226
0.905852 0.966076 0.929784
0.908673 0.965654 0.930856
0.918560 0.964542 0.932217
0.935578 0.962597 0.931642
0.948621 0.961867 0.928151
0.955308 0.960235 0.924058
0.958149 0.958267 0.922551
0.000000 0.414873 0.923647
0.000000 0.411596 0.923173
0.000000 0.407218 0.923643
0.053712 0.403236 0.922246
0.511075 0.409080 0.910688
0.849811 0.210800 0.872323
0.905164 0.298762 0.812337
0.923229 0.451829 0.773790
0.931402 0.552217 0.772221
0.000000 0.409880 0.922921
0.000000 0.406159 0.922372
0.000000 0.399716 0.922745
0.042042 0.391005 0.921647
0.500984 0.395580 0.909858
0.845727 0.189524 0.870281
0.903682 0.280992 0.808878
0.922285 0.435698 0.768075
0.930584 0.536557 0.766620
0.000000 0.416202 0.923836
0.000000 0.411525 0.923161
0.000000 0.403893 0.923227
0.037986 0.386172 0.921395
0.498159 0.390511 0.909517
0.844433 0.182340 0.869549
0.903240 0.275655 0.807768
0.922044 0.431551 0.766541
0.930389 0.532820 0.765239
0.000000 0.432268 0.925096
0.000000 0.424577 0.924604
0.000000 0.419550 0.924919
0.050844 0.402690 0.922276
0.506151 0.397531 0.909873
0.847424 0.196457 0.870809
0.904409 0.289225 0.810166
0.922770 0.443662 0.770682
0.931035 0.545029 0.769554
0.169788 0.657856 0.936243
0.154553 0.646422 0.935878
0.166817 0.636457 0.935036
0.233543 0.636518 0.933653
0.624068 0.664174 0.925527
0.884860 0.524650 0.899703
0.918272 0.475740 0.846842
0.928980 0.555508 0.807937
0.935298 0.631119 0.799676
0.778776 0.926089 0.943361
0.777290 0.925691 0.943250
0.782101 0.925745 0.943485
0.792805 0.924733 0.943847
0.832240 0.916961 0.942025
0.922476 0.914674 0.933075
0.942744 0.899886 0.922989
0.946503 0.879610 0.908612
0.946696 0.864006 0.895396
0.867735 0.952773 0.941606
0.867786 0.952749 0.941587
0.869511 0.952803 0.941769
0.873908 0.952808 0.942097
0.894257 0.950714 0.940958
0.929986 0.945205 0.937019
0.942892 0.940832 0.933986
0.951433 0.938341 0.931787
0.953565 0.933599 0.927265
0.888990 0.960479 0.940546
0.888928 0.960467 0.940515
0.890287 0.960418 0.940739
0.893082 0.960229 0.941109
0.905838 0.958686 0.940926
0.931732 0.954157 0.938653
0.943930 0.950728 0.937396
0.950554 0.949679 0.935955
0.954504 0.948375 0.933444
0.901177 0.962813 0.939751
0.901124 0.962815 0.939728
0.902706 0.962689 0.939920
0.905938 0.962399 0.940272
0.915394 0.961276 0.940411
0.933320 0.958155 0.939335
0.944045 0.955164 0.938372
0.950212 0.954732 0.936504
0.953513 0.953066 0.936138
0.141248 0.553993 0.930467
0.135180 0.549829 0.930333
0.128728 0.544734 0.930148
0.189811 0.553232 0.929344
0.448155 0.577443 0.925021
0.814604 0.489380 0.907768
0.902253 0.425862 0.878924
0.920167 0.499017 0.848462
0.928611 0.578977 0.832786
0.129814 0.545967 0.930203
0.123019 0.541096 0.930039
0.113946 0.534078 0.929787
0.173540 0.540336 0.928865
0.434523 0.563322 0.924368
0.808640 0.471628 0.906564
0.900317 0.406076 0.876920
0.918937 0.481000 0.845295
0.927654 0.561610 0.828331
0.140612 0.553564 0.930454
0.130648 0.546554 0.930223
0.122167 0.540140 0.929997
0.167993 0.535649 0.928682
0.430422 0.558406 0.924123
0.806758 0.465887 0.906168
0.899749 0.400119 0.876284
0.918621 0.476347 0.844437
0.927437 0.557640 0.827268
0.165671 0.570447 0.930985
0.151668 0.561014 0.930689
0.146930 0.557745 0.930584
0.184186 0.549462 0.929225
0.437610 0.562996 0.924271
0.810611 0.473681 0.906640
0.900889 0.410724 0.877256
0.919465 0.488374 0.846439
0.928110 0.569636 0.830282
0.262318 0.656163 0.934250
0.246529 0.644882 0.933894
0.253393 0.647270 0.933896
0.293616 0.654694 0.933505
0.503715 0.666450 0.929690
0.837192 0.595652 0.915140
0.909700 0.513128 0.887955
0.924090 0.559449 0.859250
0.931182 0.627426 0.844948
0.705017 0.896878 0.945303
0.697218 0.894879 0.945134
0.698027 0.892466 0.944939
0.703468 0.886265 0.944215
0.762302 0.878046 0.941853
0.900518 0.893340 0.936962
0.934744 0.870234 0.926667
0.940554 0.839575 0.911079
0.941688 0.825699 0.897893
0.869129 0.945952 0.946916
0.868790 0.945860 0.946875
0.870315 0.945948 0.946967
0.874220 0.946078 0.947114
0.887333 0.945036 0.946558
0.919921 0.939705 0.943999
0.942225 0.938357 0.939687
0.948718 0.935611 0.937026
0.951264 0.932509 0.934308
0.896798 0.954830 0.945634
0.896748 0.954816 0.945620
0.898228 0.954803 0.945691
0.901411 0.954714 0.945788
0.912183 0.953697 0.945203
0.932744 0.950430 0.942850
0.943251 0.947900 0.941411
0.948284 0.946310 0.940031
0.951941 0.945549 0.939087
0.910174 0.958200 0.944643
0.910034 0.958197 0.944627
0.911486 0.958127 0.944705
0.914050 0.957954 0.944798
0.920720 0.957140 0.944601
0.935011 0.954435 0.943170
0.944004 0.951981 0.942041
0.948667 0.950584 0.941440
0.951559 0.950141 0.940733
0.290179 0.654998 0.933596
0.284348 0.650880 0.933467
0.276124 0.645173 0.933290
0.310038 0.653674 0.933086
0.466262 0.674795 0.931016
0.789748 0.649009 0.921383
0.899152 0.568103 0.904816
0.920788 0.580782 0.884391
0.928428 0.628351 0.869733
0.279151 0.647295 0.933356
0.271332 0.641945 0.933193
0.259983 0.634269 0.932960
0.292813 0.640758 0.932657
0.450371 0.660777 0.930476
0.783919 0.635394 0.920625
0.896661 0.547749 0.903314
0.919350 0.561342 0.882235
0.927360 0.610557 0.866843
0.288747 0.653982 0.933564
0.278289 0.646662 0.933336
0.268671 0.640138 0.933138
0.286604 0.635946 0.932490
0.445189 0.655789 0.930272
0.781840 0.630699 0.920363
0.895972 0.541929 0.902869
0.918968 0.556163 0.881643
0.927110 0.606382 0.866138
0.312773 0.670831 0.934087
0.298782 0.661017 0.933783
0.294018 0.657674 0.933679
0.305167 0.650449 0.932993
0.452289 0.660712 0.930431
0.785559 0.636924 0.920673
0.897553 0.553522 0.903677
0.919949 0.568932 0.882993
0.927908 0.619448 0.868204
0.377951 0.718465 0.935581
0.359536 0.707679 0.935324
0.362102 0.709012 0.935350
0.386342 0.714050 0.935141
0.503866 0.714815 0.932722
0.802841 0.688090 0.923631
0.903918 0.613502 0.908202
0.923420 0.618333 0.888767
0.930016 0.656029 0.874637
0.649584 0.862381 0.942445
0.637722 0.858530 0.942200
0.638232 0.855746 0.941883
0.646922 0.849697 0.941047
0.710762 0.851278 0.939979
0.868941 0.872432 0.937459
0.925108 0.846631 0.928359
0.935492 0.813661 0.914894
0.938647 0.806489 0.903444
0.863993 0.940489 0.948780
0.863295 0.940315 0.948739
0.864803 0.940402 0.948786
0.867951 0.940197 0.948856
0.874201 0.938054 0.948492
0.906530 0.933958 0.945996
0.939434 0.934951 0.941996
0.947079 0.931836 0.938974
0.949799 0.927672 0.935796
0.901403 0.951333 0.947796
0.901111 0.951304 0.947783
0.902605 0.951298 0.947809
0.905800 0.951235 0.947819
0.913267 0.950691 0.947430
0.930347 0.948275 0.945632
0.940482 0.945580 0.944528
0.947808 0.945264 0.942388
0.950756 0.944423 0.941273
0.916130 0.955024 0.946733
0.916047 0.955014 0.946723
0.917139 0.954986 0.946762
0.919218 0.954892 0.946800
0.923912 0.954391 0.946597
0.935579 0.952391 0.945211
0.943804 0.950433 0.944009
0.948126 0.949193 0.943354
0.950470 0.948625 0.942572
