luts/P4P_11_RetroFade_size33.cube
# POCKET 4P D-Log2 LUT pack v1.0 - RetroFade
# Faded stock. Lifted milky blacks, cyan shadows.
# Input:  DJI Osmo Pocket 4P D-Log2 / D-Gamut2, full range
# Output: Rec.709 / gamma 2.4 display
# Built on DJI's official D-Log2 to Rec.709 colorimetry with a
# scene-linear highlight shoulder so nothing clips at +7 stops.
TITLE "POCKET 4P RetroFade v1.0"
LUT_3D_SIZE 9
DOMAIN_MIN 0.0 0.0 0.0
DOMAIN_MAX 1.0 1.0 1.0
0.139934 0.140473 0.171825
0.172323 0.134866 0.170936
0.279170 0.133240 0.190372
0.535166 0.152379 0.230293
0.804934 0.168228 0.274121
0.860340 0.359241 0.356640
0.868644 0.471824 0.427154
0.873350 0.537589 0.478492
0.876555 0.584714 0.519585
0.135569 0.175836 0.180391
0.189466 0.192682 0.173836
0.330538 0.182309 0.172849
0.554186 0.155616 0.218177
0.805233 0.169748 0.270758
0.859951 0.353610 0.352565
0.868282 0.466425 0.422655
0.872883 0.530697 0.472634
0.876026 0.576611 0.511752
0.147215 0.293136 0.229964
0.171690 0.323622 0.209649
0.372787 0.377634 0.186859
0.648973 0.323310 0.185210
0.825799 0.178548 0.253637
0.861663 0.373266 0.358854
0.868920 0.474670 0.427037
0.873355 0.536932 0.476503
0.876414 0.581932 0.515779
0.185541 0.527173 0.325608
0.184636 0.538589 0.323844
0.239441 0.588869 0.263457
0.626444 0.634737 0.227221
0.868728 0.501128 0.254654
0.868282 0.454354 0.392369
0.871578 0.508273 0.447375
0.875390 0.564504 0.495748
0.878161 0.607090 0.536945
0.225723 0.777226 0.425014
0.225895 0.779239 0.426340
0.229606 0.795471 0.429307
0.326861 0.832419 0.314697
0.806510 0.824989 0.252692
0.888057 0.746559 0.439560
0.884154 0.680270 0.543685
0.882291 0.662243 0.565016
0.882759 0.675549 0.591474
0.348339 0.872104 0.493493
0.348970 0.872212 0.494363
0.369238 0.874584 0.506092
0.444813 0.879799 0.527056
0.737862 0.885792 0.511565
0.870251 0.876482 0.413626
0.894116 0.846741 0.570821
0.893786 0.818892 0.666312
0.892517 0.800766 0.697551
0.699654 0.886218 0.674369
0.701442 0.886264 0.675934
0.718843 0.886727 0.690972
0.750670 0.887659 0.719789
0.810592 0.889664 0.763281
0.861781 0.891167 0.739467
0.888418 0.887809 0.685412
0.896284 0.877414 0.716316
0.897613 0.868534 0.744744
0.803840 0.889512 0.770034
0.803860 0.889513 0.770072
0.809118 0.889723 0.775557
0.816181 0.889971 0.783509
0.836508 0.890745 0.800269
0.864169 0.891872 0.814942
0.882958 0.892437 0.796708
0.892677 0.890437 0.782768
0.896631 0.886618 0.781841
0.825885 0.890356 0.793321
0.825931 0.890358 0.793340
0.828374 0.890445 0.795296
0.832365 0.890591 0.798815
0.842921 0.891010 0.809331
0.863062 0.891935 0.825576
0.879674 0.892596 0.828512
0.889483 0.892715 0.821042
0.894401 0.891638 0.813840
0.133987 0.132448 0.187113
0.179552 0.132911 0.201341
0.299475 0.135366 0.230305
0.541637 0.154591 0.266199
0.806507 0.169036 0.286199
0.860316 0.360697 0.360365
0.868604 0.472084 0.428701
0.873304 0.537414 0.479215
0.876512 0.584374 0.519959
0.134012 0.181284 0.207735
0.197807 0.195783 0.220925
0.351009 0.163725 0.229552
0.561213 0.157678 0.261689
0.807297 0.172155 0.283112
0.859961 0.355602 0.356739
0.868239 0.466770 0.424360
0.872859 0.530936 0.473758
0.876000 0.576556 0.512457
0.149987 0.311071 0.263696
0.162959 0.338784 0.258226
0.372023 0.376146 0.220040
0.665241 0.307269 0.208216
0.827265 0.188321 0.270544
0.861722 0.375702 0.362943
0.868858 0.474820 0.428710
0.873302 0.536796 0.477371
0.876371 0.581708 0.516350
0.186988 0.534690 0.339983
0.186149 0.546007 0.340494
0.230757 0.596158 0.279118
0.628653 0.635080 0.240890
0.869648 0.495542 0.268515
0.868131 0.453126 0.393188
0.871478 0.507430 0.447713
0.875290 0.563348 0.495478
0.878049 0.605646 0.536162
0.226614 0.778799 0.428302
0.226698 0.780429 0.429632
0.229815 0.796067 0.432392
0.320898 0.833135 0.318123
0.806791 0.824688 0.257627
0.888024 0.744864 0.443394
0.883891 0.676624 0.543426
0.882177 0.661056 0.565374
0.882775 0.676207 0.593164
0.348261 0.872183 0.494272
0.347741 0.872221 0.494853
0.366524 0.874434 0.506035
0.445283 0.879737 0.528053
0.737208 0.885775 0.512041
0.870095 0.876317 0.413343
0.894075 0.846292 0.569667
0.893689 0.817418 0.666163
0.892360 0.798935 0.696878
0.700761 0.886249 0.675725
0.700148 0.886235 0.675492
0.715958 0.886654 0.689162
0.749754 0.887633 0.719197
0.809767 0.889632 0.762580
0.861626 0.891159 0.739120
0.888306 0.887748 0.683147
0.896228 0.877245 0.714054
0.897583 0.868315 0.743333
0.803764 0.889511 0.770093
0.803392 0.889496 0.769734
0.808097 0.889683 0.774663
0.815622 0.889950 0.782982
0.836112 0.890730 0.799929
0.864068 0.891868 0.814895
0.882898 0.892432 0.796409
0.892635 0.890411 0.782179
0.896591 0.886538 0.780875
0.825921 0.890358 0.793407
0.825823 0.890355 0.793328
0.828084 0.890434 0.795129
0.831893 0.890571 0.798319
0.842590 0.890996 0.809038
0.862907 0.891928 0.825467
0.879636 0.892595 0.828498
0.889455 0.892711 0.820815
0.894356 0.891613 0.813215
0.134465 0.141867 0.259309
0.187218 0.130179 0.282965
0.332676 0.142244 0.315220
0.565729 0.160307 0.356060
0.813609 0.177796 0.356095
0.860393 0.373825 0.387769
0.868508 0.474809 0.436928
0.873213 0.538194 0.483033
0.876408 0.584065 0.522048
0.133416 0.179511 0.272201
0.184080 0.161535 0.312206
0.356409 0.153142 0.335308
0.579412 0.162739 0.359574
0.814406 0.182753 0.353910
0.860191 0.370167 0.384055
0.868213 0.470215 0.432972
0.872777 0.531815 0.477667
0.875920 0.576716 0.515041
0.153862 0.333103 0.334909
0.159840 0.346126 0.348552
0.373252 0.363771 0.370439
0.667299 0.290658 0.376397
0.832737 0.213511 0.349516
0.861947 0.388722 0.386480
0.868906 0.478680 0.436900
0.873349 0.539217 0.482247
0.876405 0.583435 0.520237
0.192247 0.555998 0.411954
0.192545 0.564785 0.415179
0.231068 0.603344 0.402696
0.632035 0.629982 0.392511
0.871399 0.508851 0.334142
0.868201 0.458449 0.404889
0.871515 0.510202 0.453920
0.875336 0.565564 0.500227
0.878110 0.607656 0.540164
0.229206 0.785215 0.457822
0.229319 0.787022 0.458592
0.231305 0.799546 0.460820
0.303581 0.837293 0.347140
0.808812 0.825354 0.297367
0.888325 0.745321 0.463624
0.883847 0.677785 0.551269
0.882217 0.663219 0.570984
0.882808 0.677538 0.596252
0.353280 0.873059 0.505636
0.352366 0.873116 0.506372
0.363758 0.874663 0.515437
0.464791 0.880535 0.539434
0.740506 0.886020 0.525412
0.870709 0.876592 0.426471
0.894232 0.846847 0.579483
0.893714 0.817145 0.673456
0.892336 0.798871 0.701617
0.705841 0.886393 0.681813
0.705342 0.886381 0.681670
0.716550 0.886682 0.691588
0.753151 0.887741 0.722596
0.812241 0.889742 0.766231
0.862154 0.891204 0.742734
0.888467 0.887797 0.687765
0.896317 0.877428 0.718258
0.897633 0.868611 0.746284
0.805349 0.889575 0.772024
0.804999 0.889562 0.771687
0.808089 0.889685 0.774968
0.816229 0.889968 0.783921
0.837010 0.890770 0.801402
0.864273 0.891885 0.815856
0.882998 0.892442 0.797055
0.892708 0.890425 0.783204
0.896645 0.886612 0.782398
0.826781 0.890391 0.794284
0.826700 0.890385 0.794210
0.828167 0.890438 0.795402
0.832167 0.890584 0.798954
0.843203 0.891026 0.810030
0.863159 0.891945 0.826140
0.879722 0.892605 0.829159
0.889546 0.892719 0.821523
0.894431 0.891628 0.814361
0.144202 0.252509 0.429778
0.155393 0.200958 0.480215
0.338267 0.161645 0.529030
0.594895 0.161236 0.517260
0.821740 0.185404 0.495812
0.860317 0.409787 0.493594
0.868244 0.500574 0.505009
0.873184 0.554658 0.526958
0.876411 0.594492 0.551312
0.145646 0.261881 0.434027
0.153796 0.223645 0.482670
0.341584 0.178329 0.536098
0.597043 0.167372 0.519287
0.821477 0.187698 0.494752
0.860058 0.406071 0.491057
0.867956 0.496159 0.500961
0.872833 0.549517 0.522107
0.876006 0.588432 0.545507
0.158228 0.327642 0.466051
0.157275 0.324880 0.487880
0.340549 0.305049 0.572925
0.637142 0.238903 0.554786
0.833765 0.220707 0.505398
0.861382 0.422981 0.494685
0.868478 0.502138 0.502506
0.873218 0.553451 0.523045
0.876309 0.591752 0.546578
0.196093 0.573974 0.546876
0.196622 0.576241 0.548953
0.252131 0.595278 0.569305
0.618406 0.602611 0.591655
0.857930 0.535546 0.575866
0.867317 0.493988 0.513994
0.871469 0.533333 0.512590
0.875394 0.578943 0.535450
0.878161 0.615939 0.562048
0.245033 0.792433 0.579155
0.247467 0.793607 0.579631
0.262147 0.803255 0.584621
0.438981 0.824399 0.582240
0.810866 0.815946 0.595259
0.888854 0.752188 0.576245
0.884060 0.687161 0.578533
0.882414 0.669501 0.584992
0.882862 0.680812 0.604734
0.356534 0.873674 0.588756
0.356521 0.873816 0.588778
0.371536 0.875511 0.593464
0.464694 0.880320 0.602596
0.740060 0.886204 0.590147
0.871716 0.874245 0.572463
0.894872 0.846228 0.628386
0.893868 0.818057 0.691182
0.892611 0.802580 0.713735
0.716038 0.886772 0.706865
0.715712 0.886763 0.706682
0.727141 0.887066 0.713850
0.753522 0.887814 0.731042
0.816180 0.889893 0.770581
0.861777 0.891230 0.749090
0.889048 0.887087 0.698250
0.896631 0.877035 0.726375
0.897754 0.868482 0.753541
0.810130 0.889776 0.778061
0.809841 0.889765 0.777808
0.812722 0.889870 0.780815
0.818639 0.890082 0.787344
0.839906 0.890901 0.804653
0.865045 0.891929 0.817365
0.883644 0.892458 0.795320
0.893100 0.890181 0.782942
0.896829 0.886498 0.784735
0.830378 0.890514 0.797353
0.830234 0.890508 0.797238
0.831706 0.890565 0.798774
0.834511 0.890675 0.802288
0.845166 0.891120 0.812776
0.863949 0.891990 0.827636
0.880320 0.892636 0.829880
0.890076 0.892687 0.820804
0.894694 0.891554 0.815606
0.169778 0.380486 0.647174
0.169529 0.378160 0.658797
0.190719 0.343918 0.748266
0.538604 0.344780 0.783494
0.809856 0.177092 0.714149
0.861131 0.413481 0.647423
0.868283 0.528966 0.626954
0.872642 0.586068 0.633210
0.875941 0.624804 0.645247
0.169583 0.379630 0.645324
0.169307 0.377108 0.656764
0.190649 0.341374 0.743948
0.535291 0.341042 0.779579
0.806548 0.174395 0.710136
0.860573 0.405044 0.644558
0.867898 0.522995 0.623338
0.872187 0.579893 0.628746
0.875478 0.618446 0.640267
0.170450 0.387308 0.653867
0.170599 0.384710 0.664805
0.187551 0.353420 0.744784
0.538435 0.352640 0.781163
0.808512 0.181375 0.712187
0.860797 0.408481 0.645230
0.867946 0.523731 0.623454
0.872190 0.579869 0.628470
0.875455 0.618031 0.639696
0.205591 0.510670 0.725796
0.206274 0.505519 0.728411
0.226521 0.501201 0.758052
0.557253 0.532653 0.793670
0.837280 0.409680 0.754792
0.864907 0.470925 0.664690
0.869824 0.550730 0.637287
0.873907 0.602256 0.641139
0.877026 0.638226 0.651952
0.461621 0.787492 0.757344
0.464182 0.787156 0.757203
0.487595 0.790600 0.760690
0.616759 0.795250 0.769675
0.802695 0.789545 0.776815
0.882456 0.764696 0.764411
0.882481 0.715342 0.717561
0.881632 0.699178 0.693511
0.882450 0.705681 0.691023
0.479688 0.869473 0.739002
0.481780 0.869483 0.739167
0.504112 0.870651 0.742966
0.589414 0.872905 0.753867
0.773814 0.870649 0.771009
0.868513 0.866944 0.773250
0.895678 0.848755 0.769906
0.894487 0.825065 0.765219
0.892858 0.810253 0.760981
0.687739 0.886595 0.758345
0.687738 0.886595 0.758293
0.700510 0.886866 0.761780
0.726393 0.887486 0.769657
0.787937 0.888826 0.781952
0.852211 0.890523 0.778948
0.887488 0.884493 0.772923
0.896657 0.876797 0.780686
0.898101 0.868054 0.789785
0.800341 0.889651 0.795859
0.800122 0.889643 0.795744
0.803689 0.889782 0.798849
0.811130 0.890053 0.806077
0.831739 0.890773 0.817414
0.864856 0.891995 0.824678
0.882598 0.892145 0.807564
0.893174 0.889074 0.797133
0.897112 0.885600 0.801806
0.836513 0.890959 0.820868
0.836414 0.890955 0.820803
0.838667 0.891047 0.822708
0.842715 0.891218 0.826312
0.852633 0.891628 0.832872
0.867899 0.892237 0.836499
0.881535 0.892754 0.836486
0.890844 0.892412 0.825986
0.895317 0.890785 0.821477
0.182521 0.460617 0.791785
0.182269 0.459407 0.790277
0.180903 0.454893 0.807881
0.355502 0.455706 0.843509
0.751477 0.425070 0.845286
0.860969 0.408336 0.797011
0.869300 0.533115 0.729151
0.873618 0.599653 0.715947
0.876330 0.641541 0.717857
0.182253 0.459349 0.790060
0.181958 0.457917 0.788260
0.180100 0.451938 0.804784
0.351674 0.450450 0.842938
0.748289 0.418336 0.844011
0.860130 0.396996 0.795729
0.868804 0.526028 0.727010
0.873170 0.593206 0.712928
0.875882 0.635021 0.714344
0.182834 0.462128 0.793826
0.182440 0.460239 0.791428
0.180557 0.453959 0.806198
0.351802 0.448774 0.842757
0.747448 0.415750 0.843539
0.859857 0.393163 0.795203
0.868650 0.523831 0.726303
0.873038 0.591306 0.712017
0.875763 0.633320 0.713406
0.187339 0.485244 0.808546
0.185850 0.482116 0.805596
0.188481 0.479701 0.817337
0.355840 0.482471 0.843707
0.756518 0.459217 0.846257
0.862536 0.431894 0.798780
0.869833 0.540763 0.731209
0.873976 0.604870 0.717876
0.876617 0.645765 0.719599
0.479450 0.751148 0.846820
0.478145 0.748947 0.846660
0.487264 0.746606 0.848751
0.528010 0.740826 0.852388
0.786570 0.767384 0.848525
0.874768 0.733165 0.831954
0.880135 0.692354 0.778433
0.879725 0.689557 0.752666
0.880641 0.703825 0.746369
0.711502 0.856932 0.835353
0.711443 0.856790 0.835235
0.716652 0.857561 0.836403
0.733782 0.858960 0.838999
0.806715 0.858301 0.842737
0.865491 0.856411 0.845026
0.891796 0.848950 0.841767
0.893363 0.832137 0.826929
0.892002 0.819164 0.814260
0.746990 0.882185 0.826363
0.746922 0.882136 0.826270
0.751309 0.882455 0.827661
0.762692 0.882990 0.830809
0.805722 0.882082 0.837476
0.857173 0.880065 0.843212
0.884225 0.878903 0.845338
0.896592 0.874821 0.841734
0.898560 0.868764 0.840665
0.788185 0.889030 0.827865
0.788071 0.889015 0.827789
0.791138 0.889155 0.829181
0.797840 0.889413 0.832160
0.818102 0.889490 0.838017
0.855430 0.888927 0.843133
0.877359 0.889472 0.840175
0.891279 0.886688 0.842027
0.896555 0.884396 0.842001
0.819164 0.890564 0.836269
0.819166 0.890563 0.836267
0.821142 0.890637 0.837441
0.825899 0.890810 0.839858
0.840050 0.891264 0.844435
0.861614 0.891612 0.848235
0.878966 0.892411 0.847000
0.888938 0.891241 0.844378
0.894561 0.889524 0.843849
0.267174 0.540400 0.844730
0.263612 0.538375 0.844128
0.266465 0.537273 0.845117
0.359854 0.547266 0.849148
0.649874 0.589345 0.856079
0.849236 0.537917 0.853533
0.872185 0.563811 0.812892
0.875241 0.616336 0.775832
0.877687 0.655832 0.764879
0.261749 0.537323 0.843813
0.257772 0.535065 0.843142
0.258418 0.532819 0.844011
0.352555 0.541043 0.848678
0.645346 0.582853 0.855667
0.847940 0.528112 0.853055
0.871630 0.555644 0.811898
0.874715 0.608649 0.773363
0.877191 0.648464 0.762350
0.268595 0.541220 0.844969
0.263533 0.538329 0.844113
0.262429 0.535225 0.844574
0.350105 0.538632 0.848502
0.644209 0.580493 0.855524
0.847555 0.524800 0.852876
0.871462 0.553170 0.811562
0.874579 0.606661 0.772695
0.877072 0.646698 0.761724
0.285153 0.550522 0.846601
0.276969 0.546083 0.845934
0.278668 0.544528 0.846717
0.357669 0.546769 0.849084
0.648172 0.584104 0.855777
0.848541 0.531325 0.853141
0.871880 0.559346 0.812158
0.874970 0.612397 0.774423
0.877458 0.652428 0.763639
0.409990 0.662547 0.856177
0.400291 0.656558 0.855712
0.410737 0.653624 0.855722
0.454639 0.659386 0.856702
0.688709 0.702789 0.861314
0.856662 0.674884 0.859237
0.877534 0.644873 0.824777
0.878562 0.665443 0.791496
0.880175 0.692998 0.778140
0.727517 0.847053 0.864013
0.726570 0.846617 0.863853
0.730169 0.847094 0.864533
0.738972 0.847318 0.866131
0.779359 0.844791 0.868338
0.863874 0.851756 0.866159
0.887468 0.844366 0.860399
0.891832 0.830336 0.849146
0.891354 0.818893 0.838440
0.793249 0.875964 0.858214
0.793315 0.875939 0.858202
0.795369 0.876251 0.858679
0.800635 0.876874 0.859759
0.825171 0.876964 0.861486
0.864726 0.876128 0.863477
0.881969 0.874021 0.863356
0.894119 0.873212 0.864114
0.897171 0.868789 0.860309
0.810967 0.885761 0.855100
0.810884 0.885732 0.855050
0.812721 0.885910 0.855607
0.816526 0.886162 0.856663
0.833458 0.886104 0.859064
0.863637 0.884796 0.862369
0.880317 0.883674 0.864798
0.889906 0.883691 0.864469
0.896338 0.882437 0.862545
0.823447 0.889398 0.854189
0.823365 0.889387 0.854144
0.825595 0.889508 0.854753
0.830163 0.889720 0.855958
0.842008 0.889815 0.858259
0.863871 0.889056 0.861725
0.878937 0.887948 0.864233
0.887168 0.888307 0.863200
0.892945 0.887394 0.864012
0.404146 0.617764 0.853716
0.400460 0.615518 0.853537
0.396253 0.612838 0.853327
0.436334 0.621662 0.854431
0.594951 0.653507 0.858585
0.816166 0.651523 0.862928
0.871747 0.634201 0.850355
0.878160 0.654601 0.824506
0.879747 0.681339 0.807830
0.396904 0.613444 0.853370
0.392385 0.610822 0.853157
0.386415 0.607107 0.852862
0.427251 0.614959 0.853931
0.588294 0.646601 0.858099
0.813851 0.643394 0.862424
0.871040 0.625474 0.849833
0.877626 0.646472 0.823336
0.879213 0.673264 0.805810
0.403776 0.617532 0.853698
0.397459 0.613761 0.853396
0.391872 0.610352 0.853124
0.424181 0.612550 0.853754
0.586360 0.644247 0.857948
0.813144 0.640773 0.862264
0.870839 0.622837 0.849658
0.877487 0.644360 0.823011
0.879090 0.671408 0.805325
0.418313 0.626629 0.854413
0.410204 0.621549 0.854014
0.407462 0.619797 0.853877
0.433115 0.619629 0.854273
0.590184 0.646727 0.858135
0.814834 0.644514 0.862513
0.871273 0.627501 0.849863
0.877843 0.649752 0.823701
0.879457 0.676964 0.806658
0.470863 0.669797 0.857497
0.462039 0.663887 0.857054
0.466185 0.665439 0.857198
0.491084 0.671862 0.857912
0.618560 0.694204 0.861267
0.823441 0.698171 0.865575
0.874342 0.672451 0.853004
0.879958 0.681934 0.828850
0.881229 0.703459 0.813600
0.700771 0.825138 0.870986
0.696941 0.823469 0.870766
0.698350 0.822021 0.870942
0.703273 0.818446 0.871127
0.735339 0.816109 0.871320
0.848673 0.837475 0.873139
0.883447 0.828879 0.869058
0.889688 0.810399 0.856550
0.889457 0.799196 0.845289
0.803838 0.872055 0.870573
0.803501 0.871918 0.870504
0.805169 0.872209 0.870789
0.809456 0.872839 0.871412
0.824250 0.873311 0.872383
0.858527 0.872594 0.874584
0.883203 0.874164 0.872670
0.891662 0.872697 0.871340
0.895154 0.870152 0.869203
0.828116 0.882919 0.867784
0.828060 0.882895 0.867759
0.829858 0.883094 0.868096
0.833753 0.883452 0.868763
0.845040 0.883680 0.869814
0.867946 0.883116 0.870978
0.881900 0.882515 0.872013
0.889303 0.881692 0.871611
0.894713 0.881460 0.871835
0.840187 0.887477 0.866339
0.840033 0.887450 0.866291
0.841644 0.887598 0.866686
0.844515 0.887804 0.867341
0.852096 0.887884 0.868527
0.869066 0.887168 0.870162
0.881543 0.886340 0.871457
0.888222 0.885954 0.872270
0.892697 0.885880 0.871845
0.488857 0.671694 0.857870
0.485626 0.669534 0.857709
0.481048 0.666525 0.857483
0.501629 0.672832 0.858111
0.595241 0.694553 0.860852
0.788175 0.712695 0.865586
0.865726 0.697466 0.863291
0.879668 0.698991 0.847236
0.881929 0.711185 0.832950
0.482732 0.667642 0.857567
0.478365 0.664811 0.857353
0.471999 0.660734 0.857043
0.492219 0.666150 0.857626
0.587196 0.687461 0.860326
0.785266 0.706215 0.865114
0.864740 0.688601 0.862817
0.879073 0.690502 0.846508
0.881405 0.704053 0.831685
0.488064 0.671161 0.857830
0.482256 0.667312 0.857542
0.476875 0.663852 0.857280
0.488836 0.663673 0.857445
0.584619 0.685018 0.860148
0.784232 0.703939 0.864950
0.864480 0.686067 0.862674
0.878918 0.688234 0.846304
0.881284 0.702382 0.831376
0.501349 0.680001 0.858509
0.493623 0.674855 0.858106
0.490986 0.673101 0.857975
0.498923 0.671119 0.857985
0.588360 0.687596 0.860355
0.786272 0.707078 0.865192
0.865142 0.691137 0.862911
0.879323 0.693791 0.846724
0.881661 0.707538 0.832240
0.536960 0.706536 0.860640
0.526660 0.700355 0.860081
0.528116 0.701151 0.860155
0.542596 0.705353 0.860649
0.613933 0.715290 0.862470
0.794272 0.730080 0.866851
0.867528 0.715969 0.864453
0.880831 0.714185 0.848943
0.882901 0.723941 0.835495
0.678632 0.800839 0.869786
0.672506 0.797703 0.869421
0.673433 0.795970 0.869319
0.679842 0.792682 0.869183
0.714704 0.797211 0.870082
0.826307 0.822403 0.874011
0.876402 0.816689 0.872897
0.887164 0.798623 0.862875
0.888678 0.791694 0.852305
0.803336 0.867694 0.875291
0.802681 0.867453 0.875213
0.804244 0.867716 0.875411
0.807734 0.867943 0.875915
0.815305 0.866783 0.876664
0.847910 0.866871 0.877653
0.881534 0.871916 0.876612
0.891084 0.870325 0.874829
0.894716 0.866980 0.872202
0.836633 0.881143 0.873713
0.836354 0.881075 0.873664
0.837842 0.881268 0.873911
0.841050 0.881624 0.874388
0.848688 0.881998 0.875027
0.867173 0.881902 0.875862
0.880309 0.881196 0.877130
0.889649 0.881604 0.875762
0.893657 0.881188 0.875310
0.849214 0.886025 0.872392
0.849127 0.886000 0.872367
0.850318 0.886144 0.872618
0.852604 0.886369 0.873059
0.857847 0.886535 0.873730
0.871586 0.886188 0.874494
0.882616 0.885673 0.875160
0.888650 0.885342 0.875662
0.892325 0.884987 0.875127
