luts/P4P_02_FlatBase_size65.cube
# POCKET 4P D-Log2 LUT pack v1.0 - FlatBase
# Low-contrast base to grade on top of. Not a finished look.
# Input:  DJI Osmo Pocket 4P D-Log2 / D-Gamut2, full range
# Output: Rec.709 / gamma 2.4 display
# Built on DJI's official D-Log2 to Rec.709 colorimetry with a
# scene-linear highlight shoulder so nothing clips at +7 stops.
TITLE "POCKET 4P FlatBase v1.0"
LUT_3D_SIZE 65
DOMAIN_MIN 0.0 0.0 0.0
DOMAIN_MAX 1.0 1.0 1.0
0.155348 0.155343 0.155354
0.155348 0.155343 0.155354
0.155348 0.155343 0.155354
0.155348 0.155343 0.155354
0.155348 0.155343 0.155354
0.169766 0.140899 0.143480
0.187093 0.139896 0.146093
0.198898 0.137777 0.148527
0.208795 0.135756 0.151255
0.217297 0.132609 0.154265
0.226526 0.129945 0.157929
0.236975 0.126425 0.162329
0.247658 0.122798 0.166890
0.259895 0.119389 0.172138
0.273004 0.115049 0.177464
0.288212 0.112217 0.183378
0.304841 0.110037 0.189362
0.322403 0.108667 0.195083
0.341904 0.108531 0.201074
0.362366 0.109799 0.206895
0.384294 0.114249 0.212777
0.407233 0.121177 0.219046
0.430309 0.129824 0.225247
0.454141 0.140485 0.231861
0.477461 0.150623 0.238298
0.500396 0.159898 0.244702
0.522689 0.167345 0.250969
0.543604 0.171615 0.256710
0.563514 0.172125 0.262067
0.581477 0.168778 0.266660
0.602354 0.163158 0.270668
0.620665 0.159163 0.274667
0.635929 0.163893 0.279497
0.649038 0.180055 0.285735
0.660257 0.203938 0.293314
0.669005 0.236321 0.303494
0.675689 0.266333 0.314082
0.680803 0.296105 0.325151
0.683816 0.322080 0.336380
0.686253 0.344901 0.346883
0.687905 0.362679 0.356548
0.689360 0.378300 0.365449
0.690498 0.390413 0.373424
0.691543 0.401533 0.380884
0.692409 0.410656 0.387846
0.693218 0.419191 0.394377
0.693935 0.426707 0.400538
0.694591 0.433570 0.406338
0.695208 0.440018 0.411792
0.695767 0.445967 0.417129
0.696293 0.451563 0.422158
0.696788 0.456830 0.426894
0.697276 0.461939 0.431648
0.697743 0.466793 0.436205
0.698183 0.471368 0.440502
0.698598 0.475683 0.444553
0.699003 0.479842 0.448601
0.699386 0.483772 0.452430
0.699748 0.487482 0.456045
0.700090 0.490985 0.459458
0.700416 0.494328 0.462735
0.700740 0.497652 0.466094
0.701047 0.500793 0.469268
0.701336 0.503762 0.472267
0.701610 0.506569 0.475102
0.155348 0.155343 0.155354
0.155348 0.155343 0.155354
0.155348 0.155343 0.155354
0.155348 0.155343 0.155354
0.155348 0.155343 0.155354
0.169766 0.140899 0.143480
0.187093 0.139896 0.146093
0.198898 0.137777 0.148527
0.208795 0.135756 0.151255
0.217297 0.132609 0.154265
0.226526 0.129945 0.157929
0.236975 0.126425 0.162329
0.247658 0.122798 0.166890
0.259895 0.119389 0.172138
0.273004 0.115049 0.177464
0.288212 0.112217 0.183378
0.304841 0.110037 0.189362
0.322403 0.108667 0.195083
0.341904 0.108531 0.201074
0.362366 0.109799 0.206895
0.384294 0.114249 0.212777
0.407233 0.121177 0.219046
0.430309 0.129824 0.225247
0.454141 0.140485 0.231861
0.477461 0.150623 0.238298
0.500396 0.159898 0.244702
0.522689 0.167345 0.250969
0.543604 0.171615 0.256710
0.563514 0.172125 0.262067
0.581477 0.168778 0.266660
0.602354 0.163158 0.270668
0.620665 0.159163 0.274667
0.635929 0.163893 0.279497
0.649038 0.180055 0.285735
0.660257 0.203938 0.293314
0.669005 0.236321 0.303494
0.675689 0.266333 0.314082
0.680803 0.296105 0.325151
0.683816 0.322080 0.336380
0.686253 0.344901 0.346883
0.687905 0.362679 0.356548
0.689360 0.378300 0.365449
0.690498 0.390413 0.373424
0.691543 0.401533 0.380884
0.692409 0.410656 0.387846
0.693218 0.419191 0.394377
0.693935 0.426707 0.400538
0.694591 0.433570 0.406338
0.695208 0.440018 0.411792
0.695767 0.445967 0.417129
0.696293 0.451563 0.422158
0.696788 0.456830 0.426894
0.697276 0.461939 0.431648
0.697743 0.466793 0.436205
0.698183 0.471368 0.440502
0.698598 0.475683 0.444553
0.699003 0.479842 0.448601
0.699386 0.483772 0.452430
0.699748 0.487482 0.456045
0.700090 0.490985 0.459458
0.700416 0.494328 0.462735
0.700740 0.497652 0.466094
0.701047 0.500793 0.469268
0.701336 0.503762 0.472267
0.701610 0.506569 0.475102
0.155348 0.155343 0.155354
0.155348 0.155343 0.155354
0.155348 0.155343 0.155354
0.155348 0.155343 0.155354
0.155348 0.155343 0.155354
0.169766 0.140899 0.143480
0.187093 0.139896 0.146093
0.198898 0.137777 0.148527
0.208795 0.135756 0.151255
0.217297 0.132609 0.154265
0.226526 0.129945 0.157929
0.236975 0.126425 0.162329
0.247658 0.122798 0.166890
0.259895 0.119389 0.172138
0.273004 0.115049 0.177464
0.288212 0.112217 0.183378
0.304841 0.110037 0.189362
0.322403 0.108667 0.195083
0.341904 0.108531 0.201074
0.362366 0.109799 0.206895
0.384294 0.114249 0.212777
0.407233 0.121177 0.219046
0.430309 0.129824 0.225247
0.454141 0.140485 0.231861
0.477461 0.150623 0.238298
0.500396 0.159898 0.244702
0.522689 0.167345 0.250969
0.543604 0.171615 0.256710
0.563514 0.172125 0.262067
0.581477 0.168778 0.266660
0.602354 0.163158 0.270668
0.620665 0.159163 0.274667
0.635929 0.163893 0.279497
0.649038 0.180055 0.285735
0.660257 0.203938 0.293314
0.669005 0.236321 0.303494
0.675689 0.266333 0.314082
0.680803 0.296105 0.325151
0.683816 0.322080 0.336380
0.686253 0.344901 0.346883
0.687905 0.362679 0.356548
0.689360 0.378300 0.365449
0.690498 0.390413 0.373424
0.691543 0.401533 0.380884
0.692409 0.410656 0.387846
0.693218 0.419191 0.394377
0.693935 0.426707 0.400538
0.694591 0.433570 0.406338
0.695208 0.440018 0.411792
0.695767 0.445967 0.417129
0.696293 0.451563 0.422158
0.696788 0.456830 0.426894
0.697276 0.461939 0.431648
0.697743 0.466793 0.436205
0.698183 0.471368 0.440502
0.698598 0.475683 0.444553
0.699003 0.479842 0.448601
0.699386 0.483772 0.452430
0.699748 0.487482 0.456045
0.700090 0.490985 0.459458
0.700416 0.494328 0.462735
0.700740 0.497652 0.466094
0.701047 0.500793 0.469268
0.701336 0.503762 0.472267
0.701610 0.506569 0.475102
0.155348 0.155343 0.155354
0.155348 0.155343 0.155354
0.155348 0.155343 0.155354
0.155348 0.155343 0.155354
0.155348 0.155343 0.155354
0.169766 0.140899 0.143480
0.187093 0.139896 0.146093
0.198898 0.137777 0.148527
0.208795 0.135756 0.151255
0.217297 0.132609 0.154265
0.226526 0.129945 0.157929
0.236975 0.126425 0.162329
0.247658 0.122798 0.166890
0.259895 0.119389 0.172138
0.273004 0.115049 0.177464
0.288212 0.112217 0.183378
0.304841 0.110037 0.189362
0.322403 0.108667 0.195083
0.341904 0.108531 0.201074
0.362366 0.109799 0.206895
0.384294 0.114249 0.212777
0.407233 0.121177 0.219046
0.430309 0.129824 0.225247
0.454141 0.140485 0.231861
0.477461 0.150623 0.238298
0.500396 0.159898 0.244702
0.522689 0.167345 0.250969
0.543604 0.171615 0.256710
0.563514 0.172125 0.262067
0.581477 0.168778 0.266660
0.602354 0.163158 0.270668
0.620665 0.159163 0.274667
0.635929 0.163893 0.279497
0.649038 0.180055 0.285735
0.660257 0.203938 0.293314
0.669005 0.236321 0.303494
0.675689 0.266333 0.314082
0.680803 0.296105 0.325151
0.683816 0.322080 0.336380
0.686253 0.344901 0.346883
0.687905 0.362679 0.356548
0.689360 0.378300 0.365449
0.690498 0.390413 0.373424
0.691543 0.401533 0.380884
0.692409 0.410656 0.387846
0.693218 0.419191 0.394377
0.693935 0.426707 0.400538
0.694591 0.433570 0.406338
0.695208 0.440018 0.411792
0.695767 0.445967 0.417129
0.696293 0.451563 0.422158
0.696788 0.456830 0.426894
0.697276 0.461939 0.431648
0.697743 0.466793 0.436205
0.698183 0.471368 0.440502
0.698598 0.475683 0.444553
0.699003 0.479842 0.448601
0.699386 0.483772 0.452430
0.699748 0.487482 0.456045
0.700090 0.490985 0.459458
0.700416 0.494328 0.462735
0.700740 0.497652 0.466094
0.701047 0.500793 0.469268
0.701336 0.503762 0.472267
0.701610 0.506569 0.475102
0.155348 0.155343 0.155354
0.155348 0.155343 0.155354
0.155348 0.155343 0.155354
0.155348 0.155343 0.155354
0.155348 0.155343 0.155354
0.169766 0.140899 0.143480
0.187093 0.139896 0.146093
0.198898 0.137777 0.148527
0.208795 0.135756 0.151255
0.217297 0.132609 0.154265
0.226526 0.129945 0.157929
0.236975 0.126425 0.162329
0.247658 0.122798 0.166890
0.259895 0.119389 0.172138
0.273004 0.115049 0.177464
0.288212 0.112217 0.183378
0.304841 0.110037 0.189362
0.322403 0.108667 0.195083
0.341904 0.108531 0.201074
0.362366 0.109799 0.206895
0.384294 0.114249 0.212777
0.407233 0.121177 0.219046
0.430309 0.129824 0.225247
0.454141 0.140485 0.231861
0.477461 0.150623 0.238298
0.500396 0.159898 0.244702
0.522689 0.167345 0.250969
0.543604 0.171615 0.256710
0.563514 0.172125 0.262067
0.581477 0.168778 0.266660
0.602354 0.163158 0.270668
0.620665 0.159163 0.274667
0.635929 0.163893 0.279497
0.649038 0.180055 0.285735
0.660257 0.203938 0.293314
0.669005 0.236321 0.303494
0.675689 0.266333 0.314082
0.680803 0.296105 0.325151
0.683816 0.322080 0.336380
0.686253 0.344901 0.346883
0.687905 0.362679 0.356548
0.689360 0.378300 0.365449
0.690498 0.390413 0.373424
0.691543 0.401533 0.380884
0.692409 0.410656 0.387846
0.693218 0.419191 0.394377
0.693935 0.426707 0.400538
0.694591 0.433570 0.406338
0.695208 0.440018 0.411792
0.695767 0.445967 0.417129
0.696293 0.451563 0.422158
0.696788 0.456830 0.426894
0.697276 0.461939 0.431648
0.697743 0.466793 0.436205
0.698183 0.471368 0.440502
0.698598 0.475683 0.444553
0.699003 0.479842 0.448601
0.699386 0.483772 0.452430
0.699748 0.487482 0.456045
0.700090 0.490985 0.459458
0.700416 0.494328 0.462735
0.700740 0.497652 0.466094
0.701047 0.500793 0.469268
0.701336 0.503762 0.472267
0.701610 0.506569 0.475102
0.139874 0.169726 0.151697
0.139874 0.169726 0.151697
0.139874 0.169726 0.151697
0.139874 0.169726 0.151697
0.139874 0.169726 0.151697
0.171392 0.173712 0.146531
0.194199 0.174322 0.140050
0.208152 0.172996 0.142021
0.218043 0.170800 0.144567
0.228897 0.167815 0.147620
0.238792 0.165484 0.150616
0.249735 0.161759 0.154259
0.261102 0.158219 0.159515
0.272773 0.153911 0.164583
0.285820 0.148025 0.170401
0.300086 0.142449 0.176826
0.315031 0.136679 0.182888
0.331771 0.131191 0.189263
0.349373 0.125675 0.195399
0.368580 0.121728 0.201767
0.389125 0.120933 0.208327
0.410258 0.123786 0.214525
0.432731 0.130250 0.221297
0.455650 0.139525 0.228274
0.478103 0.149175 0.235040
0.500661 0.158562 0.241933
0.522145 0.166222 0.248393
0.543130 0.171185 0.254640
0.562835 0.172409 0.260275
0.580418 0.169810 0.265033
0.601138 0.164908 0.269340
0.619410 0.161264 0.273421
0.634713 0.165260 0.278223
0.647892 0.179823 0.284337
0.659116 0.202091 0.291709
0.667808 0.232577 0.301397
0.674593 0.261521 0.311701
0.679976 0.291236 0.322717
0.683230 0.317548 0.333963
0.685861 0.340684 0.344476
0.687532 0.358693 0.354094
0.689013 0.374607 0.363012
0.690202 0.387279 0.371204
0.691290 0.398863 0.378839
0.692161 0.408052 0.385768
0.692976 0.416647 0.392268
0.693696 0.424207 0.398400
0.694355 0.431106 0.404175
0.694974 0.437587 0.409606
0.695540 0.443596 0.414961
0.696073 0.449247 0.420008
0.696574 0.454566 0.424761
0.697054 0.459600 0.429416
0.697509 0.464349 0.433851
0.697939 0.468826 0.438032
0.698343 0.473050 0.441976
0.698751 0.477235 0.446025
0.699137 0.481194 0.449861
0.699501 0.484932 0.453481
0.699845 0.488461 0.456900
0.700172 0.491819 0.460172
0.700493 0.495109 0.463482
0.700796 0.498219 0.466609
0.701083 0.501158 0.469563
0.701354 0.503938 0.472356
0.135690 0.188161 0.159501
0.135690 0.188161 0.159501
0.135690 0.188161 0.159501
0.135690 0.188161 0.159501
0.135690 0.188161 0.159501
0.168145 0.195146 0.147432
0.194646 0.197813 0.146715
0.211488 0.198584 0.139714
0.223952 0.199886 0.125959
0.235982 0.198884 0.129017
0.247408 0.196435 0.134115
0.259938 0.192865 0.141342
0.272233 0.188379 0.147861
0.284602 0.184918 0.153709
0.298029 0.179993 0.160116
0.311580 0.173535 0.166818
0.326536 0.167272 0.174320
0.342160 0.160139 0.181342
0.359294 0.152687 0.188713
0.377498 0.145243 0.196078
0.396221 0.138956 0.203165
0.416473 0.136173 0.210475
0.437582 0.137282 0.217543
0.458877 0.142037 0.224721
0.480902 0.149701 0.232234
0.502363 0.157931 0.239417
0.523762 0.165551 0.246524
0.544349 0.170650 0.253138
0.563430 0.172186 0.258950
0.581052 0.170047 0.264026
0.601712 0.165688 0.268476
0.619847 0.162558 0.272704
0.635060 0.166800 0.277621
0.648069 0.180974 0.283738
0.659023 0.202405 0.290982
0.667787 0.232842 0.300817
0.674589 0.261664 0.311193
0.679927 0.291123 0.322194
0.683154 0.316962 0.333282
0.685773 0.339765 0.343681
0.687471 0.358057 0.353467
0.688965 0.374115 0.362470
0.690134 0.386573 0.370523
0.691206 0.397989 0.378049
0.692085 0.407260 0.385026
0.692906 0.415930 0.391569
0.693631 0.423537 0.397735
0.694293 0.430472 0.403536
0.694916 0.436985 0.408991
0.695471 0.442879 0.414239
0.695992 0.448420 0.419183
0.696483 0.453636 0.423838
0.696966 0.458689 0.428509
0.697426 0.463488 0.432987
0.697859 0.468012 0.437209
0.698268 0.472279 0.441191
0.698674 0.476451 0.445224
0.699057 0.480396 0.449044
0.699419 0.484120 0.452648
0.699761 0.487637 0.456052
0.700085 0.490972 0.459300
0.700400 0.494193 0.462533
0.700698 0.497237 0.465587
0.700979 0.500114 0.468474
0.701245 0.502835 0.471203
0.131181 0.202139 0.166849
0.131181 0.202139 0.166849
0.131181 0.202139 0.166849
0.131181 0.202139 0.166849
0.131181 0.202139 0.166849
0.165452 0.209555 0.153329
0.191182 0.214081 0.148227
0.211704 0.216067 0.149040
0.225154 0.217547 0.138512
0.239673 0.219337 0.116948
0.251736 0.219954 0.107889
0.264655 0.218620 0.112691
0.279273 0.216103 0.122820
0.293357 0.211718 0.135142
0.307114 0.206615 0.145560
0.321733 0.201287 0.154449
0.336478 0.195269 0.162355
0.351917 0.187637 0.170330
0.368584 0.179470 0.179221
0.385701 0.170657 0.187689
0.404127 0.161831 0.196447
0.423193 0.154606 0.204820
0.442908 0.150231 0.212876
0.463538 0.149834 0.220695
0.484131 0.153070 0.228544
0.505215 0.159027 0.236554
0.525947 0.165320 0.244231
0.545663 0.169878 0.251198
0.564722 0.171555 0.257568
0.581763 0.169767 0.262836
0.602423 0.165813 0.267516
0.620551 0.163135 0.271965
0.635517 0.167596 0.276940
0.648291 0.181836 0.283084
0.659312 0.203355 0.290496
0.667924 0.233251 0.300309
0.674631 0.261815 0.310689
0.679915 0.291096 0.321707
0.683166 0.317181 0.332979
0.685805 0.340150 0.343518
0.687470 0.358076 0.353158
0.688943 0.373908 0.362083
0.690123 0.386483 0.370242
0.691204 0.397990 0.377853
0.692078 0.407204 0.384809
0.692895 0.415822 0.391334
0.693609 0.423313 0.397413
0.694258 0.430114 0.403107
0.694868 0.436502 0.408462
0.695430 0.442468 0.413780
0.695959 0.448079 0.418793
0.696456 0.453361 0.423513
0.696938 0.458403 0.428174
0.697395 0.463171 0.432625
0.697826 0.467666 0.436820
0.698232 0.471906 0.440777
0.698631 0.476014 0.444749
0.699008 0.479896 0.448508
0.699365 0.483561 0.452056
0.699701 0.487023 0.455406
0.700022 0.490322 0.458618
0.700341 0.493586 0.461894
0.700643 0.496672 0.464988
0.700928 0.499588 0.467912
0.701197 0.502345 0.470676
0.126805 0.213390 0.173599
0.126805 0.213390 0.173599
0.126805 0.213390 0.173599
0.126805 0.213390 0.173599
0.126805 0.213390 0.173599
0.162177 0.220144 0.161867
0.189459 0.225764 0.151289
0.210104 0.229320 0.149716
0.226436 0.231460 0.149594
0.241488 0.233278 0.136722
0.255529 0.235905 0.110112
0.268264 0.237527 0.090324
0.282826 0.236330 0.097464
0.298076 0.233593 0.110290
0.313293 0.230081 0.121262
0.328336 0.224988 0.132666
0.344119 0.219220 0.146233
0.360254 0.212037 0.158666
0.376246 0.204461 0.167665
0.393703 0.195031 0.177602
0.411252 0.184198 0.187769
0.429730 0.174344 0.197778
0.448910 0.166266 0.207394
0.468171 0.161042 0.216213
0.488244 0.159895 0.224761
0.508467 0.162262 0.233401
0.528134 0.166168 0.241492
0.547692 0.169737 0.249190
0.566012 0.170946 0.255867
0.582940 0.169182 0.261568
0.603785 0.165430 0.266526
0.621437 0.163188 0.271132
0.636303 0.168387 0.276363
0.649070 0.183235 0.282774
0.659902 0.204991 0.290343
0.668297 0.234593 0.300230
0.674872 0.263159 0.310719
0.680070 0.292416 0.321850
0.683244 0.317910 0.332957
0.685826 0.340403 0.343360
0.687502 0.358447 0.353121
0.688982 0.374342 0.362132
0.690155 0.386839 0.370287
0.691228 0.398261 0.377882
0.692084 0.407287 0.384714
0.692885 0.415731 0.391123
0.693601 0.423241 0.397236
0.694259 0.430129 0.403017
0.694877 0.436599 0.408453
0.695430 0.442459 0.413681
0.695950 0.447967 0.418606
0.696440 0.453153 0.423244
0.696919 0.458178 0.427894
0.697375 0.462950 0.432351
0.697805 0.467449 0.436552
0.698211 0.471692 0.440515
0.698613 0.475836 0.444524
0.698994 0.479753 0.448320
0.699353 0.483451 0.451903
0.699693 0.486943 0.455286
0.700015 0.490257 0.458515
0.700329 0.493462 0.461732
0.700625 0.496491 0.464771
0.700905 0.499354 0.467643
0.701169 0.502062 0.470358
0.121617 0.222949 0.180200
0.121617 0.222949 0.180200
0.121617 0.222949 0.180200
0.121617 0.222949 0.180200
0.121617 0.222949 0.180200
0.157121 0.231118 0.170873
0.186481 0.237371 0.155676
0.208126 0.242174 0.147774
0.224476 0.245596 0.151554
0.241154 0.247500 0.147525
0.255937 0.250213 0.128539
0.272188 0.252481 0.102361
0.287131 0.253724 0.088612
0.301488 0.253390 0.089360
0.316804 0.250934 0.099301
0.333114 0.247083 0.112281
0.349511 0.241837 0.124333
0.365734 0.235113 0.137293
0.382904 0.227169 0.151346
0.400525 0.218285 0.164929
0.418170 0.207890 0.177479
0.436504 0.196703 0.189022
0.454670 0.185556 0.200022
0.473592 0.176072 0.210652
0.492736 0.169995 0.220303
0.511713 0.167787 0.229472
0.531021 0.168703 0.238517
0.549620 0.170281 0.246698
0.567812 0.170657 0.254078
0.584390 0.168496 0.260169
0.605031 0.164781 0.265334
0.622411 0.162909 0.270218
0.637006 0.168567 0.275634
0.649501 0.183714 0.282155
0.660187 0.205564 0.289845
0.668605 0.235664 0.300038
0.675119 0.264290 0.310650
0.680168 0.293145 0.321722
0.683337 0.318839 0.333019
0.685924 0.341493 0.343584
0.687574 0.359253 0.353271
0.689032 0.374899 0.362205
0.690185 0.387177 0.370264
0.691242 0.398429 0.377789
0.692106 0.407539 0.384719
0.692915 0.416061 0.391220
0.693624 0.423498 0.397295
0.694270 0.430263 0.402993
0.694877 0.436617 0.408352
0.695434 0.442522 0.413632
0.695957 0.448077 0.418609
0.696449 0.453306 0.423295
0.696929 0.458324 0.427947
0.697384 0.463078 0.432393
0.697814 0.467560 0.436585
0.698219 0.471787 0.440539
0.698615 0.475857 0.444480
0.698989 0.479702 0.448209
0.699341 0.483332 0.451729
0.699675 0.486761 0.455053
0.699993 0.490031 0.458241
0.700310 0.493275 0.461499
0.700610 0.496341 0.464578
0.700893 0.499239 0.467486
0.701161 0.501979 0.470236
0.116098 0.233639 0.187266
0.116098 0.233639 0.187266
0.116098 0.233639 0.187266
0.116098 0.233639 0.187266
0.116098 0.233639 0.187266
0.151830 0.242083 0.179370
0.182819 0.248749 0.164333
0.205645 0.254791 0.152940
0.222612 0.259071 0.146180
0.239706 0.261841 0.149641
0.256635 0.264480 0.141087
0.273659 0.267384 0.119004
0.291206 0.269567 0.101191
0.306787 0.270616 0.089683
0.321726 0.270298 0.091625
0.337760 0.268083 0.097714
0.354115 0.263809 0.106531
0.371119 0.258169 0.117325
0.388282 0.250366 0.131579
0.406107 0.241054 0.146457
0.424308 0.230259 0.161657
0.442492 0.218166 0.176647
0.460990 0.205408 0.191273
0.479298 0.193503 0.203612
0.497588 0.183754 0.214905
0.516154 0.177344 0.225102
0.534266 0.174102 0.234694
0.552515 0.172848 0.243798
0.570104 0.171334 0.251811
0.586559 0.168186 0.258289
0.607001 0.163943 0.263930
0.623675 0.162088 0.269029
0.637938 0.168321 0.274720
0.650364 0.184342 0.281596
0.660991 0.207014 0.289635
0.669080 0.236754 0.299851
0.675431 0.265607 0.310645
0.680444 0.294966 0.322034
0.683535 0.320488 0.333392
0.686051 0.342897 0.343965
0.687666 0.360265 0.353539
0.689098 0.375636 0.362407
0.690250 0.387898 0.370523
0.691305 0.399113 0.378082
0.692148 0.407991 0.384878
0.692936 0.416298 0.391254
0.693641 0.423708 0.397335
0.694290 0.430514 0.403087
0.694900 0.436908 0.408497
0.695457 0.442806 0.413784
0.695981 0.448352 0.418766
0.696474 0.453574 0.423458
0.696947 0.458518 0.428048
0.697394 0.463185 0.432420
0.697816 0.467584 0.436542
0.698214 0.471735 0.440431
0.698614 0.475856 0.444424
0.698993 0.479756 0.448207
0.699351 0.483438 0.451779
0.699689 0.486915 0.455151
0.700010 0.490215 0.458368
0.700323 0.493405 0.461574
0.700619 0.496420 0.464603
0.700898 0.499270 0.467465
0.701162 0.501965 0.470171
0.111816 0.245180 0.195040
0.111816 0.245180 0.195040
0.111816 0.245180 0.195040
0.111816 0.245180 0.195040
0.111816 0.245180 0.195040
0.145396 0.253711 0.188058
0.177195 0.261136 0.174889
0.202210 0.266906 0.160806
0.220578 0.272662 0.150694
0.237520 0.276317 0.144992
0.254406 0.280071 0.146040
0.274551 0.282793 0.132554
0.292465 0.285398 0.114490
0.310193 0.287738 0.101187
0.327005 0.288542 0.094047
0.343301 0.287890 0.097204
0.359243 0.285781 0.100942
0.376170 0.281054 0.106482
0.393956 0.274769 0.115354
0.411962 0.266627 0.127405
0.429936 0.256037 0.143719
0.448608 0.243765 0.160461
0.467301 0.229747 0.177288
0.485363 0.215422 0.192867
0.503410 0.201953 0.207441
0.520869 0.190930 0.219588
0.538579 0.183266 0.230135
0.556003 0.177963 0.240023
0.572532 0.173388 0.248605
0.589641 0.168371 0.255853
0.608904 0.163162 0.261874
0.625159 0.161280 0.267477
0.639160 0.168332 0.273660
0.651296 0.185215 0.280924
0.661596 0.208301 0.289231
0.669632 0.238774 0.299928
0.675874 0.267923 0.311002
0.680699 0.297024 0.322458
0.683698 0.322025 0.333723
0.686153 0.344025 0.344230
0.687773 0.361447 0.353935
0.689202 0.376768 0.362858
0.690321 0.388671 0.370806
0.691349 0.399597 0.378236
0.692198 0.408536 0.385118
0.692992 0.416900 0.391574
0.693693 0.424278 0.397656
0.694334 0.431022 0.403379
0.694937 0.437358 0.408761
0.695486 0.443157 0.413973
0.696003 0.448611 0.418884
0.696490 0.453747 0.423510
0.696965 0.458722 0.428140
0.697419 0.463447 0.432576
0.697846 0.467902 0.436759
0.698249 0.472104 0.440705
0.698645 0.476178 0.444658
0.699019 0.480028 0.448400
0.699372 0.483663 0.451932
0.699706 0.487096 0.455267
0.700024 0.490365 0.458460
0.700339 0.493577 0.461692
0.700637 0.496614 0.464746
0.700919 0.499484 0.467632
0.701185 0.502198 0.470360
0.105700 0.257519 0.203124
0.105700 0.257519 0.203124
0.105700 0.257519 0.203124
0.105700 0.257519 0.203124
0.105700 0.257519 0.203124
0.138555 0.266566 0.197428
0.169852 0.273990 0.186130
0.196879 0.280497 0.170341
0.216324 0.286429 0.160462
0.234348 0.291199 0.148532
0.251755 0.295714 0.143533
0.271958 0.298780 0.140852
0.292384 0.302072 0.126522
0.311504 0.304578 0.111487
0.330114 0.306708 0.102471
0.348222 0.307446 0.099144
0.364974 0.306234 0.101955
0.381975 0.303563 0.105032
0.399643 0.298827 0.107887
0.417332 0.291724 0.114941
0.436029 0.282334 0.127780
0.454845 0.270544 0.144670
0.473040 0.256794 0.162162
0.491702 0.240993 0.179707
0.509431 0.225192 0.196293
0.527010 0.210873 0.211495
0.543976 0.198345 0.224193
0.560223 0.187920 0.235095
0.576274 0.179030 0.244701
0.593598 0.170783 0.252633
0.611988 0.163430 0.259336
0.627494 0.160739 0.265513
0.640831 0.168035 0.272169
0.652526 0.185786 0.279912
0.662673 0.209849 0.288780
0.670385 0.240450 0.299753
0.676404 0.269898 0.311113
0.681076 0.299241 0.322854
0.683978 0.324270 0.334319
0.686349 0.346187 0.344947
0.687917 0.363029 0.354467
0.689310 0.377949 0.363279
0.690430 0.389853 0.371318
0.691458 0.400767 0.378818
0.692294 0.409573 0.385664
0.693077 0.417814 0.392088
0.693764 0.425041 0.398087
0.694391 0.431629 0.403713
0.694980 0.437820 0.409004
0.695531 0.443654 0.414272
0.696050 0.449145 0.419239
0.696539 0.454315 0.423917
0.697008 0.459223 0.428494
0.697453 0.463858 0.432854
0.697872 0.468229 0.436965
0.698267 0.472352 0.440844
0.698666 0.476446 0.444825
0.699044 0.480318 0.448598
0.699400 0.483975 0.452159
0.699737 0.487428 0.455521
0.700058 0.490715 0.458738
0.700374 0.493941 0.461987
0.700673 0.496990 0.465057
0.700956 0.499872 0.467958
0.701223 0.502597 0.470700
0.100559 0.271187 0.211718
0.100559 0.271187 0.211718
0.100559 0.271187 0.211718
0.100559 0.271187 0.211718
0.100559 0.271187 0.211718
0.129424 0.279745 0.206727
0.161800 0.287581 0.197457
0.189492 0.294323 0.183697
0.210851 0.300109 0.170729
0.229600 0.305543 0.159507
0.248335 0.310446 0.146822
0.268722 0.315004 0.140699
0.290017 0.318495 0.137394
0.311434 0.321718 0.123461
0.331921 0.324409 0.110851
0.350937 0.325903 0.105810
0.369439 0.326488 0.103773
0.387332 0.324940 0.107040
0.405031 0.321451 0.109016
0.423606 0.315881 0.112353
0.441899 0.308030 0.119734
0.460587 0.297772 0.131280
0.479331 0.285142 0.148073
0.497587 0.269190 0.166651
0.515731 0.251439 0.184724
0.533273 0.233441 0.201403
0.549584 0.217362 0.215765
0.565530 0.202242 0.228184
