luts/P4P_09_Nordic_size33.cube
# POCKET 4P D-Log2 LUT pack v1.0 - Nordic
# Cold and muted. Overcast, slate greens.
# Input:  DJI Osmo Pocket 4P D-Log2 / D-Gamut2, full range
# Output: Rec.709 / gamma 2.4 display
# Built on DJI's official D-Log2 to Rec.709 colorimetry with a
# scene-linear highlight shoulder so nothing clips at +7 stops.
TITLE "POCKET 4P Nordic v1.0"
LUT_3D_SIZE 5
DOMAIN_MIN 0.0 0.0 0.0
DOMAIN_MAX 1.0 1.0 1.0
0.004257 0.014633 0.037042
0.113453 0.000000 0.006387
0.706994 0.000000 0.000000
0.874478 0.272392 0.187547
0.896288 0.469677 0.374969
0.140986 0.271165 0.190636
0.415019 0.423913 0.212531
0.757071 0.000000 0.000000
0.876094 0.280205 0.190139
0.896248 0.466255 0.369196
0.690015 0.952833 0.817761
0.727940 0.960609 0.835482
0.966514 0.970329 0.710792
0.924824 0.703452 0.502629
0.912528 0.639810 0.528411
0.923675 0.971123 0.922962
0.925199 0.970070 0.924450
0.935017 0.962303 0.931377
0.967744 0.970266 0.909334
0.958547 0.952742 0.897322
0.934301 0.961504 0.936276
0.934659 0.961156 0.936486
0.936387 0.959154 0.938313
0.944378 0.953447 0.940263
0.953529 0.957526 0.935418
0.000000 0.000000 0.092322
0.084195 0.000000 0.095743
0.669041 0.000000 0.000000
0.871907 0.269018 0.198562
0.895218 0.465230 0.376020
0.085362 0.305139 0.312062
0.262208 0.274362 0.295743
0.722134 0.000000 0.000000
0.874136 0.279481 0.202148
0.895509 0.465494 0.374035
0.678641 0.957115 0.839726
0.709912 0.963034 0.852270
0.964049 0.968031 0.728231
0.922546 0.688854 0.504326
0.912032 0.640064 0.534050
0.923868 0.970879 0.923793
0.924673 0.970302 0.924695
0.935004 0.962191 0.931818
0.967556 0.970090 0.909689
0.958354 0.952554 0.897776
0.934383 0.961401 0.936409
0.934577 0.961207 0.936529
0.936340 0.959151 0.938450
0.944267 0.953348 0.940375
0.953422 0.957420 0.935515
0.000000 0.114683 0.553849
0.000000 0.000000 0.574846
0.388773 0.000000 0.299819
0.808846 0.209612 0.398177
0.869176 0.441700 0.511351
0.000000 0.125635 0.565381
0.000000 0.000000 0.584249
0.387949 0.000000 0.299077
0.806478 0.199611 0.390496
0.867550 0.429360 0.499829
0.513727 0.911623 0.911807
0.539369 0.911249 0.911524
0.831148 0.843416 0.863130
0.890066 0.613750 0.670529
0.895214 0.614671 0.636671
0.900644 0.974707 0.940752
0.903091 0.974083 0.940645
0.924837 0.966782 0.937260
0.955236 0.958766 0.922812
0.950421 0.943293 0.908182
0.931090 0.961654 0.942224
0.931367 0.961358 0.942474
0.933915 0.959108 0.943555
0.943464 0.952354 0.941633
0.951787 0.955444 0.936295
0.000000 0.242318 0.842837
0.000000 0.233207 0.841395
0.245432 0.201136 0.802334
0.649772 0.075292 0.583568
0.825443 0.388771 0.632981
0.000000 0.243636 0.843297
0.000000 0.229860 0.840306
0.229977 0.181262 0.796974
0.637302 0.050361 0.570945
0.820740 0.369207 0.619750
0.107764 0.495510 0.888523
0.098101 0.472132 0.884419
0.415752 0.479383 0.866190
0.741540 0.263629 0.684061
0.842376 0.467707 0.689916
0.857739 0.947954 0.952146
0.859277 0.947867 0.952157
0.880069 0.943662 0.949541
0.918253 0.926902 0.938467
0.926790 0.915483 0.930507
0.901389 0.960183 0.954052
0.902394 0.959919 0.953996
0.910274 0.957375 0.952965
0.928009 0.947662 0.947573
0.936039 0.943842 0.944444
0.188227 0.484975 0.882129
0.175253 0.475020 0.880787
0.313028 0.496700 0.877618
0.694022 0.337322 0.801383
0.806773 0.426228 0.770987
0.186900 0.483945 0.881989
0.168428 0.469932 0.880108
0.292109 0.476754 0.874476
0.677881 0.309149 0.793061
0.800103 0.402810 0.756817
0.272467 0.556338 0.892271
0.257563 0.544485 0.890590
0.356029 0.547781 0.886494
0.722117 0.389203 0.816206
0.816173 0.461145 0.788703
0.834870 0.928001 0.950832
0.835582 0.927810 0.950767
0.842837 0.923615 0.949284
0.907997 0.915890 0.940869
0.917410 0.904948 0.933289
0.900376 0.947279 0.953394
0.901164 0.947163 0.953347
0.906396 0.945949 0.952674
0.922235 0.939248 0.948323
0.928053 0.935781 0.946105
